;FLAVOR:Marlin
;TIME:7252
;Filament used: 4.83931m
;Layer height: 0.16
;MINX:83.589
;MINY:91.133
;MINZ:0.24
;MAXX:151.415
;MAXY:143.89
;MAXZ:16.15
;Generated with Cura_SteamEngine 5.2.1
M140 S50
M105
M190 S50
M104 S200
M105
M109 S200
M82 ;absolute extrusion mode
; Ender 3 Custom Start G-code
G92 E0 ; Reset Extruder
G28 ; Home all axes
G1 Z2.0 F3000 ; Move Z Axis up little to prevent scratching of Heat Bed
G1 X0.1 Y20 Z0.3 F5000.0 ; Move to start position
G1 X0.1 Y200.0 Z0.3 F1500.0 E15 ; Draw the first line
G1 X0.4 Y200.0 Z0.3 F5000.0 ; Move to side a little
G1 X0.4 Y20 Z0.3 F1500.0 E30 ; Draw the second line
G92 E0 ; Reset Extruder
G1 Z2.0 F3000 ; Move Z Axis up little to prevent scratching of Heat Bed
G1 X5 Y20 Z0.3 F5000.0 ; Move over to prevent blob squish
G92 E0
G92 E0
G1 F2700 E-5
;LAYER_COUNT:93
;LAYER:-6
M107
G0 F9000 X87.589 Y104.863 Z0.24
;TYPE:SUPPORT-INTERFACE
G1 F2700 E0
G1 F1237.5 X87.01 Y105.474 E0.06719
G1 X86.479 Y106.141 E0.13525
G1 X86.004 Y106.861 E0.2041
G1 X85.594 Y107.625 E0.27331
G1 X85.266 Y108.395 E0.34012
G1 X84.998 Y109.224 E0.40967
G1 X84.806 Y110.059 E0.47806
G1 X84.688 Y110.918 E0.54728
G1 X84.65 Y111.851 E0.62181
G1 X84.65 Y112.051 E0.63778
G1 X84.651 Y133.219 E2.3275
G1 X84.67 Y133.773 E2.37175
G1 X84.745 Y134.566 E2.43533
G1 X84.906 Y135.42 E2.5047
G1 X85.136 Y136.239 E2.57261
G1 X85.441 Y137.035 E2.64065
G1 X85.82 Y137.814 E2.7098
G1 X86.253 Y138.536 E2.77701
G1 X86.771 Y139.242 E2.84691
G1 X87.337 Y139.885 E2.91528
G1 X87.949 Y140.465 E2.98259
G1 X88.616 Y140.996 E3.05065
G1 X89.337 Y141.472 E3.11961
G1 X90.101 Y141.882 E3.18882
G1 X90.806 Y142.182 E3.24998
G1 X91.692 Y142.476 E3.3245
G1 X92.532 Y142.669 E3.3933
G1 X93.394 Y142.787 E3.46275
G1 X94.326 Y142.825 E3.53721
G1 X140.758 Y142.824 E7.24361
G1 X141.298 Y142.805 E7.28674
G1 X142.093 Y142.73 E7.35048
G1 X142.946 Y142.569 E7.41978
G1 X143.755 Y142.342 E7.48685
G1 X144.556 Y142.036 E7.55529
G1 X145.332 Y141.659 E7.62416
G1 X146.069 Y141.216 E7.6928
G1 X146.766 Y140.704 E7.76184
G1 X147.411 Y140.137 E7.83039
G1 X147.99 Y139.526 E7.89758
G1 X148.527 Y138.852 E7.96637
G1 X148.996 Y138.138 E8.03456
G1 X149.407 Y137.374 E8.10381
G1 X149.735 Y136.603 E8.17069
G1 X150 Y135.788 E8.2391
G1 X150.194 Y134.942 E8.30839
G1 X150.312 Y134.082 E8.37768
G1 X150.35 Y133.141 E8.45286
G1 X150.35 Y111.783 E10.15774
G1 X150.33 Y111.226 E10.20224
G1 X150.255 Y110.433 E10.26582
G1 X150.123 Y109.725 E10.32331
G1 X150.066 Y109.478 E10.34354
G1 X149.867 Y108.769 E10.40233
G1 X149.564 Y107.974 E10.47024
G1 X149.187 Y107.198 E10.53911
G1 X148.74 Y106.456 E10.60825
G1 X148.228 Y105.758 E10.67735
G1 X147.663 Y105.115 E10.74568
G1 X147.047 Y104.531 E10.81344
G1 X146.377 Y103.999 E10.88173
G1 X145.664 Y103.53 E10.94985
G1 X144.898 Y103.118 E11.01928
G1 X144.106 Y102.78 E11.08802
G1 X143.419 Y102.558 E11.14565
G1 X142.904 Y102.358 E11.18975
G1 X142.898 Y102.342 E11.19111
G1 X142.158 Y102.035 E11.25507
G1 X118.227 Y92.835 E13.30164
G1 X117.287 Y92.525 E13.38065
G1 X116.447 Y92.331 E13.44947
G1 X115.584 Y92.213 E13.519
G1 X114.652 Y92.176 E13.59345
G1 X107.175 Y92.175 E14.1903
G1 X106.64 Y92.195 E14.23304
G1 X105.847 Y92.27 E14.29662
G1 X104.999 Y92.43 E14.3655
G1 X104.164 Y92.664 E14.43473
G1 X103.372 Y92.966 E14.50239
G1 X102.604 Y93.34 E14.57057
G1 X101.878 Y93.776 E14.63817
G1 X101.169 Y94.294 E14.70827
G1 X100.531 Y94.856 E14.77613
G1 X99.936 Y95.481 E14.84502
G1 X99.415 Y96.139 E14.91201
G1 X98.94 Y96.861 E14.981
G1 X98.527 Y97.627 E15.05047
G1 X98.238 Y98.309 E15.10959
G1 X98.111 Y98.647 E15.13842
G1 X98.095 Y98.655 E15.13984
G1 X97.845 Y99.279 E15.1935
G1 X97.515 Y99.841 E15.24553
G1 X97.087 Y100.397 E15.30154
G1 X96.625 Y100.863 E15.35392
G1 X96.098 Y101.277 E15.40741
G1 X95.484 Y101.645 E15.46455
G1 X94.872 Y101.911 E15.51782
G1 X94.21 Y102.104 E15.57286
G1 X93.558 Y102.208 E15.62557
G1 X92.913 Y102.269 E15.67728
G1 X92.057 Y102.43 E15.74681
G1 X91.245 Y102.658 E15.81414
G1 X90.444 Y102.964 E15.88258
G1 X89.668 Y103.341 E15.95145
G1 X88.931 Y103.784 E16.02009
G1 X88.234 Y104.295 E16.08908
G1 X87.589 Y104.863 E16.15768
G0 F9000 X87.468 Y105.57
G1 F1237.5 X124.32 Y142.422 E20.31785
G0 F9000 X122.057 Y142.422
G1 F1237.5 X86.487 Y106.852 E24.3333
G0 F9000 X85.72 Y108.347
G1 F1237.5 X119.795 Y142.422 E28.17998
G0 F9000 X117.533 Y142.423
G1 F1237.5 X85.207 Y110.097 E31.82922
G0 F9000 X85.05 Y112.202
G1 F1237.5 X115.27 Y142.423 E35.24077
G0 F9000 X113.007 Y142.423
G1 F1237.5 X85.05 Y114.465 E38.39686
G0 F9000 X85.05 Y116.728
G1 F1237.5 X110.744 Y142.423 E41.29748
G0 F9000 X108.482 Y142.423
G1 F1237.5 X85.05 Y118.991 E43.94268
G0 F9000 X85.05 Y121.253
G1 F1237.5 X106.219 Y142.423 E46.33248
G0 F9000 X103.956 Y142.423
G1 F1237.5 X85.05 Y123.517 E48.46675
G0 F9000 X85.05 Y125.78
G1 F1237.5 X101.693 Y142.423 E50.34556
G0 F9000 X99.431 Y142.423
G1 F1237.5 X85.05 Y128.042 E51.96901
G0 F9000 X85.05 Y130.305
G1 F1237.5 X97.168 Y142.423 E53.33699
G0 F9000 X94.905 Y142.423
G1 F1237.5 X85.05 Y132.568 E54.44951
G0 F9000 X85.237 Y135.017
G1 F1237.5 X92.46 Y142.24 E55.2649
G1 F2700 E50.2649
G0 F9000 X92.474 Y143.735
G0 X93.96 Y143.859
G0 X126.583 Y143.89
G0 X126.583 Y142.422
G1 F2700 E55.2649
G1 F1237.5 X88.647 Y104.487 E59.54739
G0 F9000 X90.032 Y103.608
G1 F1237.5 X128.846 Y142.422 E63.92905
G0 F9000 X131.108 Y142.422
G1 F1237.5 X91.646 Y102.96 E68.38386
G0 F9000 X93.557 Y102.608
G1 F1237.5 X133.371 Y142.422 E72.87841
G0 F9000 X135.634 Y142.422
G1 F1237.5 X95.349 Y102.138 E77.42607
G0 F9000 X96.749 Y101.274
G1 F1237.5 X137.897 Y142.422 E82.07122
G0 F9000 X140.159 Y142.422
G1 F1237.5 X97.827 Y100.09 E86.85002
G0 F9000 X98.567 Y98.567
G1 F1237.5 X142.286 Y142.286 E91.7854
G0 F9000 X144.06 Y141.797
G1 F1237.5 X99.301 Y97.038 E96.83818
G0 F9000 X100.252 Y95.727
G1 F1237.5 X145.572 Y141.046 E101.95424
G0 F9000 X146.868 Y140.079
G1 F1237.5 X101.406 Y94.617 E107.08638
G0 F9000 X102.762 Y93.711
G1 F1237.5 X147.964 Y138.913 E112.18917
G0 F9000 X148.86 Y137.546
G1 F1237.5 X104.342 Y93.029 E117.21469
G0 F9000 X106.213 Y92.637
G1 F1237.5 X149.526 Y135.95 E122.10424
G0 F9000 X149.909 Y134.07
G1 F1237.5 X108.415 Y92.575 E126.78849
G0 F9000 X110.677 Y92.575
G1 F1237.5 X149.949 Y131.847 E131.22186
G0 F9000 X149.949 Y129.585
G1 F1237.5 X112.94 Y92.575 E135.39981
G0 F9000 X115.227 Y92.599
G1 F1237.5 X149.949 Y127.322 E139.31959
G0 F9000 X149.949 Y125.059
G1 F1237.5 X118.108 Y93.218 E142.91407
G0 F9000 X121.785 Y94.632
G1 F1237.5 X149.949 Y122.796 E146.09347
G0 F9000 X149.949 Y120.534
G1 F1237.5 X125.46 Y96.044 E148.85806
G0 F9000 X129.136 Y97.458
G1 F1237.5 X149.949 Y118.271 E151.20761
G0 F9000 X149.949 Y116.008
G1 F1237.5 X132.812 Y98.871 E153.14218
G0 F9000 X136.488 Y100.284
G1 F1237.5 X149.949 Y113.745 E154.66177
G0 F9000 X149.939 Y111.472
G1 F1237.5 X140.164 Y101.697 E155.76526
G0 F9000 X143.846 Y103.116
G1 F1237.5 X149.401 Y108.672 E156.39241
G1 F2700 E151.39241
G0 F300 X149.401 Y108.672 Z0.48
G0 F9000 X150.915 Y108.565
G0 X151.288 Y110.164
G0 X151.415 Y111.769
G0 X151.378 Y134.052
G0 X151.218 Y135.242
G0 X150.779 Y136.838
G0 X150.305 Y137.95
G0 X149.476 Y139.346
G0 X148.714 Y140.311
G0 X147.527 Y141.453
G0 X146.543 Y142.173
G0 X145.106 Y142.953
G0 X144.378 Y141.677
;TIME_ELAPSED:106.955266
;LAYER:-5
;TYPE:SUPPORT
G1 F2700 E156.39241
G1 F1237.5 X145.128 Y141.315 E156.45889
G1 X145.848 Y140.88 E156.52604
G1 X146.508 Y140.398 E156.59128
G1 X147.123 Y139.858 E156.65661
G1 X147.696 Y139.256 E156.72295
G1 X148.21 Y138.605 E156.78916
G1 X148.648 Y137.94 E156.85272
G1 X149.052 Y137.184 E156.92115
G1 X149.36 Y136.461 E156.98388
G1 X149.431 Y136.239 E157.00248
G1 X143.742 Y141.929 E157.64476
G1 X142.958 Y142.151 E157.70981
G1 X142.714 Y142.206 E157.72977
G1 X141.896 Y142.36 E157.79621
G1 X149.865 Y134.391 E158.69582
G1 X149.911 Y134.061 E158.72242
G1 X149.959 Y132.883 E158.81653
G1 X140.417 Y142.424 E159.89366
G1 X139.003 Y142.424 E160.00653
G1 X149.949 Y131.479 E161.24215
G1 X149.949 Y130.065 E161.35502
G1 X137.589 Y142.424 E162.75027
G1 X136.175 Y142.424 E162.86314
G1 X149.949 Y128.651 E164.41802
G1 X149.949 Y127.236 E164.53097
G1 X134.761 Y142.424 E166.24552
G1 X133.346 Y142.424 E166.35847
G1 X149.949 Y125.822 E168.2327
G1 X149.949 Y124.408 E168.34558
G1 X131.932 Y142.424 E170.37943
G1 X130.518 Y142.424 E170.49231
G1 X149.949 Y122.994 E172.68579
G1 X149.949 Y121.579 E172.79874
G1 X129.104 Y142.424 E175.1519
G1 X127.69 Y142.424 E175.26478
G1 X149.949 Y120.165 E177.77756
G1 X149.949 Y118.751 E177.89044
G1 X126.275 Y142.424 E180.5629
G1 X124.861 Y142.424 E180.67578
G1 X149.949 Y117.337 E183.50787
G1 X149.949 Y115.923 E183.62074
G1 X123.447 Y142.424 E186.61246
G1 X122.033 Y142.424 E186.72533
G1 X149.949 Y114.508 E189.87673
G1 X149.949 Y113.094 E189.9896
G1 X120.618 Y142.424 E193.30068
G1 X119.204 Y142.424 E193.41355
G1 X149.945 Y111.683 E196.88386
G1 X149.929 Y111.237 E196.91949
G1 X149.847 Y110.367 E196.98924
G1 X117.79 Y142.424 E200.60811
G1 X116.376 Y142.424 E200.72099
G1 X149.577 Y109.223 E204.469
G1 X149.484 Y108.892 E204.49645
G1 X149.211 Y108.175 E204.55769
G1 X114.962 Y142.424 E208.42401
G1 X113.547 Y142.424 E208.53696
G1 X148.74 Y107.232 E212.5098
G1 X148.411 Y106.684 E212.56082
G1 X148.184 Y106.374 E212.59149
G1 X112.133 Y142.424 E216.66118
G1 X110.719 Y142.424 E216.77405
G1 X147.551 Y105.592 E220.93197
G1 X147.379 Y105.397 E220.95272
G1 X146.842 Y104.887 E221.01184
G1 X109.305 Y142.424 E225.24934
G1 X107.891 Y142.424 E225.36221
G1 X146.052 Y104.263 E229.67016
G1 X145.46 Y103.873 E229.72675
G1 X145.178 Y103.722 E229.75228
G1 X106.476 Y142.424 E234.1213
G1 X105.062 Y142.424 E234.23417
G1 X144.222 Y103.265 E238.65483
G1 X143.976 Y103.16 E238.67618
G1 X143.467 Y102.995 E238.71889
G1 X143.447 Y103.036 E238.72253
G1 X143.162 Y102.91 E238.74741
G1 X103.648 Y142.424 E243.20809
G1 X102.234 Y142.424 E243.32096
G1 X142.183 Y102.474 E247.83081
G1 X141.163 Y102.081 E247.91806
G1 X100.819 Y142.424 E252.47238
G1 X99.405 Y142.424 E252.58526
G1 X140.142 Y101.688 E257.18394
G1 X139.12 Y101.295 E257.27135
G1 X97.991 Y142.424 E261.91435
G1 X96.577 Y142.424 E262.02722
G1 X138.098 Y100.903 E266.71447
G1 X137.077 Y100.51 E266.8018
G1 X95.163 Y142.424 E271.53341
G1 X94.342 Y142.424 E271.59895
G1 X93.772 Y142.401 E271.64448
G1 X136.055 Y100.117 E276.41781
G1 X135.034 Y99.724 E276.50514
G1 X92.506 Y142.252 E281.30607
G1 X91.81 Y142.093 E281.36306
G1 X91.388 Y141.956 E281.39847
G1 X134.012 Y99.332 E286.21024
G1 X132.991 Y98.939 E286.29757
G1 X90.364 Y141.566 E291.10967
G1 X89.443 Y141.073 E291.19306
G1 X131.97 Y98.546 E295.99388
G1 X130.948 Y98.154 E296.08125
G1 X88.616 Y140.486 E300.86005
G1 X88.211 Y140.164 E300.90136
G1 X87.859 Y139.828 E300.9402
G1 X129.926 Y97.761 E305.68909
G1 X128.905 Y97.368 E305.77642
G1 X87.166 Y139.107 E310.48828
G1 X86.572 Y138.287 E310.5691
G1 X127.883 Y96.976 E315.23264
G1 X126.862 Y96.583 E315.31997
G1 X86.057 Y137.388 E319.92639
G1 X85.799 Y136.858 E319.97345
G1 X85.627 Y136.403 E320.01228
G1 X125.84 Y96.19 E324.55187
G1 X124.819 Y95.798 E324.63917
G1 X85.292 Y135.325 E329.10132
G1 X85.139 Y134.502 E329.16814
G1 X85.102 Y134.1 E329.20036
G1 X123.798 Y95.404 E333.5687
G1 X122.776 Y95.012 E333.65608
G1 X85.05 Y132.738 E337.91492
G1 X85.05 Y131.324 E338.02779
G1 X121.755 Y94.619 E342.17136
G1 X120.733 Y94.226 E342.25877
G1 X85.05 Y129.91 E346.28703
G1 X85.05 Y128.496 E346.3999
G1 X119.711 Y93.834 E350.31279
G1 X118.69 Y93.441 E350.40012
G1 X85.05 Y127.081 E354.1977
G1 X85.05 Y125.667 E354.31057
G1 X117.651 Y93.065 E357.99091
G1 X117.17 Y92.906 E358.03135
G1 X116.541 Y92.762 E358.08285
G1 X85.05 Y124.253 E361.63783
G1 X85.05 Y122.839 E361.7507
G1 X115.288 Y92.601 E365.16423
G1 X114.634 Y92.575 E365.21647
G1 X113.9 Y92.575 E365.27507
G1 X85.05 Y121.425 E368.5319
G1 X85.05 Y120.01 E368.64485
G1 X112.485 Y92.575 E371.74195
G1 X111.071 Y92.575 E371.85483
G1 X85.05 Y118.596 E374.7923
G1 X85.05 Y117.182 E374.90517
G1 X109.657 Y92.575 E377.68302
G1 X108.243 Y92.575 E377.7959
G1 X85.05 Y115.768 E380.41412
G1 X85.05 Y114.354 E380.52699
G1 X106.827 Y92.576 E382.98543
G1 X105.9 Y92.664 E383.05976
G1 X105.189 Y92.8 E383.11754
G1 X97.595 Y100.394 E383.97482
G1 X97.844 Y100.07 E384.00743
G1 X98.224 Y99.414 E384.06795
G1 X98.248 Y99.419 E384.06991
G1 X98.608 Y98.456 E384.15197
G1 X98.89 Y97.792 E384.20956
G1 X99.27 Y97.082 E384.27384
G1 X99.662 Y96.488 E384.33065
G1 X99.811 Y96.281 E384.35101
G1 X100.235 Y95.747 E384.40544
G1 X100.819 Y95.134 E384.47302
G1 X101.418 Y94.605 E384.53681
G1 X102.086 Y94.118 E384.6028
G1 X102.801 Y93.686 E384.66949
G1 X102.971 Y93.603 E384.68459
G1 X99.014 Y97.56 E385.13129
G1 F2700 E380.13129
G0 F9000 X97.517 Y97.282
G0 X96.29 Y99.688
G0 X97.398 Y100.65
G1 F2700 E385.13129
G1 F1237.5 X96.881 Y101.172 E385.18993
G1 X96.595 Y101.394 E385.21883
G1 X85.05 Y112.939 E386.52213
G1 X85.05 Y111.867 E386.60771
G1 X85.064 Y111.51 E386.63622
G1 X94.041 Y102.534 E387.64957
G1 X93.595 Y102.605 E387.68562
G1 X92.973 Y102.663 E387.73549
G1 X92.389 Y102.772 E387.78291
G1 X85.248 Y109.912 E388.58899
G1 X85.378 Y109.342 E388.63566
G1 X85.638 Y108.537 E388.70318
G1 X85.949 Y107.81 E388.7663
G1 X86.344 Y107.07 E388.83326
G1 X86.727 Y106.489 E388.88881
G1 X86.875 Y106.282 E388.90912
G1 X87.297 Y105.749 E388.96339
G1 X87.877 Y105.139 E389.03058
G1 X88.492 Y104.598 E389.09596
G1 X89.151 Y104.119 E389.161
G1 X89.871 Y103.683 E389.22819
G1 X90.243 Y103.504 E389.26114
G1 X85.964 Y107.782 E389.74413
G1 F2700 E384.74413
G0 F300 X85.964 Y107.782 Z0.64
G0 F9000 X84.585 Y107.277
G0 X84.006 Y108.826
G0 X83.74 Y109.999
G0 X83.589 Y111.686
G0 X83.608 Y133.851
G0 X83.837 Y135.506
G0 X84.168 Y136.686
G0 X84.825 Y138.206
G0 X85.448 Y139.237
G0 X86.471 Y140.515
G0 X87.355 Y141.354
G0 X87.734 Y141.628
G0 X88.902 Y142.446
G0 X89.771 Y141.248
;TIME_ELAPSED:252.620743
;LAYER:-4
;TYPE:SUPPORT-INTERFACE
G1 F2700 E389.74413
G1 F1650 X86.21 Y137.687 E389.87813
G1 X86.587 Y138.313 E389.89758
G1 X87.075 Y138.981 E389.91959
G1 X87.623 Y139.604 E389.94167
G1 X88.211 Y140.164 E389.96327
G1 X88.757 Y140.598 E389.98183
G1 X88.964 Y140.747 E389.98862
G1 X89.54 Y141.125 E390.00695
G1 X90.286 Y141.524 E390.02946
G1 X90.855 Y141.767 E390.04592
G1 X85.709 Y136.62 E390.23958
G1 X85.511 Y136.099 E390.25441
G1 X85.417 Y135.763 E390.2637
G1 X91.728 Y142.074 E390.50118
G1 X92.461 Y142.241 E390.52118
G1 X85.234 Y135.014 E390.79313
G1 X85.139 Y134.502 E390.80698
G1 X85.123 Y134.338 E390.81137
G1 X93.133 Y142.347 E391.11276
G1 X93.413 Y142.386 E391.12028
G1 X93.751 Y142.399 E391.12928
G1 X85.067 Y133.716 E391.45604
G1 X85.05 Y133.133 E391.47156
G1 X94.34 Y142.424 E391.82116
G1 X94.907 Y142.424 E391.83624
G1 X85.05 Y132.567 E392.20716
G1 X85.05 Y132.001 E392.22222
G1 X95.472 Y142.424 E392.61441
G1 X96.038 Y142.424 E392.62947
G1 X85.05 Y131.436 E393.04295
G1 X85.05 Y130.87 E393.05801
G1 X96.604 Y142.424 E393.49278
G1 X97.169 Y142.424 E393.50781
G1 X85.05 Y130.304 E393.96386
G1 X85.05 Y129.739 E393.9789
G1 X97.735 Y142.424 E394.45623
G1 X98.301 Y142.424 E394.47129
G1 X85.05 Y129.173 E394.96992
G1 X85.05 Y128.607 E394.98498
G1 X98.866 Y142.424 E395.50489
G1 X99.432 Y142.424 E395.51995
G1 X85.05 Y128.042 E396.06113
G1 X85.05 Y127.476 E396.07619
G1 X99.998 Y142.424 E396.63868
G1 X100.564 Y142.424 E396.65374
G1 X85.05 Y126.91 E397.23753
G1 X85.05 Y126.345 E397.25256
G1 X101.129 Y142.424 E397.8576
G1 X101.695 Y142.424 E397.87266
G1 X85.05 Y125.779 E398.49901
G1 X85.05 Y125.213 E398.51407
G1 X102.261 Y142.424 E399.16171
G1 X102.826 Y142.424 E399.17674
G1 X85.05 Y124.648 E399.84565
G1 X85.05 Y124.082 E399.86071
G1 X103.392 Y142.424 E400.55091
G1 X103.958 Y142.424 E400.56597
G1 X85.05 Y123.516 E401.27747
G1 X85.05 Y122.951 E401.2925
G1 X104.523 Y142.424 E402.02526
G1 X105.089 Y142.424 E402.04032
G1 X85.05 Y122.385 E402.79438
G1 X85.05 Y121.819 E402.80944
G1 X105.655 Y142.424 E403.5848
G1 X106.22 Y142.424 E403.59983
G1 X85.05 Y121.253 E404.39647
G1 X85.05 Y120.688 E404.4115
G1 X106.786 Y142.424 E405.22942
G1 X107.352 Y142.424 E405.24448
G1 X85.05 Y120.122 E406.08369
G1 X85.05 Y119.556 E406.09875
G1 X107.917 Y142.424 E406.95925
G1 X108.483 Y142.424 E406.97431
G1 X85.05 Y118.991 E407.85608
G1 X85.05 Y118.425 E407.87114
