;FLAVOR:Marlin
;TIME:2400
;Filament used: 1.14311m
;Layer height: 0.1
;MINX:83.121
;MINY:83.12
;MINZ:0.24
;MAXX:150.815
;MAXY:151.879
;MAXZ:2.74
;Generated with Cura_SteamEngine 5.2.1
M140 S50
M105
M190 S50
M104 S200
M105
M109 S200
M82 ;absolute extrusion mode
; Ender 3 Custom Start G-code
G92 E0 ; Reset Extruder
G28 ; Home all axes
G1 Z2.0 F3000 ; Move Z Axis up little to prevent scratching of Heat Bed
G1 X0.1 Y20 Z0.3 F5000.0 ; Move to start position
G1 X0.1 Y200.0 Z0.3 F1500.0 E15 ; Draw the first line
G1 X0.4 Y200.0 Z0.3 F5000.0 ; Move to side a little
G1 X0.4 Y20 Z0.3 F1500.0 E30 ; Draw the second line
G92 E0 ; Reset Extruder
G1 Z2.0 F3000 ; Move Z Axis up little to prevent scratching of Heat Bed
G1 X5 Y20 Z0.3 F5000.0 ; Move over to prevent blob squish
G92 E0
G92 E0
G1 F2700 E-5
;LAYER_COUNT:19
;LAYER:-8
M107
G0 F9000 X93.042 Y94.897 Z0.24
;TYPE:SUPPORT-INTERFACE
G1 F2700 E0
G1 F1125 X92.328 Y95.78 E0.09064
G1 X92.11 Y96.025 E0.11682
G1 X92.1 Y96.025 E0.11762
G1 X91.394 Y96.823 E0.20267
G1 X90.729 Y97.67 E0.28863
G1 X90.352 Y98.187 E0.33971
G1 X90 Y98.695 E0.38904
G1 X89.514 Y99.482 E0.46288
G1 X89.356 Y99.769 E0.48903
G1 X89.1 Y100.202 E0.52918
G1 X88.595 Y100.969 E0.60249
G1 X88 Y102.02 E0.69889
G1 X87.683 Y102.635 E0.75412
G1 X87.434 Y103.149 E0.79971
G1 X87.033 Y104.1 E0.8821
G1 X86.9 Y104.47 E0.91348
G1 X86.719 Y104.937 E0.95346
G1 X86.251 Y105.984 E1.04501
G1 X85.889 Y106.976 E1.1293
G1 X85.704 Y107.559 E1.17813
G1 X85.339 Y108.918 E1.29045
G1 X85.25 Y109.363 E1.32668
G1 X85.135 Y109.861 E1.36748
G1 X84.834 Y111.006 E1.46198
G1 X84.663 Y111.879 E1.53299
G1 X84.546 Y112.6 E1.5913
G1 X84.424 Y113.57 E1.66934
G1 X84.338 Y115.1 E1.79166
G1 X84.233 Y116.052 E1.86812
G1 X84.185 Y117.199 E1.95975
G1 X84.185 Y117.796 E2.00741
G1 X84.223 Y118.807 E2.08817
G1 X84.336 Y119.877 E2.17406
G1 X84.353 Y120.222 E2.20163
G1 X84.347 Y120.228 E2.20231
G1 X84.408 Y121.211 E2.28092
G1 X84.533 Y122.3 E2.36842
G1 X84.644 Y123.015 E2.42618
G1 X84.856 Y124.095 E2.51404
G1 X85.138 Y125.134 E2.59998
G1 X85.214 Y125.449 E2.62584
G1 X85.434 Y126.49 E2.71077
G1 X85.718 Y127.493 E2.79399
G1 X85.907 Y128.075 E2.84283
G1 X86.101 Y128.635 E2.89014
G1 X86.505 Y129.62 E2.97512
G1 X86.63 Y129.881 E2.99822
G1 X86.857 Y130.399 E3.04337
G1 X87.223 Y131.37 E3.1262
G1 X87.668 Y132.331 E3.21074
G1 X87.991 Y132.961 E3.26725
G1 X88.725 Y134.237 E3.38476
G1 X88.963 Y134.579 E3.41802
G1 X89.225 Y134.995 E3.45726
G1 X89.69 Y135.811 E3.53223
G1 X90.344 Y136.801 E3.62694
G1 X90.723 Y137.323 E3.67844
G1 X91.336 Y138.12 E3.7587
G1 X91.998 Y138.864 E3.83819
G1 X92.11 Y138.981 E3.85112
G1 X92.414 Y139.327 E3.88789
G1 X93.06 Y140.123 E3.96972
G1 X93.707 Y140.821 E4.04569
G1 X94.117 Y141.233 E4.09209
G1 X94.897 Y141.958 E4.17709
G1 X95.792 Y142.682 E4.26899
G1 X96.029 Y142.887 E4.294
G1 X96.783 Y143.571 E4.37526
G1 X97.627 Y144.238 E4.46113
G1 X98.236 Y144.679 E4.52115
G1 X99.422 Y145.447 E4.63394
G1 X99.771 Y145.643 E4.66589
G1 X100.192 Y145.893 E4.70498
G1 X101.039 Y146.451 E4.78594
G1 X102.026 Y147.004 E4.87625
G1 X102.634 Y147.317 E4.93084
G1 X103.148 Y147.566 E4.97643
G1 X104.1 Y147.967 E5.05889
G1 X104.419 Y148.081 E5.08593
G1 X104.939 Y148.281 E5.1304
G1 X105.984 Y148.75 E5.22184
G1 X106.978 Y149.111 E5.30625
G1 X107.481 Y149.273 E5.34843
G1 X108.918 Y149.661 E5.46725
G1 X109.363 Y149.75 E5.50347
G1 X109.861 Y149.865 E5.54427
G1 X111.006 Y150.166 E5.63878
G1 X111.902 Y150.341 E5.71165
G1 X112.599 Y150.454 E5.76802
G1 X113.57 Y150.576 E5.84613
G1 X115.1 Y150.662 E5.96846
G1 X116.052 Y150.767 E6.04491
G1 X117.181 Y150.814 E6.13511
G1 X117.778 Y150.815 E6.18277
G1 X118.807 Y150.777 E6.26496
G1 X119.878 Y150.664 E6.35093
G1 X120.23 Y150.64 E6.37909
G1 X120.244 Y150.654 E6.38067
G1 X121.213 Y150.592 E6.45818
G1 X122.408 Y150.452 E6.55422
G1 X123.017 Y150.357 E6.60342
G1 X124.103 Y150.143 E6.69178
G1 X125.129 Y149.865 E6.77663
G1 X125.445 Y149.789 E6.80258
G1 X126.415 Y149.59 E6.88162
G1 X127.432 Y149.302 E6.96599
G1 X128.059 Y149.099 E7.0186
G1 X128.633 Y148.9 E7.06709
G1 X129.626 Y148.492 E7.15279
G1 X129.893 Y148.366 E7.17636
G1 X130.39 Y148.148 E7.21968
G1 X131.38 Y147.774 E7.30416
G1 X132.411 Y147.291 E7.39504
G1 X132.983 Y146.996 E7.44641
G1 X133.761 Y146.568 E7.51729
G1 X135.022 Y145.76 E7.63684
G1 X135.887 Y145.269 E7.71624
G1 X136.807 Y144.652 E7.80466
G1 X137.378 Y144.238 E7.86096
G1 X138.18 Y143.612 E7.94218
G1 X139.327 Y142.586 E8.06502
G1 X140.123 Y141.94 E8.14685
G1 X140.86 Y141.257 E8.22706
G1 X141.233 Y140.882 E8.26928
G1 X141.96 Y140.101 E8.35445
G1 X142.667 Y139.224 E8.44437
G1 X142.882 Y138.973 E8.47076
G1 X143.608 Y138.175 E8.55687
G1 X144.282 Y137.316 E8.64403
G1 X144.648 Y136.813 E8.69369
G1 X145 Y136.305 E8.74302
G1 X145.483 Y135.524 E8.81632
G1 X145.659 Y135.201 E8.84568
G1 X145.934 Y134.736 E8.88881
G1 X146.485 Y133.901 E8.96866
G1 X146.983 Y133.011 E9.05007
G1 X147.295 Y132.408 E9.10427
G1 X147.967 Y130.906 E9.23562
G1 X148.093 Y130.542 E9.26637
G1 X148.279 Y130.072 E9.30671
G1 X148.727 Y129.078 E9.39375
G1 X149.098 Y128.065 E9.47986
G1 X149.268 Y127.534 E9.52437
G1 X149.665 Y126.064 E9.64591
G1 X149.751 Y125.629 E9.68131
G1 X150.15 Y124.077 E9.80922
G1 X150.341 Y123.098 E9.88885
G1 X150.454 Y122.401 E9.94521
G1 X150.576 Y121.43 E10.02333
G1 X150.662 Y119.9 E10.14565
G1 X150.767 Y118.948 E10.22211
G1 X150.815 Y117.799 E10.3139
G1 X150.815 Y117.202 E10.36156
G1 X150.777 Y116.192 E10.44224
G1 X150.664 Y115.108 E10.52924
G1 X150.638 Y114.782 E10.55534
G1 X150.592 Y113.784 E10.63509
G1 X150.452 Y112.59 E10.73106
G1 X150.354 Y111.969 E10.78124
G1 X150.144 Y110.902 E10.86805
G1 X149.864 Y109.872 E10.95325
G1 X149.788 Y109.558 E10.97904
G1 X149.566 Y108.505 E11.06494
G1 X149.295 Y107.546 E11.14449
G1 X149.106 Y106.961 E11.19356
G1 X148.9 Y106.367 E11.24375
G1 X148.491 Y105.373 E11.32955
G1 X148.147 Y104.611 E11.39629
G1 X147.735 Y103.536 E11.48818
G1 X147.289 Y102.584 E11.5721
G1 X147.071 Y102.155 E11.61052
G1 X146.571 Y101.241 E11.69368
G1 X145.747 Y99.955 E11.8156
G1 X145.311 Y99.188 E11.88602
G1 X144.667 Y98.218 E11.97896
G1 X144.271 Y97.669 E12.033
G1 X143.66 Y96.876 E12.11291
G1 X142.579 Y95.668 E12.24231
G1 X141.997 Y94.941 E12.31665
G1 X141.262 Y94.148 E12.40296
G1 X140.847 Y93.732 E12.44986
G1 X139.825 Y92.798 E12.56038
G1 X139.297 Y92.39 E12.61364
G1 X138.963 Y92.108 E12.64854
G1 X138.175 Y91.391 E12.73358
G1 X137.331 Y90.729 E12.8192
G1 X136.813 Y90.352 E12.87034
G1 X136.308 Y90.002 E12.91939
G1 X135.519 Y89.515 E12.9934
G1 X135.22 Y89.35 E13.02066
G1 X134.784 Y89.092 E13.0611
G1 X133.963 Y88.55 E13.13963
G1 X132.976 Y87.996 E13.22998
G1 X132.312 Y87.66 E13.28938
G1 X130.904 Y87.031 E13.41248
G1 X130.547 Y86.909 E13.4426
G1 X130.074 Y86.723 E13.48317
G1 X129.018 Y86.25 E13.57553
G1 X128.132 Y85.927 E13.65081
G1 X127.505 Y85.721 E13.70349
G1 X125.992 Y85.314 E13.82856
G1 X125.505 Y85.227 E13.86805
G1 X125.148 Y85.142 E13.89734
G1 X124.108 Y84.857 E13.98342
G1 X123.114 Y84.661 E14.06429
G1 X122.34 Y84.538 E14.12685
G1 X121.109 Y84.399 E14.22574
G1 X120.383 Y84.373 E14.28373
G1 X119.985 Y84.336 E14.31564
G1 X119.976 Y84.326 E14.31671
G1 X118.845 Y84.222 E14.40737
G1 X117.859 Y84.187 E14.48613
G1 X116.686 Y84.194 E14.57977
G1 X115.61 Y84.271 E14.66588
G1 X115.273 Y84.314 E14.693
G1 X114.753 Y84.364 E14.7347
G1 X113.642 Y84.42 E14.82349
G1 X112.676 Y84.536 E14.90116
G1 X112.039 Y84.635 E14.95262
G1 X110.474 Y84.964 E15.08027
G1 X110.101 Y85.077 E15.11138
G1 X109.631 Y85.197 E15.1501
G1 X108.505 Y85.434 E15.24196
G1 X107.569 Y85.698 E15.31959
G1 X106.941 Y85.901 E15.37227
G1 X106.368 Y86.1 E15.42069
G1 X105.376 Y86.508 E15.50631
G1 X105.116 Y86.631 E15.52927
G1 X104.612 Y86.852 E15.5732
G1 X103.612 Y87.229 E15.65851
G1 X102.589 Y87.708 E15.74868
G1 X102.155 Y87.929 E15.78755
G1 X101.239 Y88.431 E15.87093
G1 X99.954 Y89.254 E15.99274
G1 X99.187 Y89.691 E16.06321
G1 X98.199 Y90.344 E16.15774
G1 X97.677 Y90.723 E16.20924
G1 X96.873 Y91.341 E16.29018
G1 X95.668 Y92.419 E16.41924
G1 X94.941 Y93.001 E16.49358
G1 X94.141 Y93.744 E16.58074
G1 X93.766 Y94.118 E16.62301
G1 X93.042 Y94.897 E16.7079
G0 F9000 X93.142 Y95.405
G1 F1125 X139.592 Y141.854 E21.95153
G0 F9000 X140.775 Y140.775
G1 F1125 X94.224 Y94.224 E27.20661
G0 F9000 X95.404 Y93.141
G1 F1125 X141.855 Y139.592 E32.4504
G0 F9000 X142.892 Y138.367
G1 F1125 X96.625 Y92.099 E37.67347
G0 F9000 X97.868 Y91.08
G1 F1125 X143.918 Y137.13 E42.87199
G0 F9000 X144.845 Y135.794
G1 F1125 X99.207 Y90.156 E48.024
G0 F9000 X100.617 Y89.304
G1 F1125 X145.691 Y134.377 E53.11229
G0 F9000 X146.547 Y132.97
G1 F1125 X102.03 Y88.454 E58.1377
G0 F9000 X103.543 Y87.703
G1 F1125 X147.286 Y131.447 E63.07584
G0 F9000 X147.943 Y129.841
G1 F1125 X105.151 Y87.049 E67.90657
G0 F9000 X106.754 Y86.389
G1 F1125 X148.606 Y128.242 E72.63124
G0 F9000 X149.131 Y126.504
G1 F1125 X108.483 Y85.856 E77.21994
G0 F9000 X110.32 Y85.43
G1 F1125 X149.579 Y124.689 E81.65184
G0 F9000 X149.979 Y122.826
G1 F1125 X112.173 Y85.02 E85.91971
G0 F9000 X114.208 Y84.792
G1 F1125 X150.209 Y120.794 E89.98387
G0 F9000 X150.376 Y118.698
G1 F1125 X116.301 Y84.623 E93.83055
G0 F9000 X118.552 Y84.611
G1 F1125 X150.386 Y116.444 E97.42419
G0 F9000 X150.2 Y113.996
G1 F1125 X120.999 Y84.795 E100.72065
G0 F9000 X123.639 Y85.173
G1 F1125 X149.826 Y111.359 E103.67681
G0 F9000 X149.116 Y108.386
G1 F1125 X126.63 Y85.9 E106.21522
G0 F9000 X130.191 Y87.198
G1 F1125 X147.793 Y104.801 E108.20234
G1 F2700 E103.20234
G0 F9000 X149.139 Y104.22
G0 X148.313 Y102.255
G0 X147.809 Y101.317
G0 X146.889 Y99.772
G0 X145.388 Y100.134
G1 F2700 E108.20234
G1 F1125 X134.855 Y89.6 E109.39146
G1 F2700 E104.39146
G0 F9000 X135.36 Y88.196
G0 X133.473 Y87.055
G0 X131.186 Y86.003
G0 X128.374 Y84.885
G0 X125.826 Y84.203
G0 X123.169 Y83.59
G0 X121.094 Y83.333
G0 X117.836 Y83.121
G0 X115.509 Y83.211
G0 X112.472 Y83.489
G0 X109.836 Y84.044
G0 X107.206 Y84.696
G0 X105.828 Y85.166
G0 X102.119 Y86.753
G0 X100.599 Y87.577
G0 X97.591 Y89.47
G0 X96.105 Y90.6
G0 X93.4 Y92.98
G0 X92.675 Y93.75
G0 X91.011 Y95.659
G0 X92.099 Y96.625
G1 F2700 E109.39146
G1 F1125 X138.374 Y142.899 E114.61532
G0 F9000 X137.132 Y143.92
G1 F1125 X91.08 Y97.868 E119.81407
G0 F9000 X90.153 Y99.204
G1 F1125 X135.796 Y144.847 E124.96664
G0 F9000 X134.381 Y145.695
G1 F1125 X89.304 Y100.618 E130.05533
G0 F9000 X88.452 Y102.029
G1 F1125 X132.969 Y146.545 E135.08073
G0 F9000 X131.456 Y147.295
G1 F1125 X87.701 Y103.54 E140.02018
G0 F9000 X87.056 Y105.158
G1 F1125 X129.846 Y147.947 E144.85062
G0 F9000 X128.245 Y148.609
G1 F1125 X86.393 Y106.758 E149.57518
G0 F9000 X85.866 Y108.494
G1 F1125 X126.516 Y149.143 E154.16405
G0 F9000 X124.679 Y149.57
G1 F1125 X85.427 Y110.317 E158.59521
G0 F9000 X85.02 Y112.173
G1 F1125 X122.827 Y149.98 E162.86319
G0 F9000 X120.8 Y150.216
G1 F1125 X84.789 Y114.204 E166.92848
G0 F9000 X84.622 Y116.3
G1 F1125 X118.701 Y150.379 E170.77561
G0 F9000 X116.44 Y150.381
G1 F1125 X84.613 Y118.554 E174.36852
G0 F9000 X84.795 Y120.999
G1 F1125 X113.993 Y150.197 E177.66464
G0 F9000 X111.36 Y149.826
G1 F1125 X85.173 Y123.64 E180.6208
G0 F9000 X85.885 Y126.614
G1 F1125 X108.366 Y149.096 E183.15871
G0 F9000 X104.815 Y147.807
G1 F1125 X87.206 Y130.198 E185.14656
G1 F2700 E180.14656
G0 F9000 X85.864 Y130.786
G0 X86.718 Y132.813
G0 X88.08 Y135.174
G0 X89.613 Y134.868
G1 F2700 E185.14656
G1 F1125 X100.148 Y145.403 E186.33585
G1 F2700 E181.33585
G0 F300 X100.148 Y145.403 Z0.39
G0 F9000 X99.607 Y146.783
G0 X101.527 Y147.945
G0 X102.829 Y148.591
G0 X106.624 Y150.114
G0 X109.165 Y150.796
G0 X111.709 Y151.389
G0 X113.581 Y151.642
G0 X117.205 Y151.879
G0 X119.052 Y151.826
G0 X122.559 Y151.506
G0 X124.438 Y151.156
G0 X127.796 Y150.304
G0 X130.054 Y149.468
G0 X132.883 Y148.246
G0 X134.401 Y147.425
G0 X137.419 Y145.523
G0 X138.868 Y144.425
G0 X141.327 Y142.261
G0 X142.871 Y140.673
G0 X141.939 Y139.488
;TIME_ELAPSED:137.507228
;LAYER:-7
;TYPE:SUPPORT
G1 F2700 E186.33585
G1 F1125 X139.49 Y141.937 E186.50864
G1 X139.867 Y141.631 E186.53286
G1 X140.591 Y140.96 E186.58211
G1 X140.945 Y140.604 E186.60716
G1 X141.655 Y139.84 E186.65919
G1 X142.355 Y138.974 E186.71474
G1 X142.577 Y138.713 E186.73184
G1 X143.305 Y137.912 E186.78584
G1 X143.951 Y137.089 E186.83804
G1 X144.326 Y136.574 E186.86982
G1 X144.671 Y136.075 E186.90009
G1 X145.135 Y135.324 E186.94413
G1 X145.304 Y135.014 E186.96174
G1 X145.588 Y134.533 E186.98961
G1 X145.796 Y134.218 E187.00844
G1 X134.204 Y145.809 E187.82629
G1 X133.626 Y146.179 E187.86053
G1 X132.794 Y146.644 E187.90808
G1 X132.231 Y146.934 E187.93967
G1 X131.295 Y147.372 E187.99123
G1 X131.185 Y147.414 E187.9971
G1 X147.397 Y131.202 E189.14095
G1 X147.594 Y130.762 E189.165
G1 X147.719 Y130.396 E189.1843
G1 X147.906 Y129.923 E189.20967
G1 X148.346 Y128.945 E189.26317
G1 X148.407 Y128.778 E189.27204
G1 X128.761 Y148.424 E190.65818
G1 X127.936 Y148.717 E190.70185
G1 X127.314 Y148.918 E190.73447
G1 X126.674 Y149.097 E190.76762
G1 X149.082 Y126.689 E192.34863
G1 X149.304 Y125.863 E192.3913
G1 X149.251 Y125.852 E192.394
G1 X149.531 Y124.825 E192.44711
G1 X124.826 Y149.531 E194.19021
G1 X124.073 Y149.736 E194.22915
G1 X122.989 Y149.954 E194.28431
G1 X149.95 Y122.992 E196.18659
G1 X150.058 Y122.333 E196.21991
G1 X150.176 Y121.352 E196.2692
G1 X121.344 Y150.184 E198.30345
G1 X119.86 Y150.253 E198.37757
G1 X150.264 Y119.85 E200.5227
G1 X150.369 Y118.902 E200.57029
G1 X150.392 Y118.308 E200.59994
G1 X118.306 Y150.394 E202.86379
G1 X117.76 Y150.414 E202.89104
G1 X117.205 Y150.413 E202.91873
G1 X116.885 Y150.4 E202.93471
G1 X150.401 Y116.884 E205.29945
G1 X150.376 Y116.198 E205.33369
G1 X150.308 Y115.563 E205.36555
G1 X115.561 Y150.31 E207.81714
G1 X115.122 Y150.261 E207.83918
G1 X114.244 Y150.213 E207.88305
G1 X150.212 Y114.245 E210.42079
G1 X150.19 Y113.789 E210.44356
G1 X150.091 Y112.951 E210.48566
G1 X112.95 Y150.093 E213.10619
G1 X112.656 Y150.057 E213.12097
G1 X111.982 Y149.948 E213.15503
G1 X111.729 Y149.899 E213.16789
G1 X149.897 Y111.732 E215.86081
G1 X149.736 Y110.924 E215.90192
G1 X149.64 Y110.575 E215.91998
G1 X110.573 Y149.641 E218.67633
G1 X109.462 Y149.338 E218.73378
G1 X149.356 Y109.444 E221.54852
G1 X149.21 Y108.732 E221.58478
G1 X149.088 Y108.298 E221.60727
G1 X108.304 Y149.082 E224.4848
G1 X107.591 Y148.889 E224.52166
G1 X107.207 Y148.764 E224.5418
G1 X148.763 Y107.208 E227.4738
G1 X148.398 Y106.16 E227.52917
G1 X106.167 Y148.39 E230.50876
G1 X105.187 Y147.956 E230.56223
G1 X147.96 Y105.183 E233.5801
G1 X147.78 Y104.768 E233.60266
G1 X147.552 Y104.177 E233.63427
G1 X104.167 Y147.562 E236.69531
G1 X103.41 Y147.245 E236.73626
G1 X103.18 Y147.135 E236.74898
G1 X147.128 Y103.187 E239.84975
G1 X146.931 Y102.765 E239.87298
G1 X146.661 Y102.239 E239.90248
G1 X102.238 Y146.663 E243.0368
G1 X101.331 Y146.156 E243.08864
G1 X146.154 Y101.333 E246.25114
G1 X145.601 Y100.472 E246.30219
G1 X100.472 Y145.6 E249.48625
G1 X99.961 Y145.291 E249.51605
G1 X99.583 Y145.074 E249.53779
G1 X145.071 Y99.587 E252.74718
G1 X144.889 Y99.269 E252.76546
G1 X144.522 Y98.722 E252.79832
G1 X98.724 Y144.519 E256.02958
G1 X98.458 Y144.346 E256.04541
G1 X97.893 Y143.937 E256.08021
G1 X143.938 Y97.891 E259.32897
G1 X143.319 Y97.096 E259.37924
G1 X97.102 Y143.314 E262.64013
G1 X96.358 Y142.643 E262.69012
G1 X142.651 Y96.351 E265.9563
G1 X142.277 Y95.931 E265.98436
G1 X142.001 Y95.585 E266.00644
G1 X95.586 Y142.001 E269.28131
G1 X95.158 Y141.653 E269.30883
G1 X94.827 Y141.346 E269.33135
G1 X141.345 Y94.827 E272.61348
G1 X141.009 Y94.461 E272.63827
G1 X140.653 Y94.106 E272.66335
G1 X94.106 Y140.653 E275.94749
G1 X93.42 Y139.924 E275.99743
G1 X139.918 Y93.426 E279.27812
G1 X139.556 Y93.096 E279.30256
G1 X139.148 Y92.782 E279.32824
G1 X92.783 Y139.147 E282.59954
G1 X92.119 Y138.397 E282.64952
G1 X138.389 Y92.126 E285.91415
G1 X137.924 Y91.703 E285.94551
G1 X137.63 Y91.472 E285.96417
G1 X91.467 Y137.634 E289.22118
G1 X91.039 Y137.079 E289.25615
G1 X90.858 Y136.829 E289.27155
G1 X136.83 Y90.858 E292.51508
G1 X135.999 Y90.274 E292.56576
G1 X90.284 Y135.99 E295.79123
G1 X90.11 Y135.729 E295.80688
G1 X89.752 Y135.107 E295.84269
G1 X135.112 Y89.747 E299.04308
G1 X134.579 Y89.434 E299.07392
G1 X134.237 Y89.208 E299.09437
