;FLAVOR:Marlin
;TIME:2753
;Filament used: 1.21118m
;Layer height: 0.12
;MINX:85.784
;MINY:94.104
;MINZ:0.144
;MAXX:147.933
;MAXY:140.915
;MAXZ:8.754
;Generated with Cura_SteamEngine 5.2.1
M140 S60
M105
M190 S60
M104 S200
M105
M109 S200
M82 ;absolute extrusion mode
; Ender 3 Custom Start G-code
G92 E0 ; Reset Extruder
G28 ; Home all axes
G1 Z2.0 F3000 ; Move Z Axis up little to prevent scratching of Heat Bed
G1 X0.1 Y20 Z0.3 F5000.0 ; Move to start position
G1 X0.1 Y200.0 Z0.3 F1500.0 E15 ; Draw the first line
G1 X0.4 Y200.0 Z0.3 F5000.0 ; Move to side a little
G1 X0.4 Y20 Z0.3 F1500.0 E30 ; Draw the second line
G92 E0 ; Reset Extruder
G1 Z2.0 F3000 ; Move Z Axis up little to prevent scratching of Heat Bed
G1 X5 Y20 Z0.3 F5000.0 ; Move over to prevent blob squish
G92 E0
G92 E0
G1 F2700 E-5
;LAYER_COUNT:67
;LAYER:-6
M107
G0 F9000 X90.626 Y99.955 Z0.144
;TYPE:SUPPORT-INTERFACE
G1 F2700 E0
G1 F1125 X89.896 Y100.824 E0.05436
G1 X89.258 Y101.716 E0.10688
G1 X88.679 Y102.68 E0.16074
G1 X88.227 Y103.56 E0.20812
G1 X87.809 Y104.545 E0.25937
G1 X87.469 Y105.549 E0.31014
G1 X87.185 Y106.653 E0.36474
G1 X87.022 Y107.535 E0.40769
G1 X86.897 Y108.609 E0.45948
G1 X86.849 Y109.759 E0.51461
G1 X86.85 Y125.299 E1.25889
G1 X86.857 Y125.696 E1.27791
G1 X86.938 Y126.855 E1.33355
G1 X87.082 Y127.827 E1.38061
G1 X87.327 Y128.947 E1.43552
G1 X87.665 Y130.051 E1.49082
G1 X88.049 Y131.038 E1.54155
G1 X88.435 Y131.859 E1.585
G1 X88.988 Y132.857 E1.63964
G1 X89.579 Y133.749 E1.69089
G1 X90.238 Y134.604 E1.74259
G1 X91.003 Y135.446 E1.79708
G1 X91.654 Y136.073 E1.84037
G1 X92.526 Y136.806 E1.89493
G1 X93.408 Y137.435 E1.94681
G1 X94.38 Y138.02 E2.00115
G1 X95.247 Y138.467 E2.04787
G1 X96.231 Y138.885 E2.09907
G1 X97.247 Y139.23 E2.15046
G1 X98.352 Y139.514 E2.2051
G1 X99.234 Y139.677 E2.24806
G1 X100.309 Y139.802 E2.29989
G1 X101.44 Y139.849 E2.35411
G1 X116.289 Y139.85 E3.0653
G1 X116.76 Y139.843 E3.08786
G1 X117.21 Y139.85 E3.10941
G1 X129.05 Y139.849 E3.67649
G1 X129.9 Y139.825 E3.71721
G1 X130.966 Y139.725 E3.76849
G1 X131.919 Y139.573 E3.81471
G1 X133.036 Y139.306 E3.86972
G1 X133.907 Y139.032 E3.91345
G1 X134.979 Y138.613 E3.96857
G1 X136.018 Y138.101 E4.02405
G1 X136.853 Y137.62 E4.0702
G1 X137.746 Y137.013 E4.12192
G1 X138.501 Y136.414 E4.16808
G1 X139.364 Y135.63 E4.22392
G1 X140.141 Y134.794 E4.27858
G1 X140.768 Y134.022 E4.32622
G1 X141.378 Y133.145 E4.37738
G1 X141.919 Y132.231 E4.42825
G1 X142.392 Y131.282 E4.47904
G1 X142.795 Y130.309 E4.52948
G1 X143.111 Y129.341 E4.57825
G1 X143.37 Y128.313 E4.62902
G1 X143.411 Y128.11 E4.63894
G1 X143.662 Y127.182 E4.68498
G1 X143.936 Y126.563 E4.7174
G1 X144.295 Y125.97 E4.7506
G1 X144.498 Y125.678 E4.76764
G1 X145.089 Y124.692 E4.82269
G1 X145.565 Y123.738 E4.87376
G1 X145.972 Y122.755 E4.92471
G1 X146.279 Y121.814 E4.97212
G1 X146.559 Y120.706 E5.02686
G1 X146.741 Y119.654 E5.07799
G1 X146.844 Y118.587 E5.12933
G1 X146.87 Y117.518 E5.18055
G1 X146.818 Y116.453 E5.23161
G1 X146.688 Y115.403 E5.28229
G1 X146.499 Y114.446 E5.32901
G1 X146.202 Y113.334 E5.38413
G1 X145.873 Y112.406 E5.43129
G1 X145.421 Y111.359 E5.48591
G1 X144.933 Y110.438 E5.53583
G1 X140.919 Y103.481 E5.92052
G1 X140.66 Y103.052 E5.94452
G1 X140.03 Y102.122 E5.99832
G1 X139.364 Y101.282 E6.04966
G1 X138.586 Y100.445 E6.10439
G1 X137.869 Y99.773 E6.15146
G1 X137.106 Y99.155 E6.19848
G1 X136.165 Y98.492 E6.25361
G1 X135.176 Y97.915 E6.30845
G1 X134.38 Y97.517 E6.35108
G1 X133.393 Y97.105 E6.4023
G1 X132.305 Y96.744 E6.45721
G1 X131.329 Y96.501 E6.50538
G1 X130.284 Y96.318 E6.55619
G1 X129.145 Y96.202 E6.61102
G1 X128.088 Y96.177 E6.66166
G1 X126.973 Y96.232 E6.71513
G1 X126.96 Y96.219 E6.71601
G1 X126.242 Y96.231 E6.7504
G1 X125.545 Y96.133 E6.78411
G1 X124.899 Y95.957 E6.81618
G1 X124.358 Y95.772 E6.84357
G1 X123.246 Y95.486 E6.89856
G1 X122.364 Y95.323 E6.94152
G1 X121.29 Y95.198 E6.9933
G1 X120.158 Y95.151 E7.04757
G1 X116.737 Y95.157 E7.21141
G1 X116.286 Y95.151 E7.23302
G1 X101.397 Y95.151 E7.94612
G1 X101.003 Y95.158 E7.96499
G1 X99.846 Y95.239 E8.02054
G1 X98.871 Y95.383 E8.06775
G1 X97.746 Y95.629 E8.1229
G1 X96.738 Y95.932 E8.17331
G1 X95.661 Y96.35 E8.22864
G1 X94.84 Y96.736 E8.27209
G1 X93.91 Y97.251 E8.32301
G1 X92.962 Y97.874 E8.37734
G1 X92.098 Y98.539 E8.42956
G1 X91.311 Y99.246 E8.48023
G1 X90.626 Y99.955 E8.52745
G0 F9000 X91.044 Y100.095
G1 F1125 X130.331 Y139.382 E11.18848
G0 F9000 X132.284 Y139.073
G1 F1125 X92.198 Y98.986 E13.90367
G0 F9000 X93.483 Y98.009
G1 F1125 X134.027 Y138.553 E16.64984
G0 F9000 X135.598 Y137.861
G1 F1125 X94.897 Y97.16 E19.40665
G0 F9000 X96.467 Y96.467
G1 F1125 X137.021 Y137.021 E22.1535
G0 F9000 X138.309 Y136.046
G1 F1125 X98.201 Y95.938 E24.87014
G0 F9000 X100.144 Y95.619
G1 F1125 X139.461 Y134.936 E27.53321
G0 F9000 X140.497 Y133.709
G1 F1125 X102.338 Y95.55 E30.11784
G0 F9000 X104.601 Y95.55
G1 F1125 X141.39 Y132.339 E32.60967
G0 F9000 X142.145 Y130.831
G1 F1125 X106.864 Y95.55 E34.99937
G0 F9000 X109.127 Y95.551
G1 F1125 X142.741 Y129.165 E37.27615
G0 F9000 X143.199 Y127.359
G1 F1125 X111.39 Y95.551 E39.43064
G0 F9000 X113.653 Y95.551
G1 F1125 X143.919 Y125.817 E41.48066
G0 F9000 X144.78 Y124.415
G1 F1125 X115.916 Y95.551 E43.43571
G0 F9000 X118.182 Y95.554
G1 F1125 X145.493 Y122.866 E45.2856
G0 F9000 X146.035 Y121.145
G1 F1125 X120.454 Y95.564 E47.01828
G0 F9000 X123.001 Y95.848
G1 F1125 X146.379 Y119.226 E48.60175
G0 F9000 X146.445 Y117.029
G1 F1125 X126.019 Y96.604 E49.98523
G0 F9000 X128.259 Y96.58
G1 F1125 X146.069 Y114.39 E51.19156
G0 F9000 X144.592 Y110.65
G1 F1125 X130.747 Y96.806 E52.12929
G0 F9000 X133.993 Y97.79
G1 F1125 X141.509 Y105.305 E52.63834
G1 F2700 E47.63834
G0 F9000 X142.777 Y104.572
G0 X146.328 Y110.797
G0 X146.868 Y112.024
G0 X147.49 Y114.01
G0 X147.754 Y115.347
G0 X147.93 Y117.398
G0 X147.897 Y118.761
G0 X147.622 Y120.811
G0 X147.295 Y122.133
G0 X146.583 Y124.064
G0 X143.312 Y131.825
G0 X142.327 Y133.632
G0 X141.553 Y134.745
G0 X140.191 Y136.305
G0 X139.183 Y137.231
G0 X137.529 Y138.448
G0 X136.343 Y139.135
G0 X134.446 Y139.97
G0 X133.163 Y140.374
G0 X131.11 Y140.781
G0 X129.95 Y140.856
G0 X128.134 Y140.915
G0 X128.134 Y139.448
G1 F2700 E52.63834
G1 F1125 X90.021 Y101.334 E55.21989
G0 F9000 X89.129 Y102.705
G1 F1125 X125.872 Y139.448 E57.70861
G0 F9000 X123.609 Y139.448
G1 F1125 X88.38 Y104.219 E60.09478
G0 F9000 X87.792 Y105.894
G1 F1125 X121.346 Y139.448 E62.3675
G0 F9000 X119.083 Y139.448
G1 F1125 X87.398 Y107.763 E64.51363
G0 F9000 X87.249 Y109.876
G1 F1125 X116.815 Y139.442 E66.51623
G0 F9000 X114.558 Y139.448
G1 F1125 X87.249 Y112.139 E68.36596
G0 F9000 X87.249 Y114.402
G1 F1125 X112.295 Y139.448 E70.0624
G0 F9000 X110.032 Y139.448
G1 F1125 X87.249 Y116.664 E71.6056
G0 F9000 X87.249 Y118.927
G1 F1125 X107.769 Y139.447 E72.99548
G0 F9000 X105.506 Y139.447
G1 F1125 X87.249 Y121.19 E74.23209
G0 F9000 X87.249 Y123.453
G1 F1125 X103.243 Y139.447 E75.31541
G0 F9000 X100.96 Y139.427
G1 F1125 X87.259 Y125.726 E76.24343
G0 F9000 X87.602 Y128.331
G1 F1125 X98.376 Y139.105 E76.97318
G0 F9000 X94.786 Y137.779
G1 F1125 X88.924 Y131.916 E77.37027
G1 F2700 E72.37027
G0 F300 X88.924 Y131.916 Z0.324
G0 F9000 X87.483 Y132.336
G0 X86.662 Y130.409
G0 X86.276 Y129.128
G0 X85.894 Y127.07
G0 X85.784 Y125.197
G0 X85.823 Y108.693
G0 X85.97 Y107.367
G0 X86.422 Y105.34
G0 X86.862 Y104.05
G0 X87.744 Y102.17
G0 X88.453 Y101.011
G0 X89.724 Y99.367
G0 X90.65 Y98.407
G0 X92.248 Y97.077
G0 X92.565 Y96.867
G0 X94.192 Y95.872
G0 X94.952 Y97.123
;TIME_ELAPSED:97.418886
;LAYER:-5
;TYPE:SUPPORT
G1 F2700 E77.37027
G1 F1125 X93.978 Y97.675 E77.43729
G1 X93.172 Y98.21 E77.49521
G1 X92.307 Y98.886 E77.56094
G1 X91.525 Y99.595 E77.62413
G1 X90.931 Y100.211 E77.67536
G1 X90.265 Y101.005 E77.73741
G1 X89.603 Y101.919 E77.80497
G1 X89.04 Y102.85 E77.87011
G1 X88.577 Y103.755 E77.93097
G1 X95.439 Y96.893 E78.51195
G1 X95.81 Y96.718 E78.53651
G1 X96.869 Y96.309 E78.60447
G1 X97.676 Y96.07 E78.65486
G1 X87.768 Y105.978 E79.49373
G1 X87.574 Y106.734 E79.54046
G1 X87.383 Y107.778 E79.604
G1 X99.46 Y95.701 E80.62652
G1 X99.888 Y95.636 E80.65243
G1 X101.017 Y95.557 E80.72019
G1 X87.266 Y109.308 E81.88444
G1 X87.249 Y109.777 E81.91254
G1 X87.249 Y110.74 E81.97019
G1 X102.439 Y95.549 E83.25632
G1 X103.854 Y95.549 E83.34103
G1 X87.249 Y112.154 E84.74692
G1 X87.249 Y113.569 E84.83163
G1 X105.268 Y95.549 E86.35728
G1 X106.682 Y95.549 E86.44193
G1 X87.249 Y114.983 E88.0873
G1 X87.249 Y116.397 E88.17195
G1 X108.096 Y95.549 E89.93704
G1 X109.511 Y95.549 E90.02175
G1 X87.249 Y117.811 E91.90659
G1 X87.249 Y119.225 E91.99125
G1 X110.925 Y95.549 E93.99581
G1 X112.339 Y95.549 E94.08047
G1 X87.249 Y120.64 E96.20479
G1 X87.249 Y122.054 E96.28944
G1 X113.753 Y95.549 E98.53349
G1 X115.167 Y95.549 E98.61814
G1 X87.249 Y123.468 E100.9819
G1 X87.249 Y124.882 E101.06655
G1 X116.577 Y95.554 E103.54965
G1 X117.996 Y95.549 E103.63461
G1 X87.297 Y126.248 E106.23378
G1 X87.336 Y126.818 E106.26799
G1 X87.442 Y127.518 E106.31037
G1 X119.41 Y95.549 E109.01703
G1 X120.135 Y95.55 E109.06044
G1 X120.797 Y95.577 E109.1001
G1 X87.679 Y128.695 E111.90409
G1 X87.999 Y129.789 E111.97233
G1 X122.107 Y95.681 E114.86013
G1 X123.3 Y95.902 E114.93277
G1 X88.386 Y130.816 E117.88882
G1 X88.84 Y131.776 E117.95239
G1 X124.407 Y96.209 E120.96373
G1 X124.793 Y96.343 E120.98819
G1 X125.5 Y96.531 E121.03199
G1 X89.352 Y132.678 E124.09247
G1 X89.918 Y133.527 E124.15355
G1 X126.804 Y96.64 E127.2766
G1 X128.295 Y96.564 E127.36598
G1 X90.531 Y134.328 E130.56333
G1 X91.204 Y135.07 E130.6233
G1 X129.621 Y96.652 E133.87598
G1 X130.234 Y96.714 E133.91286
G1 X130.863 Y96.824 E133.95109
G1 X91.916 Y135.771 E137.2486
G1 X92.684 Y136.417 E137.30868
G1 X132.028 Y97.073 E140.6398
G1 X133.095 Y97.421 E140.70699
G1 X93.496 Y137.02 E144.0597
G1 X94.376 Y137.554 E144.12132
G1 X134.105 Y97.825 E147.48504
G1 X135.045 Y98.299 E147.54806
G1 X95.292 Y138.052 E150.91381
G1 X96.289 Y138.469 E150.97851
G1 X135.937 Y98.822 E154.33532
G1 X136.768 Y99.405 E154.39609
G1 X97.335 Y138.838 E157.73475
G1 X98.46 Y139.127 E157.80429
G1 X137.557 Y100.03 E161.11449
G1 X138.287 Y100.714 E161.17438
G1 X99.675 Y139.326 E164.44353
G1 X100.344 Y139.403 E164.48384
G1 X100.986 Y139.429 E164.52231
G1 X138.978 Y101.438 E167.73892
G1 X139.6 Y102.229 E167.79916
G1 X102.381 Y139.448 E170.95036
G1 X103.796 Y139.448 E171.03507
G1 X140.194 Y103.05 E174.11676
G1 X140.72 Y103.938 E174.17855
G1 X105.21 Y139.448 E177.18506
G1 X106.624 Y139.448 E177.26971
G1 X141.238 Y104.834 E180.20036
G1 X141.755 Y105.732 E180.26239
G1 X108.038 Y139.448 E183.11705
G1 X109.452 Y139.449 E183.20171
G1 X142.272 Y106.628 E185.9805
G1 X142.79 Y107.525 E186.04252
G1 X110.866 Y139.449 E188.74541
G1 X112.28 Y139.449 E188.83006
G1 X143.307 Y108.422 E191.45701
G1 X143.825 Y109.318 E191.51897
G1 X113.694 Y139.449 E194.07006
G1 X115.109 Y139.449 E194.15477
G1 X144.343 Y110.215 E196.62991
G1 X144.575 Y110.616 E196.65764
G1 X144.845 Y111.127 E196.69225
G1 X116.526 Y139.445 E199.08987
G1 X117.937 Y139.449 E199.17435
G1 X145.299 Y112.087 E201.49099
G1 X145.495 Y112.536 E201.52032
G1 X145.693 Y113.107 E201.5565
G1 X119.351 Y139.449 E203.78679
G1 X120.766 Y139.449 E203.8715
G1 X146.018 Y114.196 E206.00954
G1 X146.111 Y114.54 E206.03088
G1 X146.272 Y115.357 E206.08073
G1 X122.18 Y139.449 E208.12051
G1 X123.594 Y139.449 E208.20517
G1 X146.423 Y116.62 E210.13802
G1 X146.469 Y117.537 E210.19299
G1 X146.455 Y118.002 E210.22084
G1 X125.008 Y139.449 E212.03668
G1 X126.422 Y139.449 E212.12133
G1 X146.357 Y119.514 E213.80916
G1 X146.167 Y120.622 E213.87646
G1 X146.004 Y121.282 E213.91716
G1 X127.837 Y139.449 E215.4553
G1 X129.25 Y139.449 E215.53989
G1 X145.25 Y123.45 E216.89451
G1 X145.202 Y123.567 E216.90209
G1 X144.739 Y124.497 E216.96428
G1 X144.262 Y125.304 E217.0204
G1 X143.949 Y125.765 E217.05376
G1 X143.585 Y126.368 E217.09593
G1 X143.455 Y126.659 E217.11501
G1 X130.768 Y139.346 E218.18918
G1 X131.849 Y139.179 E218.25466
G1 X132.507 Y139.021 E218.29517
G1 X142.869 Y128.659 E219.17249
G1 X142.718 Y129.254 E219.20924
G1 X142.424 Y130.152 E219.26581
G1 X142.168 Y130.774 E219.30608
G1 X134.618 Y138.324 E219.94531
G1 X134.819 Y138.245 E219.95824
G1 X135.763 Y137.786 E220.02108
G1 X136.644 Y137.277 E220.082
G1 X137.516 Y136.683 E220.14516
G1 X138.252 Y136.099 E220.20141
G1 X139.902 Y134.454 E220.3409
G1 X139.836 Y134.536 E220.3472
G1 X139.084 Y135.346 E220.41337
G1 F2700 E215.41337
G0 F300 X139.084 Y135.346 Z0.444
G0 F9000 X140.191 Y136.305
G0 X141.553 Y134.745
G0 X142.327 Y133.632
G0 X143.312 Y131.825
G0 X147.003 Y123.022
G0 X147.58 Y121.017
G0 X147.807 Y119.688
G0 X147.933 Y117.634
G0 X147.866 Y116.255
G0 X147.54 Y114.213
G0 X147.18 Y112.908
G0 X146.418 Y110.984
G0 X145.813 Y109.831
G0 X141.494 Y102.378
G0 X140.241 Y100.676
G0 X139.068 Y101.553
;TIME_ELAPSED:227.496878
;LAYER:-4
;TYPE:SUPPORT-INTERFACE
G1 F2700 E220.41337
G1 F1500 X138.319 Y100.745 E220.43536
G1 X137.654 Y100.121 E220.45356
G1 X136.848 Y99.462 E220.47433
G1 X136.678 Y99.342 E220.47849
G1 X139.736 Y102.402 E220.56482
G1 X140.317 Y103.258 E220.58546
G1 X140.738 Y103.969 E220.60195
G1 X135.087 Y98.317 E220.76145
G1 X134.207 Y97.877 E220.78108
G1 X133.992 Y97.788 E220.78573
G1 X141.51 Y105.306 E220.9979
G1 X142.282 Y106.644 E221.02873
G1 X133.044 Y97.406 E221.28944
G1 X132.202 Y97.13 E221.30713
G1 X143.054 Y107.982 E221.61339
G1 X143.826 Y109.32 E221.64422
G1 X131.432 Y96.925 E221.99402
G1 X130.745 Y96.804 E222.00794
G1 X144.594 Y110.653 E222.39879
G1 X145.055 Y111.524 E222.41846
G1 X145.175 Y111.799 E222.42444
G1 X130.073 Y96.698 E222.85064
G1 X129.444 Y96.634 E222.86326
G1 X145.575 Y112.765 E223.31851
G1 X145.876 Y113.632 E223.33683
G1 X128.842 Y96.598 E223.81756
G1 X128.259 Y96.581 E223.8292
G1 X146.085 Y114.407 E224.33229
G1 X146.224 Y115.111 E224.34661
G1 X127.708 Y96.595 E224.86917
G1 X127.169 Y96.622 E224.87994
G1 X146.332 Y115.785 E225.42076
G1 X146.41 Y116.429 E225.43371
G1 X126.631 Y96.65 E225.99191
G1 X126.181 Y96.672 E226.0009
G1 X126.181 Y96.626 E226.00182
G1 X126.02 Y96.604 E226.00507
G1 X146.443 Y117.028 E226.58146
G1 X146.473 Y117.623 E226.59335
G1 X125.342 Y96.492 E227.18971
G1 X124.793 Y96.343 E227.20106
G1 X124.539 Y96.255 E227.20643
G1 X146.451 Y118.166 E227.82482
G1 X146.431 Y118.712 E227.83572
G1 X123.744 Y96.025 E228.476
G1 X122.983 Y95.83 E228.49168
G1 X146.38 Y119.227 E229.15199
G1 X146.328 Y119.741 E229.1623
G1 X122.305 Y95.718 E229.84028
G1 X121.666 Y95.644 E229.85312
G1 X146.237 Y120.215 E230.54656
G1 X146.149 Y120.693 E230.55626
G1 X121.043 Y95.588 E231.26479
G1 X120.454 Y95.564 E231.27656
G1 X146.038 Y121.147 E231.99858
G1 X145.925 Y121.601 E232.00792
G1 X119.875 Y95.55 E232.74312
G1 X119.309 Y95.55 E232.75441
G1 X145.787 Y122.028 E233.50168
G1 X145.648 Y122.455 E233.51064
G1 X118.743 Y95.55 E234.26996
G1 X118.178 Y95.55 E234.28123
G1 X145.492 Y122.864 E235.05209
G1 X145.327 Y123.265 E235.06075
G1 X117.612 Y95.55 E235.84292
G1 X117.048 Y95.552 E235.85418
G1 X145.156 Y123.66 E236.64745
G1 X144.968 Y124.037 E236.65585
G1 X116.483 Y95.553 E237.45975
G1 X115.914 Y95.549 E237.4711
G1 X144.78 Y124.415 E238.28576
G1 X144.575 Y124.776 E238.29405
G1 X115.348 Y95.549 E239.1189
G1 X114.783 Y95.549 E239.13017
G1 X144.365 Y125.131 E239.96504
G1 X144.145 Y125.477 E239.97322
G1 X114.217 Y95.549 E240.81786
G1 X113.651 Y95.549 E240.82915
G1 X143.918 Y125.816 E241.68335
G1 X143.706 Y126.169 E241.69157
G1 X113.086 Y95.549 E242.55573
G1 X112.52 Y95.549 E242.56703
G1 X143.509 Y126.538 E243.4416
G1 X143.335 Y126.93 E243.45016
G1 X111.954 Y95.549 E244.3358
G1 X111.389 Y95.549 E244.34708
G1 X143.194 Y127.354 E245.24468
G1 X143.161 Y127.354 E245.24534
G1 X143.07 Y127.796 E245.25435
G1 X110.823 Y95.549 E246.16443
G1 X110.257 Y95.549 E246.17572
G1 X142.971 Y128.263 E247.09898
G1 X142.856 Y128.713 E247.10825
G1 X109.692 Y95.549 E248.04421
G1 X109.126 Y95.549 E248.05551
G1 X142.741 Y129.165 E249.00421
G1 X142.607 Y129.596 E249.01322
G1 X108.56 Y95.549 E249.9741
G1 X107.995 Y95.549 E249.98537
G1 X142.474 Y130.029 E250.95846
G1 X142.31 Y130.43 E250.9671
G1 X107.429 Y95.549 E251.95152
G1 X106.863 Y95.549 E251.96281
G1 X142.145 Y130.831 E252.95855
