;FLAVOR:Marlin
;TIME:9480
;Filament used: 3.99483m
;Layer height: 0.12
;MINX:82.46
;MINY:86.129
;MINZ:0.144
;MAXX:152.54
;MAXY:148.881
;MAXZ:15.954
;Generated with Cura_SteamEngine 5.2.1
M140 S60
M105
M190 S60
M104 S200
M105
M109 S200
M82 ;absolute extrusion mode
; Ender 3 Custom Start G-code
G92 E0 ; Reset Extruder
G28 ; Home all axes
G1 Z2.0 F3000 ; Move Z Axis up little to prevent scratching of Heat Bed
G1 X0.1 Y20 Z0.3 F5000.0 ; Move to start position
G1 X0.1 Y200.0 Z0.3 F1500.0 E15 ; Draw the first line
G1 X0.4 Y200.0 Z0.3 F5000.0 ; Move to side a little
G1 X0.4 Y20 Z0.3 F1500.0 E30 ; Draw the second line
G92 E0 ; Reset Extruder
G1 Z2.0 F3000 ; Move Z Axis up little to prevent scratching of Heat Bed
G1 X5 Y20 Z0.3 F5000.0 ; Move over to prevent blob squish
G92 E0
G92 E0
G1 F2700 E-5
;LAYER_COUNT:127
;LAYER:-6
M107
G0 F9000 X87.302 Y91.98 Z0.144
;TYPE:SUPPORT-INTERFACE
G1 F2700 E0
G1 F1125 X86.572 Y92.849 E0.05436
G1 X85.934 Y93.741 E0.10688
G1 X85.355 Y94.705 E0.16074
G1 X84.903 Y95.585 E0.20812
G1 X84.485 Y96.57 E0.25937
G1 X84.145 Y97.574 E0.31014
G1 X83.861 Y98.678 E0.36474
G1 X83.698 Y99.56 E0.40769
G1 X83.573 Y100.634 E0.45948
G1 X83.526 Y101.784 E0.51461
G1 X83.526 Y123.274 E1.54386
G1 X83.533 Y123.671 E1.56288
G1 X83.614 Y124.83 E1.61852
G1 X83.758 Y125.803 E1.66563
G1 X84.003 Y126.923 E1.72054
G1 X84.341 Y128.025 E1.77575
G1 X84.718 Y128.997 E1.82568
G1 X85.111 Y129.834 E1.86997
G1 X85.626 Y130.764 E1.92088
G1 X86.249 Y131.715 E1.97533
G1 X86.913 Y132.578 E2.02749
G1 X87.68 Y133.421 E2.08207
G1 X88.33 Y134.048 E2.12533
G1 X89.202 Y134.78 E2.17986
G1 X90.076 Y135.405 E2.23132
G1 X90.991 Y135.962 E2.28262
G1 X91.794 Y136.375 E2.32587
G1 X92.084 Y136.535 E2.34173
G1 X92.635 Y136.861 E2.3724
G1 X109.382 Y146.04 E3.28706
G1 X110.254 Y146.477 E3.33378
G1 X111.081 Y146.828 E3.37681
G1 X112.166 Y147.203 E3.43179
G1 X113.278 Y147.489 E3.48678
G1 X114.243 Y147.668 E3.53379
G1 X115.235 Y147.777 E3.58159
G1 X116.365 Y147.824 E3.63575
G1 X123.965 Y147.824 E3.99975
G1 X124.359 Y147.817 E4.01863
G1 X125.518 Y147.736 E4.07427
G1 X126.562 Y147.581 E4.12482
G1 X127.539 Y147.363 E4.17277
G1 X128.625 Y147.044 E4.22698
G1 X129.628 Y146.659 E4.27843
G1 X130.595 Y146.205 E4.3296
G1 X131.444 Y145.729 E4.37621
G1 X132.342 Y145.144 E4.42754
G1 X133.25 Y144.45 E4.48228
G1 X134.109 Y143.67 E4.53785
G1 X134.736 Y143.019 E4.58114
G1 X135.467 Y142.149 E4.63557
G1 X136.096 Y141.271 E4.6873
G1 X136.606 Y140.432 E4.73432
G1 X136.744 Y140.178 E4.74817
G1 X137.065 Y139.639 E4.77821
G1 X137.466 Y139.117 E4.80974
G1 X137.947 Y138.632 E4.84245
G1 X138.486 Y138.21 E4.87524
G1 X139.055 Y137.869 E4.90701
G1 X139.702 Y137.588 E4.94079
G1 X140.342 Y137.399 E4.97276
G1 X140.648 Y137.323 E4.98786
G1 X141.594 Y137.041 E5.03514
G1 X142.663 Y136.625 E5.09007
G1 X143.484 Y136.239 E5.13353
G1 X144.482 Y135.686 E5.18817
G1 X145.374 Y135.096 E5.23939
G1 X146.216 Y134.446 E5.29034
G1 X147.071 Y133.669 E5.34567
G1 X147.698 Y133.018 E5.38896
G1 X148.429 Y132.148 E5.44339
G1 X149.058 Y131.27 E5.49512
G1 X149.567 Y130.434 E5.54199
G1 X150.09 Y129.43 E5.59621
G1 X150.515 Y128.434 E5.64808
G1 X150.853 Y127.437 E5.6985
G1 X151.139 Y126.322 E5.75363
G1 X151.317 Y125.356 E5.80067
G1 X151.438 Y124.218 E5.85548
G1 X151.475 Y123.217 E5.90346
G1 X151.474 Y101.723 E6.93291
G1 X151.467 Y101.327 E6.95187
G1 X151.386 Y100.167 E7.00757
G1 X151.242 Y99.198 E7.05449
G1 X150.996 Y98.072 E7.10969
G1 X150.691 Y97.054 E7.16059
G1 X150.275 Y95.987 E7.21544
G1 X149.889 Y95.166 E7.25889
G1 X149.374 Y94.236 E7.3098
G1 X148.753 Y93.29 E7.364
G1 X148.083 Y92.419 E7.41663
G1 X147.319 Y91.579 E7.47101
G1 X146.67 Y90.952 E7.51424
G1 X145.801 Y90.222 E7.56859
G1 X144.923 Y89.593 E7.62032
G1 X143.945 Y89.005 E7.67498
G1 X143.065 Y88.553 E7.72236
G1 X142.08 Y88.135 E7.77361
G1 X141.076 Y87.795 E7.82437
G1 X139.972 Y87.511 E7.87897
G1 X139.09 Y87.348 E7.92193
G1 X138.016 Y87.223 E7.97372
G1 X136.884 Y87.176 E8.02798
G1 X98.073 Y87.176 E9.88682
G1 X97.679 Y87.183 E9.90569
G1 X96.522 Y87.264 E9.96124
G1 X95.547 Y87.408 E10.00844
G1 X94.422 Y87.654 E10.0636
G1 X93.414 Y87.957 E10.11401
G1 X92.337 Y88.375 E10.16934
G1 X91.516 Y88.761 E10.21279
G1 X90.586 Y89.276 E10.26371
G1 X89.638 Y89.899 E10.31804
G1 X88.769 Y90.567 E10.37053
G1 X87.929 Y91.331 E10.42492
G1 X87.302 Y91.98 E10.46814
G0 F9000 X87.659 Y92.184
G1 F1125 X136.05 Y140.575 E13.74581
G0 F9000 X135.135 Y141.923
G1 F1125 X86.644 Y93.432 E17.03026
G0 F9000 X85.758 Y94.809
G1 F1125 X134.076 Y143.127 E20.303
G0 F9000 X132.899 Y144.213
G1 F1125 X85.018 Y96.332 E23.54613
G0 F9000 X84.442 Y98.019
G1 F1125 X131.583 Y145.159 E26.7391
G0 F9000 X130.138 Y145.977
G1 F1125 X84.06 Y99.9 E29.86008
G0 F9000 X83.925 Y102.027
G1 F1125 X128.543 Y146.645 E32.8822
G0 F9000 X126.76 Y147.125
G1 F1125 X83.925 Y104.289 E35.78358
G0 F9000 X83.925 Y106.552
G1 F1125 X124.759 Y147.386 E38.5494
G0 F9000 X122.533 Y147.423
G1 F1125 X83.925 Y108.815 E41.16444
G0 F9000 X83.925 Y111.077
G1 F1125 X120.271 Y147.423 E43.62627
G0 F9000 X118.007 Y147.423
G1 F1125 X83.925 Y113.34 E45.93479
G0 F9000 X83.925 Y115.603
G1 F1125 X115.717 Y147.395 E48.08816
G0 F9000 X113.084 Y147.025
G1 F1125 X83.925 Y117.866 E50.0632
G0 F9000 X83.925 Y120.128
G1 F1125 X109.376 Y145.58 E51.78711
G1 F2700 E46.78711
G0 F9000 X108.672 Y146.867
G0 X103.663 Y144.122
G0 X104.368 Y142.835
G1 F2700 E51.78711
G1 F1125 X83.925 Y122.391 E53.17181
G0 F9000 X84.008 Y124.737
G1 F1125 X99.361 Y140.09 E54.21172
G1 F2700 E49.21172
G0 F9000 X98.656 Y141.378
G0 X93.649 Y138.633
G0 X94.354 Y137.346
G1 F2700 E54.21172
G1 F1125 X84.637 Y127.629 E54.86988
G1 F2700 E49.86988
G0 F9000 X83.004 Y127.298
G0 X82.708 Y125.983
G0 X82.479 Y123.912
G0 X82.499 Y100.718
G0 X82.646 Y99.392
G0 X83.098 Y97.365
G0 X83.538 Y96.075
G0 X84.42 Y94.195
G0 X85.129 Y93.036
G0 X86.157 Y91.705
G0 X87.323 Y90.435
G0 X88.809 Y91.071
G1 F2700 E54.86988
G1 F1125 X136.915 Y139.178 E58.12829
G0 F9000 X138.045 Y138.045
G1 F1125 X90.084 Y90.084 E61.37684
G0 F9000 X91.493 Y89.23
G1 F1125 X139.5 Y137.238 E64.62854
G0 F9000 X141.25 Y136.724
G1 F1125 X93.052 Y88.526 E67.89314
G0 F9000 X94.774 Y87.986
G1 F1125 X142.871 Y136.083 E71.15091
G0 F9000 X144.345 Y135.294
G1 F1125 X96.703 Y87.652 E74.37785
G0 F9000 X98.889 Y87.575
G1 F1125 X145.672 Y134.358 E77.54661
G0 F9000 X146.873 Y133.296
G1 F1125 X101.152 Y87.575 E80.64344
G0 F9000 X103.415 Y87.575
G1 F1125 X147.943 Y132.104 E83.6595
G0 F9000 X148.885 Y130.783
G1 F1125 X105.677 Y87.575 E86.58612
G0 F9000 X107.94 Y87.575
G1 F1125 X149.691 Y129.327 E89.41408
G0 F9000 X150.337 Y127.71
G1 F1125 X110.203 Y87.575 E92.13251
G0 F9000 X112.466 Y87.575
G1 F1125 X150.806 Y125.916 E94.72944
G0 F9000 X151.049 Y123.896
G1 F1125 X114.728 Y87.575 E97.18958
G0 F9000 X116.991 Y87.575
G1 F1125 X151.074 Y121.658 E99.49813
G0 F9000 X151.074 Y119.395
G1 F1125 X119.254 Y87.575 E101.6534
G0 F9000 X121.517 Y87.575
G1 F1125 X151.074 Y117.132 E103.65539
G0 F9000 X151.074 Y114.87
G1 F1125 X123.779 Y87.575 E105.50416
G0 F9000 X126.042 Y87.575
G1 F1125 X151.074 Y112.607 E107.19966
G0 F9000 X151.074 Y110.344
G1 F1125 X128.305 Y87.575 E108.74188
G0 F9000 X130.567 Y87.575
G1 F1125 X151.074 Y108.081 E110.13085
G0 F9000 X151.074 Y105.819
G1 F1125 X132.83 Y87.575 E111.36657
G0 F9000 X135.093 Y87.575
G1 F1125 X151.074 Y103.556 E112.44902
G0 F9000 X151.062 Y101.281
G1 F1125 X137.377 Y87.597 E113.37591
G0 F9000 X139.966 Y87.923
G1 F1125 X150.717 Y98.674 E114.10411
G0 F9000 X149.381 Y95.075
G1 F1125 X143.566 Y89.26 E114.49798
G1 F2700 E109.49798
G0 F300 X143.566 Y89.26 Z0.324
G0 F9000 X144.455 Y88.07
G0 X145.614 Y88.779
G0 X147.258 Y90.05
G0 X148.215 Y90.973
G0 X149.548 Y92.573
G0 X150.29 Y93.693
G0 X151.25 Y95.558
G0 X151.731 Y96.817
G0 X152.26 Y98.841
G0 X152.451 Y100.154
G0 X152.54 Y101.828
G0 X152.501 Y124.282
G0 X152.354 Y125.608
G0 X151.902 Y127.635
G0 X151.462 Y128.925
G0 X150.58 Y130.805
G0 X149.871 Y131.964
G0 X148.6 Y133.608
G0 X148.339 Y133.878
G0 X146.995 Y135.176
G0 X146.016 Y134.087
;TIME_ELAPSED:140.920044
;LAYER:-5
;TYPE:SUPPORT
G1 F2700 E114.49798
G1 F1125 X146.797 Y133.378 E114.56113
G1 X147.392 Y132.76 E114.61249
G1 X148.091 Y131.922 E114.67782
G1 X145.605 Y134.408 E114.8883
G1 X145.149 Y134.763 E114.9229
G1 X144.344 Y135.297 E114.98073
G1 X143.375 Y135.847 E115.04744
G1 X142.512 Y136.254 E115.10456
G1 X142.239 Y136.36 E115.12209
G1 X150.014 Y128.585 E115.78038
G1 X150.138 Y128.293 E115.79937
G1 X150.479 Y127.289 E115.86285
G1 X150.679 Y126.506 E115.91123
G1 X140.145 Y137.04 E116.80311
G1 X139.556 Y137.212 E116.83984
G1 X138.884 Y137.504 E116.88371
G1 X138.254 Y137.882 E116.92769
G1 X137.677 Y138.334 E116.97157
G1 X137.162 Y138.855 E117.01543
G1 X136.718 Y139.435 E117.05916
G1 X136.388 Y139.993 E117.09797
G1 X136.261 Y140.227 E117.11391
G1 X135.753 Y141.062 E117.17243
G1 X135.096 Y141.968 E117.23943
G0 F9000 X133.836 Y143.377
G1 F1125 X134.469 Y142.716 E117.29422
G1 X133.523 Y143.662 E117.37431
G1 X133.008 Y144.13 E117.41598
G1 X132.12 Y144.809 E117.4829
G1 X131.25 Y145.378 E117.54514
G1 X130.47 Y145.816 E117.59869
G1 X129.488 Y146.282 E117.66377
G1 X150.972 Y124.798 E119.48274
G1 X151.038 Y124.189 E119.51941
G1 X151.07 Y123.286 E119.57351
G1 X127.362 Y146.994 E121.58078
G1 X126.586 Y147.167 E121.62838
G1 X125.628 Y147.315 E121.68641
G1 X151.074 Y121.869 E123.84084
G1 X151.074 Y120.454 E123.92555
G1 X124.108 Y147.42 E126.20867
G1 X122.69 Y147.423 E126.29356
G1 X151.074 Y119.04 E128.69669
G1 X151.074 Y117.626 E128.78135
G1 X121.276 Y147.423 E131.30419
G1 X119.862 Y147.423 E131.38885
G1 X151.074 Y116.212 E134.03142
G1 X151.074 Y114.798 E134.11607
G1 X118.448 Y147.423 E136.87836
G1 X117.033 Y147.423 E136.96307
G1 X151.074 Y113.383 E139.84516
G1 X151.074 Y111.969 E139.92981
G1 X115.65 Y147.393 E142.92904
G1 X115.269 Y147.378 E142.95187
G1 X114.356 Y147.272 E143.00689
G1 X151.074 Y110.555 E146.11563
G1 X151.074 Y109.141 E146.20029
G1 X113.166 Y147.048 E149.40978
G1 X112.294 Y146.824 E149.46368
G1 X112.057 Y146.743 E149.47868
G1 X151.074 Y107.727 E152.78207
G1 X151.074 Y106.312 E152.86678
G1 X111.02 Y146.366 E156.25801
G1 X110.281 Y146.048 E156.30618
G1 X110.044 Y145.927 E156.32211
G1 X151.074 Y104.898 E159.79593
G1 X151.074 Y103.484 E159.88059
G1 X109.118 Y145.439 E163.43281
G1 X108.205 Y144.939 E163.49513
G1 X151.074 Y102.07 E167.1247
G1 X151.066 Y101.345 E167.1681
G1 X151.021 Y100.708 E167.20633
G1 X107.291 Y144.438 E170.9088
G1 X106.377 Y143.937 E170.9712
G1 X150.871 Y99.444 E174.73831
G1 X150.821 Y99.117 E174.75811
G1 X150.631 Y98.27 E174.81008
G1 X105.464 Y143.437 E178.63421
G1 X104.55 Y142.936 E178.69661
G1 X150.308 Y97.179 E182.57074
G1 X149.912 Y96.16 E182.63619
G1 X103.637 Y142.436 E186.55417
G1 X102.723 Y141.935 E186.61658
G1 X149.456 Y95.202 E190.57329
G1 X148.944 Y94.3 E190.63539
G1 X101.809 Y141.434 E194.6261
G1 X100.896 Y140.934 E194.68842
G1 X148.376 Y93.454 E198.70838
G1 X147.757 Y92.658 E198.76875
G1 X99.982 Y140.433 E202.81369
G1 X99.069 Y139.932 E202.87604
G1 X147.09 Y91.911 E206.94181
G1 X146.367 Y91.22 E207.00169
G1 X98.156 Y139.431 E211.08354
G1 X97.242 Y138.93 E211.14594
G1 X145.598 Y90.575 E215.24003
G1 X144.777 Y89.981 E215.3007
G1 X96.329 Y138.43 E219.40266
G1 X95.415 Y137.929 E219.46507
G1 X143.909 Y89.435 E223.57088
G1 X142.974 Y88.956 E223.63378
G1 X94.501 Y137.429 E227.73782
G1 X93.588 Y136.928 E227.80016
G1 X141.99 Y88.526 E231.89819
G1 X140.933 Y88.169 E231.96498
G1 X92.679 Y136.423 E236.05048
G1 X92.28 Y136.185 E236.07829
G1 X91.773 Y135.915 E236.11268
G1 X139.803 Y87.884 E240.17926
G1 X139.033 Y87.742 E240.22613
G1 X138.583 Y87.69 E240.25325
G1 X90.861 Y135.412 E244.29371
G1 X90.29 Y135.067 E244.33365
G1 X90.001 Y134.858 E244.355
G1 X137.268 Y87.591 E248.35693
G1 X136.861 Y87.575 E248.38131
G1 X135.87 Y87.575 E248.44064
G1 X89.194 Y134.251 E252.39254
G1 X88.426 Y133.605 E252.45262
G1 X134.456 Y87.575 E256.34982
G1 X133.042 Y87.575 E256.43447
G1 X87.733 Y132.883 E260.27058
G1 X87.261 Y132.365 E260.31254
G1 X87.076 Y132.126 E260.33063
G1 X131.627 Y87.575 E264.10261
G1 X130.213 Y87.575 E264.18726
G1 X86.47 Y131.318 E267.89083
G1 X86.045 Y130.685 E267.93647
G1 X85.917 Y130.457 E267.95213
G1 X128.799 Y87.575 E271.58279
G1 X127.385 Y87.575 E271.66745
G1 X85.417 Y129.543 E275.22073
G1 X85.079 Y128.827 E275.26813
G1 X84.979 Y128.566 E275.28487
G1 X125.971 Y87.575 E278.75547
G1 X124.556 Y87.575 E278.84019
G1 X84.603 Y127.528 E282.22287
G1 X84.367 Y126.728 E282.2728
G1 X84.298 Y126.419 E282.29176
G1 X123.142 Y87.575 E285.58054
G1 X121.728 Y87.575 E285.66519
G1 X84.078 Y125.225 E288.85289
G1 X84.012 Y124.793 E288.87905
G1 X83.953 Y123.936 E288.93048
G1 X120.314 Y87.575 E292.00904
G1 X118.9 Y87.575 E292.09369
G1 X83.925 Y122.55 E295.0549
G1 X83.925 Y121.135 E295.13961
G1 X117.485 Y87.575 E297.98102
G1 X116.071 Y87.575 E298.06567
G1 X83.925 Y119.721 E300.78736
G1 X83.925 Y118.307 E300.87202
G1 X114.657 Y87.575 E303.47399
G1 X113.243 Y87.575 E303.55864
G1 X83.925 Y116.893 E306.04089
G1 X83.925 Y115.479 E306.12555
G1 X111.828 Y87.575 E308.48804
G1 X110.414 Y87.575 E308.57269
G1 X83.925 Y114.064 E310.81542
G1 X83.925 Y112.65 E310.90008
G1 X109 Y87.575 E313.02309
G1 X107.586 Y87.575 E313.10774
G1 X83.925 Y111.236 E315.11104
G1 X83.925 Y109.822 E315.19569
G1 X106.172 Y87.575 E317.07926
G1 X104.757 Y87.575 E317.16398
G1 X83.925 Y108.407 E318.92775
G1 X83.925 Y106.993 E319.0124
G1 X103.343 Y87.575 E320.65646
G1 X101.929 Y87.575 E320.74111
G1 X83.925 Y105.579 E322.26545
G1 X83.925 Y104.165 E322.3501
G1 X100.515 Y87.575 E323.75472
G1 X99.101 Y87.575 E323.83937
G1 X83.925 Y102.751 E325.12427
G1 X83.925 Y101.802 E325.18108
G1 X83.942 Y101.319 E325.21002
G1 X97.677 Y87.584 E326.37291
G1 X96.564 Y87.662 E326.43971
G1 X96.118 Y87.729 E326.46671
G1 X84.061 Y99.786 E327.48753
G1 X84.251 Y98.759 E327.55006
G1 X84.449 Y97.983 E327.59801
G1 X94.33 Y88.102 E328.4346
G1 X93.545 Y88.333 E328.48359
G1 X92.486 Y88.745 E328.55162
G1 X92.085 Y88.933 E328.57813
G1 X85.266 Y95.752 E329.15547
G1 X85.715 Y94.875 E329.21446
G1 X86.279 Y93.944 E329.27962
G1 X86.94 Y93.03 E329.34715
G1 X87.608 Y92.237 E329.40923
G1 X88.201 Y91.621 E329.46042
G1 X88.983 Y90.909 E329.52373
G1 X89.849 Y90.235 E329.58943
G1 X90.653 Y89.7 E329.64725
G1 X91.628 Y89.149 E329.7143
G1 F2700 E324.7143
G0 F300 X91.628 Y89.149 Z0.444
G0 F9000 X90.868 Y87.897
G0 X89.102 Y88.976
G0 X88.022 Y89.807
G0 X86.517 Y91.261
G0 X85.659 Y92.294
G0 X84.512 Y94.032
G0 X83.894 Y95.237
G0 X83.161 Y97.155
G0 X82.819 Y98.459
G0 X82.512 Y100.544
G0 X82.461 Y101.764
G0 X82.479 Y123.912
G0 X82.708 Y125.983
G0 X83.004 Y127.298
G0 X83.675 Y129.263
G0 X83.836 Y129.608
G0 X84.71 Y131.307
G0 X86.146 Y130.835
;TIME_ELAPSED:335.763366
;LAYER:-4
;TYPE:SUPPORT-INTERFACE
G1 F2700 E329.7143
G1 F1500 X90.511 Y135.2 E329.83749
G1 F2700 E324.83749
G0 F9000 X89.582 Y136.351
G0 X88.477 Y135.563
G0 X86.922 Y134.17
G0 X86.669 Y133.887
G0 X85.471 Y132.45
G0 X86.629 Y131.554
G1 F2700 E329.83749
G1 F1500 X87.261 Y132.365 E329.858
G1 X87.971 Y133.147 E329.87908
G1 X88.588 Y133.741 E329.89617
G1 X89.387 Y134.413 E329.91701
G1 X90.29 Y135.067 E329.93926
G1 X91.246 Y135.644 E329.96154
G1 X91.809 Y135.932 E329.97416
G1 X85.412 Y129.535 E330.1547
G1 X85.079 Y128.827 E330.17031
G1 X84.959 Y128.517 E330.17695
G1 X93.105 Y136.663 E330.40685
G1 X94.357 Y137.349 E330.43533
G1 X84.631 Y127.623 E330.70982
G1 X84.393 Y126.82 E330.72654
G1 X95.608 Y138.035 E331.04305
G1 X96.86 Y138.72 E331.07153
G1 X84.206 Y126.067 E331.42864
G1 X84.103 Y125.399 E331.44213
G1 X98.112 Y139.407 E331.83748
G1 X99.364 Y140.093 E331.86597
G1 X84.007 Y124.737 E332.29936
G1 X83.966 Y124.129 E332.31152
G1 X100.615 Y140.779 E332.78141
G1 X101.867 Y141.465 E332.8099
G1 X83.93 Y123.528 E333.31612
G1 X83.925 Y122.957 E333.32751
G1 X103.118 Y142.151 E333.86919
G1 X104.37 Y142.836 E333.89767
G1 X83.925 Y122.391 E334.47468
G1 X83.925 Y121.826 E334.48595
G1 X105.621 Y143.522 E335.09826
G1 X106.873 Y144.208 E335.12675
G1 X83.925 Y121.26 E335.77439
G1 X83.925 Y120.694 E335.78569
G1 X108.125 Y144.894 E336.46866
G1 X109.376 Y145.58 E336.49713
G1 X83.925 Y120.128 E337.21543
G1 X83.925 Y119.563 E337.22671
G1 X110.507 Y146.145 E337.97691
