;FLAVOR:Marlin
;TIME:9263
;Filament used: 4.02978m
;Layer height: 0.12
;MINX:100.151
;MINY:52.589
;MINZ:0.144
;MAXX:135.915
;MAXY:182.414
;MAXZ:16.194
;Generated with Cura_SteamEngine 5.2.1
M140 S60
M105
M190 S60
M104 S200
M105
M109 S200
M82 ;absolute extrusion mode
; Ender 3 Custom Start G-code
G92 E0 ; Reset Extruder
G28 ; Home all axes
G1 Z2.0 F3000 ; Move Z Axis up little to prevent scratching of Heat Bed
G1 X0.1 Y20 Z0.3 F5000.0 ; Move to start position
G1 X0.1 Y200.0 Z0.3 F1500.0 E15 ; Draw the first line
G1 X0.4 Y200.0 Z0.3 F5000.0 ; Move to side a little
G1 X0.4 Y20 Z0.3 F1500.0 E30 ; Draw the second line
G92 E0 ; Reset Extruder
G1 Z2.0 F3000 ; Move Z Axis up little to prevent scratching of Heat Bed
G1 X5 Y20 Z0.3 F5000.0 ; Move over to prevent blob squish
G92 E0
G92 E0
G1 F2700 E-5
;LAYER_COUNT:129
;LAYER:-6
M107
G0 F9000 X101.094 Y59.1 Z0.144
;TYPE:SUPPORT-INTERFACE
G1 F2700 E0
G1 F1125 X100.766 Y59.87 E0.04009
G1 X100.498 Y60.699 E0.08181
G1 X100.306 Y61.534 E0.12285
G1 X100.189 Y62.39 E0.16423
G1 X100.153 Y63.192 E0.20268
G1 X100.151 Y171.744 E5.40173
G1 X100.17 Y172.298 E5.42828
G1 X100.245 Y173.091 E5.46643
G1 X100.406 Y173.945 E5.50805
G1 X100.636 Y174.764 E5.5488
G1 X100.941 Y175.56 E5.58962
G1 X101.32 Y176.339 E5.63111
G1 X101.753 Y177.061 E5.67144
G1 X102.271 Y177.767 E5.71338
G1 X102.837 Y178.41 E5.7544
G1 X103.449 Y178.99 E5.79479
G1 X104.116 Y179.521 E5.83562
G1 X104.837 Y179.997 E5.877
G1 X105.601 Y180.407 E5.91853
G1 X106.306 Y180.707 E5.95522
G1 X107.192 Y181.001 E5.99993
G1 X108.032 Y181.194 E6.04121
G1 X108.894 Y181.312 E6.08288
G1 X109.826 Y181.35 E6.12756
G1 X125.258 Y181.35 E6.86667
G1 X125.798 Y181.33 E6.89255
G1 X126.593 Y181.255 E6.93079
G1 X127.446 Y181.094 E6.97237
G1 X128.255 Y180.867 E7.01261
G1 X129.056 Y180.561 E7.05368
G1 X129.832 Y180.184 E7.095
G1 X130.569 Y179.741 E7.13618
G1 X131.266 Y179.229 E7.1776
G1 X131.911 Y178.662 E7.21873
G1 X132.49 Y178.051 E7.25905
G1 X133.027 Y177.377 E7.30032
G1 X133.496 Y176.663 E7.34124
G1 X133.907 Y175.899 E7.38279
G1 X134.205 Y175.2 E7.41918
G1 X134.501 Y174.308 E7.4642
G1 X134.694 Y173.469 E7.50543
G1 X134.811 Y172.61 E7.54695
G1 X134.847 Y171.808 E7.5854
G1 X134.849 Y63.256 E12.78445
G1 X134.83 Y62.701 E12.81105
G1 X134.755 Y61.909 E12.84915
G1 X134.595 Y61.057 E12.89067
G1 X134.367 Y60.245 E12.93107
G1 X134.065 Y59.453 E12.97166
G1 X133.683 Y58.668 E13.01348
G1 X133.241 Y57.931 E13.05464
G1 X132.729 Y57.234 E13.09606
G1 X132.162 Y56.589 E13.13719
G1 X131.551 Y56.01 E13.1775
G1 X130.883 Y55.478 E13.2184
G1 X130.163 Y55.004 E13.25969
G1 X129.402 Y54.594 E13.30109
G1 X128.694 Y54.293 E13.33794
G1 X127.808 Y53.999 E13.38265
G1 X126.968 Y53.806 E13.42393
G1 X126.106 Y53.688 E13.4656
G1 X125.174 Y53.651 E13.51027
G1 X109.742 Y53.65 E14.24938
G1 X109.202 Y53.67 E14.27526
G1 X108.407 Y53.745 E14.31351
G1 X107.554 Y53.906 E14.35508
G1 X106.745 Y54.133 E14.39532
G1 X105.944 Y54.439 E14.43639
G1 X105.168 Y54.816 E14.47771
G1 X104.431 Y55.259 E14.5189
G1 X103.734 Y55.77 E14.56029
G1 X103.089 Y56.338 E14.60145
G1 X102.51 Y56.949 E14.64177
G1 X101.979 Y57.616 E14.6826
G1 X101.504 Y58.336 E14.72391
G1 X101.094 Y59.1 E14.76544
G0 F9000 X101.737 Y58.745
G1 F1125 X134.448 Y91.456 E16.98106
G0 F9000 X134.448 Y93.719
G1 F1125 X101.042 Y60.312 E19.24379
G0 F9000 X100.623 Y62.156
G1 F1125 X134.448 Y95.981 E21.53487
G0 F9000 X134.448 Y98.244
G1 F1125 X100.551 Y64.347 E23.83082
G0 F9000 X100.551 Y66.61
G1 F1125 X134.448 Y100.507 E26.12677
G0 F9000 X134.448 Y102.77
G1 F1125 X100.551 Y68.872 E28.42275
G0 F9000 X100.551 Y71.135
G1 F1125 X134.448 Y105.032 E30.71871
G0 F9000 X134.448 Y107.295
G1 F1125 X100.551 Y73.398 E33.01466
G0 F9000 X100.551 Y75.661
G1 F1125 X134.448 Y109.558 E35.31061
G0 F9000 X134.448 Y111.821
G1 F1125 X100.551 Y77.923 E37.6066
G0 F9000 X100.551 Y80.186
G1 F1125 X134.448 Y114.083 E39.90255
G0 F9000 X134.448 Y116.346
G1 F1125 X100.551 Y82.449 E42.1985
G0 F9000 X100.551 Y84.712
G1 F1125 X134.447 Y118.608 E44.49438
G0 F9000 X134.447 Y120.871
G1 F1125 X100.551 Y86.974 E46.7903
G0 F9000 X100.551 Y89.237
G1 F1125 X134.447 Y123.134 E49.08622
G0 F9000 X134.447 Y125.396
G1 F1125 X100.551 Y91.5 E51.3821
G0 F9000 X100.551 Y93.763
G1 F1125 X134.447 Y127.659 E53.67799
G0 F9000 X134.447 Y129.922
G1 F1125 X100.551 Y96.025 E55.9739
G0 F9000 X100.551 Y98.288
G1 F1125 X134.447 Y132.185 E58.26982
G0 F9000 X134.447 Y134.447
G1 F1125 X100.551 Y100.551 E60.56571
G0 F9000 X100.551 Y102.814
G1 F1125 X134.447 Y136.71 E62.86159
G0 F9000 X134.447 Y138.973
G1 F1125 X100.551 Y105.076 E65.15751
G0 F9000 X100.551 Y107.339
G1 F1125 X134.447 Y141.236 E67.45343
G0 F9000 X134.447 Y143.498
G1 F1125 X100.551 Y109.602 E69.74931
G0 F9000 X100.551 Y111.864
G1 F1125 X134.447 Y145.761 E72.04523
G0 F9000 X134.447 Y148.024
G1 F1125 X100.551 Y114.127 E74.34115
G0 F9000 X100.551 Y116.39
G1 F1125 X134.447 Y150.287 E76.63706
G0 F9000 X134.447 Y152.549
G1 F1125 X100.55 Y118.652 E78.93302
G0 F9000 X100.55 Y120.915
G1 F1125 X134.447 Y154.812 E81.22897
G0 F9000 X134.447 Y157.075
G1 F1125 X100.55 Y123.178 E83.52492
G0 F9000 X100.55 Y125.44
G1 F1125 X134.447 Y159.338 E85.82091
G0 F9000 X134.447 Y161.6
G1 F1125 X100.55 Y127.703 E88.11686
G0 F9000 X100.55 Y129.966
G1 F1125 X134.447 Y163.863 E90.41281
G0 F9000 X134.447 Y166.126
G1 F1125 X100.55 Y132.228 E92.70879
G0 F9000 X100.55 Y134.491
G1 F1125 X134.447 Y168.388 E95.00475
G0 F9000 X134.447 Y170.651
G1 F1125 X100.55 Y136.754 E97.3007
G0 F9000 X100.55 Y139.017
G1 F1125 X134.375 Y172.842 E99.59177
G0 F9000 X133.955 Y174.684
G1 F1125 X100.55 Y141.279 E101.8544
G0 F9000 X100.55 Y143.542
G1 F1125 X133.262 Y176.254 E104.07009
G0 F9000 X132.341 Y177.596
G1 F1125 X100.55 Y145.805 E106.22339
G0 F9000 X100.55 Y148.068
G1 F1125 X131.219 Y178.736 E108.30067
G0 F9000 X129.896 Y179.677
G1 F1125 X100.55 Y150.33 E110.2884
G0 F9000 X100.55 Y152.593
G1 F1125 X128.356 Y180.399 E112.17179
G0 F9000 X126.549 Y180.855
G1 F1125 X100.55 Y154.856 E113.93278
G0 F9000 X100.55 Y157.119
G1 F1125 X124.38 Y180.949 E115.54687
G0 F9000 X122.118 Y180.949
G1 F1125 X100.55 Y159.381 E117.00774
G0 F9000 X100.55 Y161.644
G1 F1125 X119.855 Y180.949 E118.31533
G0 F9000 X117.592 Y180.949
G1 F1125 X100.55 Y163.907 E119.46963
G0 F9000 X100.55 Y166.17
G1 F1125 X115.329 Y180.949 E120.47066
G0 F9000 X113.067 Y180.949
G1 F1125 X100.55 Y168.432 E121.31848
G0 F9000 X100.55 Y170.695
G1 F1125 X110.804 Y180.949 E122.01302
G0 F9000 X108.436 Y180.843
G1 F1125 X100.645 Y173.053 E122.54069
G0 F9000 X101.962 Y176.633
G1 F1125 X104.863 Y179.533 E122.73715
G1 F2700 E117.73715
G0 F9000 X104.057 Y180.758
G0 X105.252 Y181.415
G0 X106.801 Y181.994
G0 X107.974 Y182.26
G0 X109.81 Y182.414
G0 X125.876 Y182.392
G0 X127.531 Y182.163
G0 X128.711 Y181.832
G0 X130.231 Y181.175
G0 X131.262 Y180.552
G0 X132.54 Y179.529
G0 X133.379 Y178.645
G0 X134.347 Y177.307
G0 X134.915 Y176.248
G0 X135.494 Y174.699
G0 X135.76 Y173.526
G0 X135.885 Y172.032
G0 X135.915 Y89.193
G0 X134.448 Y89.193
G1 F2700 E122.73715
G1 F1125 X102.658 Y57.403 E124.89039
G0 F9000 X103.779 Y56.262
G1 F1125 X134.448 Y86.931 E126.9677
G0 F9000 X134.448 Y84.668
G1 F1125 X105.102 Y55.321 E128.95543
G0 F9000 X106.643 Y54.599
G1 F1125 X134.448 Y82.405 E130.83878
G0 F9000 X134.448 Y80.142
G1 F1125 X108.449 Y54.143 E132.59978
G0 F9000 X110.619 Y54.05
G1 F1125 X134.448 Y77.88 E134.21383
G0 F9000 X134.448 Y75.617
G1 F1125 X112.881 Y54.05 E135.67463
G0 F9000 X115.144 Y54.05
G1 F1125 X134.448 Y73.354 E136.98215
G0 F9000 X134.448 Y71.091
G1 F1125 X117.407 Y54.05 E138.13639
G0 F9000 X119.67 Y54.051
G1 F1125 X134.448 Y68.829 E139.13735
G0 F9000 X134.448 Y66.566
G1 F1125 X121.933 Y54.051 E139.98503
G0 F9000 X124.196 Y54.051
G1 F1125 X134.448 Y64.303 E140.67943
G0 F9000 X134.355 Y61.948
G1 F1125 X126.562 Y54.155 E141.20728
G0 F9000 X130.135 Y55.465
G1 F1125 X133.032 Y58.361 E141.40347
G1 F2700 E136.40347
G0 F300 X133.032 Y58.361 Z0.324
G0 F9000 X134.052 Y57.238
G0 X133.029 Y55.96
G0 X132.145 Y55.121
G0 X130.807 Y54.153
G0 X129.747 Y53.585
G0 X128.199 Y53.006
G0 X127.026 Y52.74
G0 X125.339 Y52.589
G0 X109.124 Y52.608
G0 X107.635 Y52.814
G0 X106.289 Y53.168
G0 X106.118 Y54.799
;TIME_ELAPSED:173.455564
;LAYER:-5
;TYPE:SUPPORT
G1 F2700 E141.40347
G1 F1125 X105.37 Y55.159 E141.45317
G1 X104.65 Y55.595 E141.50356
G1 X103.992 Y56.074 E141.55228
G1 X103.376 Y56.615 E141.60137
G1 X102.796 Y57.226 E141.6518
G1 X102.374 Y57.758 E141.69246
G1 X102.225 Y57.965 E141.70773
G1 X101.843 Y58.547 E141.7494
G1 X101.447 Y59.285 E141.79955
G1 X101.138 Y60.012 E141.84684
G1 X101.105 Y60.114 E141.85326
G1 X106.606 Y54.614 E142.31896
G1 X106.872 Y54.512 E142.33602
G1 X107.54 Y54.323 E142.37758
G1 X107.784 Y54.267 E142.39257
G1 X108.497 Y54.136 E142.43597
G1 X100.646 Y61.987 E143.10069
G1 X100.589 Y62.408 E143.12612
G1 X100.552 Y63.218 E143.17466
G1 X100.552 Y63.496 E143.19131
G1 X109.998 Y54.049 E143.99111
G1 X111.413 Y54.049 E144.07582
G1 X100.552 Y64.91 E144.99539
G1 X100.552 Y66.324 E145.08004
G1 X112.827 Y54.049 E146.11932
G1 X114.241 Y54.049 E146.20397
G1 X100.552 Y67.738 E147.36297
G1 X100.552 Y69.152 E147.44763
G1 X115.655 Y54.049 E148.72635
G1 X117.07 Y54.049 E148.81106
G1 X100.552 Y70.567 E150.20958
G1 X100.552 Y71.981 E150.29423
G1 X118.484 Y54.049 E151.81247
G1 X119.898 Y54.049 E151.89713
G1 X100.552 Y73.395 E153.53508
G1 X100.552 Y74.809 E153.61974
G1 X121.312 Y54.049 E155.37741
G1 X122.726 Y54.049 E155.46207
G1 X100.552 Y76.223 E157.33946
G1 X100.552 Y77.638 E157.42418
G1 X124.141 Y54.049 E159.42137
G1 X125.156 Y54.049 E159.48214
G1 X125.539 Y54.065 E159.50509
G1 X100.552 Y79.052 E161.62065
G1 X100.552 Y80.466 E161.7053
G1 X126.829 Y54.189 E163.93009
G1 X127.687 Y54.38 E163.98271
G1 X127.963 Y54.469 E164.00007
G1 X100.552 Y81.88 E166.32086
G1 X100.552 Y83.295 E166.40558
G1 X129.008 Y54.839 E168.81485
G1 X129.929 Y55.332 E168.87739
G1 X100.552 Y84.709 E171.36464
G1 X100.552 Y86.123 E171.44929
G1 X130.774 Y55.901 E174.00808
G1 X131.288 Y56.309 E174.04737
G1 X131.54 Y56.549 E174.0682
G1 X100.552 Y87.537 E176.69185
G1 X100.552 Y88.951 E176.7765
G1 X132.231 Y57.273 E179.45861
G1 X132.425 Y57.493 E179.47617
G1 X132.846 Y58.072 E179.51903
G1 X100.551 Y90.366 E182.25329
G1 X100.551 Y91.781 E182.338
G1 X133.378 Y58.954 E185.11735
G1 X133.698 Y59.613 E185.16121
G1 X133.817 Y59.929 E185.18142
G1 X100.551 Y93.195 E187.99794
G1 X100.551 Y94.609 E188.08259
G1 X134.162 Y60.999 E190.92827
G1 X134.231 Y61.284 E190.94583
G1 X134.399 Y62.175 E191.00011
G1 X100.551 Y96.023 E193.8659
G1 X100.551 Y97.437 E193.95056
G1 X134.449 Y63.54 E196.82054
G1 X134.449 Y64.954 E196.90519
G1 X100.551 Y98.852 E199.77522
G1 X100.551 Y100.266 E199.85987
G1 X134.449 Y66.369 E202.72985
G1 X134.449 Y67.783 E202.81451
G1 X100.551 Y101.68 E205.68449
G1 X100.551 Y103.094 E205.76914
G1 X134.449 Y69.197 E208.63912
G1 X134.449 Y70.611 E208.72378
G1 X100.551 Y104.508 E211.59376
G1 X100.551 Y105.923 E211.67847
G1 X134.449 Y72.025 E214.5485
G1 X134.449 Y73.44 E214.63321
G1 X100.551 Y107.337 E217.50319
G1 X100.551 Y108.751 E217.58785
G1 X134.449 Y74.854 E220.45783
G1 X134.449 Y76.268 E220.54248
G1 X100.551 Y110.165 E223.41247
G1 X100.551 Y111.58 E223.49718
G1 X134.449 Y77.682 E226.3672
G1 X134.449 Y79.096 E226.45186
G1 X100.551 Y112.994 E229.32188
G1 X100.551 Y114.408 E229.40654
G1 X134.449 Y80.511 E232.27652
G1 X134.449 Y81.925 E232.36117
G1 X100.551 Y115.822 E235.23115
G1 X100.551 Y117.236 E235.31581
G1 X134.449 Y83.339 E238.18579
G1 X134.449 Y84.753 E238.27044
G1 X100.551 Y118.651 E241.14047
G1 X100.551 Y120.066 E241.22518
G1 X134.448 Y86.168 E244.09516
G1 X134.448 Y87.582 E244.17982
G1 X100.551 Y121.48 E247.0498
G1 X100.551 Y122.894 E247.13445
G1 X134.448 Y88.997 E250.00439
G1 X134.448 Y90.411 E250.08905
G1 X100.551 Y124.308 E252.95899
G1 X100.551 Y125.722 E253.04364
G1 X134.448 Y91.825 E255.91358
G1 X134.448 Y93.239 E255.99823
G1 X100.551 Y127.137 E258.86821
G1 X100.551 Y128.551 E258.95287
G1 X134.448 Y94.654 E261.82281
G1 X134.448 Y96.068 E261.90746
G1 X100.551 Y129.965 E264.7774
G1 X100.551 Y131.379 E264.86205
G1 X134.448 Y97.482 E267.73199
G1 X134.448 Y98.896 E267.81665
G1 X100.551 Y132.793 E270.68659
G1 X100.551 Y134.208 E270.7713
G1 X134.448 Y100.31 E273.64128
G1 X134.448 Y101.725 E273.726
G1 X100.551 Y135.622 E276.59594
G1 X100.551 Y137.036 E276.68059
G1 X134.448 Y103.139 E279.55053
G1 X134.448 Y104.553 E279.63518
G1 X100.551 Y138.45 E282.50512
G1 X100.551 Y139.865 E282.58984
G1 X134.448 Y105.967 E285.45982
G1 X134.447 Y107.382 E285.54453
G1 X100.551 Y141.279 E288.41443
G1 X100.551 Y142.693 E288.49908
G1 X134.447 Y108.796 E291.36898
G1 X134.447 Y110.211 E291.45369
G1 X100.551 Y144.107 E294.32355
G1 X100.55 Y145.522 E294.40826
G1 X134.447 Y111.625 E297.2782
G1 X134.447 Y113.039 E297.36286
G1 X100.55 Y146.936 E300.2328
G1 X100.55 Y148.351 E300.31751
G1 X134.447 Y114.453 E303.18749
G1 X134.447 Y115.867 E303.27215
G1 X100.55 Y149.765 E306.14213
G1 X100.55 Y151.179 E306.22678
G1 X134.447 Y117.282 E309.09672
G1 X134.447 Y118.696 E309.18138
G1 X100.55 Y152.593 E312.05131
G1 X100.55 Y154.007 E312.13597
G1 X134.447 Y120.11 E315.00591
G1 X134.447 Y121.524 E315.09056
G1 X100.55 Y155.422 E317.96054
G1 X100.55 Y156.836 E318.0452
G1 X134.447 Y122.938 E320.91518
G1 X134.447 Y124.353 E320.99989
G1 X100.55 Y158.25 E323.86983
G1 X100.55 Y159.664 E323.95449
G1 X134.447 Y125.767 E326.82443
G1 X134.447 Y127.181 E326.90908
G1 X100.55 Y161.078 E329.77902
G1 X100.55 Y162.493 E329.86373
G1 X134.447 Y128.596 E332.73367
G1 X134.447 Y130.01 E332.81833
G1 X100.55 Y163.907 E335.68827
G1 X100.55 Y165.321 E335.77292
G1 X134.447 Y131.424 E338.64286
G1 X134.447 Y132.839 E338.72757
G1 X100.55 Y166.735 E341.59747
G1 X100.55 Y168.149 E341.68212
G1 X134.447 Y134.253 E344.55202
G1 X134.447 Y135.667 E344.63668
G1 X100.55 Y169.564 E347.50662
G1 X100.55 Y170.978 E347.59127
G1 X134.447 Y137.081 E350.46121
G1 X134.447 Y138.496 E350.54592
G1 X100.577 Y172.365 E353.41353
G1 X100.638 Y173.026 E353.45327
G1 X100.748 Y173.608 E353.48873
G1 X134.447 Y139.91 E356.34187
G1 X134.447 Y141.324 E356.42652
G1 X101.049 Y174.722 E359.25421
G1 X101.3 Y175.383 E359.29654
G1 X101.464 Y175.721 E359.31903
G1 X134.447 Y142.738 E362.11159
G1 X134.447 Y144.152 E362.19624
G1 X101.949 Y176.65 E364.94773
G1 X102.547 Y177.466 E365.0083
G1 X134.447 Y145.567 E367.70912
G1 X134.447 Y146.981 E367.79377
G1 X103.213 Y178.214 E370.4382
G1 X103.712 Y178.689 E370.47945
G1 X103.957 Y178.885 E370.49823
G1 X134.447 Y148.395 E373.07971
G1 X134.447 Y149.809 E373.16437
G1 X104.778 Y179.478 E375.67634
G1 X105.04 Y179.649 E375.69507
G1 X105.678 Y179.992 E375.73843
G1 X134.446 Y151.224 E378.17412
G1 X134.446 Y152.638 E378.25877
G1 X106.673 Y180.411 E380.61021
G1 X107.311 Y180.618 E380.65037
G1 X107.775 Y180.724 E380.67887
G1 X134.446 Y154.053 E382.93701
G1 X134.446 Y155.467 E383.02166
G1 X108.999 Y180.914 E385.17617
G1 X109.842 Y180.949 E385.22668
G1 X110.378 Y180.949 E385.25877
G1 X134.446 Y156.881 E387.29652
G1 X134.446 Y158.295 E387.38118
G1 X111.792 Y180.949 E389.29921
G1 X113.207 Y180.949 E389.38392
G1 X134.446 Y159.709 E391.1822
G1 X134.446 Y161.124 E391.26691
G1 X114.621 Y180.949 E392.94542
G1 X116.035 Y180.949 E393.03008
G1 X134.446 Y162.538 E394.58887
G1 X134.446 Y163.952 E394.67353
G1 X117.449 Y180.949 E396.1126
G1 X118.863 Y180.949 E396.19726
G1 X134.446 Y165.366 E397.51661
G1 X134.446 Y166.781 E397.60133
G1 X120.278 Y180.949 E398.80088
G1 X121.692 Y180.949 E398.88554
G1 X134.446 Y168.195 E399.96537
G1 X134.446 Y169.609 E400.05003
G1 X123.106 Y180.949 E401.01014
G1 X124.52 Y180.949 E401.0948
G1 X134.446 Y171.023 E401.9352
G1 X134.446 Y171.78 E401.98052
G1 X134.414 Y172.469 E402.02181
G1 X125.971 Y180.913 E402.73669
G1 X126.535 Y180.859 E402.77061
G1 X127.214 Y180.731 E402.81198
G1 X127.672 Y180.626 E402.84011
G1 X134.123 Y174.175 E403.38629
G1 X133.86 Y174.984 E403.43722
G1 X133.553 Y175.708 E403.4843
G1 X133.148 Y176.464 E403.53565
G1 X132.712 Y177.13 E403.5833
G1 X132.197 Y177.78 E403.63295
G1 X131.623 Y178.383 E403.68279
G1 X131.008 Y178.923 E403.73179
G1 X130.349 Y179.404 E403.78064
G1 X130.245 Y179.467 E403.78792
G1 X132.96 Y176.752 E404.01779
G1 F2700 E399.01779
