;FLAVOR:Marlin
;TIME:3558
;Filament used: 1.4135m
;Layer height: 0.12
;MINX:97.536
;MINY:88.961
;MINZ:0.144
;MAXX:137.553
;MAXY:146.039
;MAXZ:16.674
;Generated with Cura_SteamEngine 5.2.1
M140 S60
M105
M190 S60
M104 S200
M105
M109 S200
M82 ;absolute extrusion mode
; Ender 3 Custom Start G-code
G92 E0 ; Reset Extruder
G28 ; Home all axes
G1 Z2.0 F3000 ; Move Z Axis up little to prevent scratching of Heat Bed
G1 X0.1 Y20 Z0.3 F5000.0 ; Move to start position
G1 X0.1 Y200.0 Z0.3 F1500.0 E15 ; Draw the first line
G1 X0.4 Y200.0 Z0.3 F5000.0 ; Move to side a little
G1 X0.4 Y20 Z0.3 F1500.0 E30 ; Draw the second line
G92 E0 ; Reset Extruder
G1 Z2.0 F3000 ; Move Z Axis up little to prevent scratching of Heat Bed
G1 X5 Y20 Z0.3 F5000.0 ; Move over to prevent blob squish
G92 E0
G92 E0
G1 F2700 E-5
;LAYER_COUNT:133
;LAYER:-6
M107
G0 F9000 X100.429 Y93.991 Z0.144
;TYPE:SUPPORT-INTERFACE
G1 F2700 E0
G1 F1125 X99.954 Y94.711 E0.04131
G1 X99.544 Y95.475 E0.08284
G1 X99.214 Y96.247 E0.12305
G1 X98.95 Y97.062 E0.16408
G1 X98.756 Y97.908 E0.20565
G1 X98.638 Y98.767 E0.24718
G1 X98.6 Y99.7 E0.2919
G1 X98.601 Y131.307 E1.80571
G1 X98.655 Y132.397 E1.85798
G1 X98.785 Y133.241 E1.89888
G1 X98.986 Y134.061 E1.93931
G1 X99.266 Y134.883 E1.9809
G1 X99.615 Y135.668 E2.02205
G1 X100.021 Y136.4 E2.06214
G1 X100.517 Y137.129 E2.10437
G1 X101.061 Y137.791 E2.14541
G1 X101.666 Y138.406 E2.18673
G1 X102.327 Y138.968 E2.22828
G1 X103.024 Y139.459 E2.26911
G1 X103.776 Y139.892 E2.31068
G1 X104.481 Y140.222 E2.34796
G1 X114.297 Y144.269 E2.85648
G1 X115.356 Y144.629 E2.91005
G1 X116.181 Y144.819 E2.9506
G1 X117.044 Y144.937 E2.99232
G1 X117.976 Y144.975 E3.03699
G1 X123.908 Y144.974 E3.3211
G1 X124.448 Y144.955 E3.34698
G1 X125.243 Y144.88 E3.38523
G1 X126.096 Y144.719 E3.4268
G1 X126.905 Y144.492 E3.46704
G1 X127.706 Y144.186 E3.50811
G1 X128.482 Y143.809 E3.54943
G1 X129.217 Y143.367 E3.59051
G1 X129.914 Y142.857 E3.63187
G1 X130.553 Y142.294 E3.67266
G1 X131.141 Y141.677 E3.71348
G1 X131.673 Y141.007 E3.75446
G1 X132.138 Y140.302 E3.79491
G1 X132.555 Y139.525 E3.83714
G1 X132.888 Y138.752 E3.87745
G1 X133.148 Y137.941 E3.91824
G1 X133.344 Y137.092 E3.95998
G1 X133.461 Y136.232 E4.00154
G1 X133.5 Y135.297 E4.04637
G1 X133.501 Y124.083 E4.58346
G1 X133.577 Y123.203 E4.62576
G1 X133.73 Y122.547 E4.65802
G1 X133.971 Y121.912 E4.69055
G1 X134.289 Y121.306 E4.72333
G1 X134.552 Y120.92 E4.7457
G1 X134.567 Y120.917 E4.74643
G1 X135.145 Y120.039 E4.79678
G1 X135.556 Y119.275 E4.83833
G1 X135.855 Y118.575 E4.87478
G1 X136.151 Y117.683 E4.9198
G1 X136.344 Y116.843 E4.96108
G1 X136.462 Y115.981 E5.00275
G1 X136.5 Y115.049 E5.04742
G1 X136.5 Y99.631 E5.78586
G1 X136.48 Y99.076 E5.81246
G1 X136.405 Y98.284 E5.85056
G1 X136.245 Y97.432 E5.89208
G1 X136.017 Y96.62 E5.93248
G1 X135.715 Y95.828 E5.97307
G1 X135.333 Y95.043 E6.01488
G1 X134.891 Y94.306 E6.05604
G1 X134.379 Y93.609 E6.09747
G1 X133.812 Y92.964 E6.1386
G1 X133.201 Y92.385 E6.17891
G1 X132.533 Y91.853 E6.21981
G1 X131.813 Y91.379 E6.2611
G1 X131.052 Y90.969 E6.3025
G1 X130.344 Y90.668 E6.33935
G1 X129.458 Y90.374 E6.38406
G1 X128.618 Y90.181 E6.42534
G1 X127.756 Y90.063 E6.46701
G1 X126.824 Y90.025 E6.51168
G1 X123.917 Y90.025 E6.65091
G1 X123.561 Y90.033 E6.66797
G1 X123.027 Y90.025 E6.69354
G1 X108.192 Y90.025 E7.40406
G1 X107.652 Y90.045 E7.42994
G1 X106.857 Y90.12 E7.46819
G1 X106.004 Y90.281 E7.50976
G1 X105.195 Y90.508 E7.55001
G1 X104.394 Y90.814 E7.59107
G1 X103.618 Y91.191 E7.63239
G1 X102.881 Y91.634 E7.67358
G1 X102.184 Y92.145 E7.71497
G1 X101.539 Y92.713 E7.75613
G1 X100.96 Y93.324 E7.79645
G1 X100.429 Y93.991 E7.83728
G0 F9000 X100.868 Y94.08
G1 F1125 X133.099 Y126.311 E10.02039
G0 F9000 X133.101 Y124.05
G1 F1125 X101.942 Y92.891 E12.13089
G0 F9000 X103.214 Y91.9
G1 F1125 X133.456 Y122.142 E14.17928
G0 F9000 X134.248 Y120.672
G1 F1125 X104.7 Y91.124 E16.18066
G0 F9000 X106.444 Y90.605
G1 F1125 X135.106 Y119.266 E18.12199
G0 F9000 X135.743 Y117.641
G1 F1125 X108.527 Y90.425 E19.96542
G0 F9000 X110.79 Y90.425
G1 F1125 X136.072 Y115.707 E21.67785
G0 F9000 X136.098 Y113.471
G1 F1125 X113.052 Y90.425 E23.23883
G0 F9000 X115.315 Y90.425
G1 F1125 X136.098 Y111.208 E24.64652
G0 F9000 X136.098 Y108.946
G1 F1125 X117.578 Y90.425 E25.90098
G0 F9000 X119.841 Y90.425
G1 F1125 X136.098 Y106.683 E27.00215
G0 F9000 X136.098 Y104.42
G1 F1125 X122.103 Y90.425 E27.95008
G0 F9000 X124.366 Y90.425
G1 F1125 X136.098 Y102.157 E28.74472
G0 F9000 X136.098 Y99.895
G1 F1125 X126.629 Y90.425 E29.38612
G0 F9000 X129.189 Y90.723
G1 F1125 X135.8 Y97.333 E29.83387
G1 F2700 E24.83387
G0 F9000 X137.313 Y97.344
G0 X137.553 Y99.177
G0 X137.528 Y115.952
G0 X137.399 Y116.915
G0 X134.565 Y128.573
G0 X133.099 Y128.573
G1 F2700 E29.83387
G1 F1125 X99.998 Y95.472 E32.07591
G0 F9000 X99.359 Y97.096
G1 F1125 X133.1 Y130.837 E34.36129
G0 F9000 X133.1 Y133.1
G1 F1125 X99.027 Y99.027 E36.66916
G0 F9000 X98.999 Y101.262
G1 F1125 X133.097 Y135.36 E38.97873
G0 F9000 X132.864 Y137.39
G1 F1125 X98.999 Y103.525 E41.27252
G0 F9000 X98.999 Y105.788
G1 F1125 X132.305 Y139.093 E43.5284
G0 F9000 X131.496 Y140.547
G1 F1125 X98.999 Y108.05 E45.72953
G0 F9000 X98.999 Y110.313
G1 F1125 X130.478 Y141.791 E47.86167
G0 F9000 X129.261 Y142.837
G1 F1125 X98.999 Y112.576 E49.91138
G0 F9000 X98.999 Y114.839
G1 F1125 X127.837 Y143.676 E51.86463
G0 F9000 X126.176 Y144.278
G1 F1125 X99 Y117.102 E53.70535
G0 F9000 X99 Y119.365
G1 F1125 X124.198 Y144.563 E55.41209
G0 F9000 X121.946 Y144.573
G1 F1125 X99 Y121.628 E56.96626
G0 F9000 X99 Y123.89
G1 F1125 X119.683 Y144.573 E58.36719
G0 F9000 X117.397 Y144.55
G1 F1125 X99 Y126.153 E59.61327
G0 F9000 X99 Y128.416
G1 F1125 X114.497 Y143.913 E60.66293
G0 F9000 X110.655 Y142.334
G1 F1125 X99 Y130.678 E61.4524
G0 F9000 X99.168 Y133.11
G1 F1125 X106.807 Y140.748 E61.96978
G1 F2700 E56.96978
G0 F300 X106.807 Y140.748 Z0.324
G0 F9000 X106.248 Y142.106
G0 X113.931 Y145.269
G0 X115.213 Y145.69
G0 X116.827 Y145.981
G0 X117.96 Y146.039
G0 X124.526 Y146.017
G0 X126.181 Y145.788
G0 X126.849 Y145.602
G0 X128.256 Y145.103
G0 X128.279 Y143.464
;TIME_ELAPSED:79.547858
;LAYER:-5
;TYPE:SUPPORT
G1 F2700 E61.96978
G1 F1125 X128.998 Y143.03 E62.02006
G1 X129.662 Y142.544 E62.06932
G1 X130.271 Y142.008 E62.11789
G1 X130.852 Y141.398 E62.16832
G1 X131.275 Y140.866 E62.20902
G1 X131.422 Y140.659 E62.22422
G1 X131.797 Y140.09 E62.26501
G1 X132.207 Y139.321 E62.31719
G1 X127.863 Y143.665 E62.68498
G1 X127.528 Y143.826 E62.70723
G1 X126.775 Y144.111 E62.75543
G1 X126.108 Y144.299 E62.79692
G1 X125.734 Y144.38 E62.81983
G1 X132.926 Y137.188 E63.42875
G1 X133.061 Y136.209 E63.48792
G1 X133.085 Y135.614 E63.52357
G1 X124.126 Y144.574 E64.28214
G1 X122.712 Y144.574 E64.36679
G1 X133.099 Y134.186 E65.24626
G1 X133.099 Y132.772 E65.33092
G1 X121.297 Y144.574 E66.33015
G1 X119.883 Y144.574 E66.4148
G1 X133.099 Y131.358 E67.53376
G1 X133.099 Y129.944 E67.61841
G1 X118.469 Y144.574 E68.85708
G1 X117.992 Y144.574 E68.88564
G1 X117.092 Y144.536 E68.93957
G1 X133.098 Y128.53 E70.29474
G1 X133.098 Y127.116 E70.37939
G1 X115.875 Y144.339 E71.8376
G1 X115.46 Y144.245 E71.86308
G1 X114.786 Y144.014 E71.90573
G1 X133.098 Y125.702 E73.45615
G1 X133.098 Y124.288 E73.5408
G1 X113.768 Y143.618 E75.1774
G1 X112.767 Y143.205 E75.24223
G1 X133.286 Y122.685 E76.97954
G1 X133.346 Y122.429 E76.99529
G1 X133.605 Y121.741 E77.0393
G1 X133.79 Y121.389 E77.0631
G1 X133.74 Y121.355 E77.06672
G1 X134.406 Y120.433 E77.13482
G1 X134.805 Y119.827 E77.17826
G1 X134.891 Y119.667 E77.18913
G1 X111.765 Y142.793 E79.14713
G1 X110.764 Y142.38 E79.21196
G1 X135.823 Y117.32 E81.33366
G1 X135.949 Y116.763 E81.36784
G1 X136.061 Y115.961 E81.41633
G1 X136.073 Y115.656 E81.4346
G1 X109.762 Y141.967 E83.66226
G1 X108.76 Y141.555 E83.72712
G1 X136.098 Y114.216 E86.04177
G1 X136.098 Y112.802 E86.12643
G1 X107.758 Y141.142 E88.52588
G1 X106.756 Y140.73 E88.59074
G1 X136.098 Y111.388 E91.07502
G1 X136.098 Y109.974 E91.15967
G1 X105.755 Y140.317 E93.72871
G1 X104.754 Y139.904 E93.79354
G1 X136.098 Y108.559 E96.44737
G1 X136.098 Y107.145 E96.53202
G1 X103.798 Y139.446 E99.26679
G1 X103.245 Y139.125 E99.30507
G1 X102.928 Y138.901 E99.32831
G1 X136.098 Y105.731 E102.1367
G1 X136.098 Y104.317 E102.22135
G1 X102.135 Y138.281 E105.09692
G1 X101.938 Y138.114 E105.11238
G1 X101.418 Y137.583 E105.15688
G1 X136.098 Y102.903 E108.09311
G1 X136.098 Y101.488 E108.17782
G1 X100.78 Y136.807 E111.16812
G1 X100.375 Y136.212 E111.21121
G1 X100.227 Y135.946 E111.22943
G1 X136.098 Y100.074 E114.26654
G1 X136.098 Y99.624 E114.29349
G1 X136.079 Y99.086 E114.32571
G1 X136.044 Y98.714 E114.34808
G1 X99.756 Y135.002 E117.42046
G1 X99.639 Y134.739 E117.43769
G1 X99.374 Y133.97 E117.48639
G1 X135.844 Y97.5 E120.57418
G1 X135.634 Y96.742 E120.62127
G1 X135.511 Y96.419 E120.64196
G1 X99.122 Y132.808 E123.72289
G1 X99.051 Y132.349 E123.75069
G1 X99.009 Y131.507 E123.80116
G1 X135.095 Y95.421 E126.85644
G1 X134.563 Y94.538 E126.91816
G1 X98.999 Y130.102 E129.92924
G1 X98.999 Y128.688 E130.01389
G1 X133.955 Y93.732 E132.97349
G1 X133.529 Y93.246 E133.01218
G1 X133.271 Y93.002 E133.03344
G1 X98.999 Y127.274 E135.93513
G1 X98.999 Y125.86 E136.01978
G1 X132.512 Y92.347 E138.85721
G1 X132.183 Y92.102 E138.88177
G1 X131.677 Y91.768 E138.91807
G1 X98.999 Y124.445 E141.68476
G1 X98.999 Y123.031 E141.76941
G1 X130.753 Y91.277 E144.45791
G1 X130.131 Y91.013 E144.49836
G1 X129.733 Y90.883 E144.52343
G1 X98.999 Y121.617 E147.12557
G1 X98.999 Y120.203 E147.21022
G1 X128.617 Y90.585 E149.71788
G1 X127.734 Y90.462 E149.77125
G1 X127.342 Y90.446 E149.79474
G1 X98.999 Y118.788 E152.1944
G1 X98.999 Y117.374 E152.27905
G1 X125.949 Y90.425 E154.56077
G1 X124.534 Y90.425 E154.64548
G1 X98.999 Y115.96 E156.80744
G1 X98.999 Y114.546 E156.8921
G1 X123.12 Y90.426 E158.93429
G1 X121.707 Y90.424 E159.01889
G1 X98.999 Y113.132 E160.94149
G1 X98.999 Y111.717 E161.02621
G1 X120.293 Y90.424 E162.82905
G1 X118.878 Y90.424 E162.91377
G1 X98.999 Y110.303 E164.59685
G1 X98.999 Y108.889 E164.68151
G1 X117.464 Y90.424 E166.24487
G1 X116.05 Y90.424 E166.32953
G1 X98.999 Y107.475 E167.77317
G1 X98.999 Y106.061 E167.85783
G1 X114.636 Y90.424 E169.18176
G1 X113.221 Y90.424 E169.26647
G1 X98.999 Y104.646 E170.4706
G1 X98.999 Y103.232 E170.55525
G1 X111.807 Y90.424 E171.63966
G1 X110.393 Y90.424 E171.72431
G1 X98.999 Y101.818 E172.689
G1 X98.999 Y100.404 E172.77366
G1 X108.979 Y90.424 E173.61863
G1 X108.206 Y90.425 E173.66491
G1 X107.541 Y90.448 E173.70474
G1 X99.031 Y98.958 E174.42525
G1 X99.037 Y98.788 E174.43544
G1 X99.148 Y97.983 E174.48409
G1 X99.313 Y97.262 E174.52837
G1 X105.832 Y90.743 E175.08031
G1 X105.322 Y90.887 E175.11204
G1 X104.568 Y91.174 E175.16034
G1 X103.82 Y91.534 E175.21004
G1 X103.33 Y91.831 E175.24434
G1 X100.396 Y94.765 E175.49275
G1 X100.675 Y94.34 E175.52319
G1 X100.824 Y94.133 E175.53846
G1 X101.246 Y93.601 E175.57911
G1 X101.826 Y92.99 E175.62955
G1 X102.442 Y92.449 E175.67863
G1 X103.1 Y91.97 E175.72735
G1 F2700 E170.72735
G0 F300 X103.1 Y91.97 Z0.444
G0 F9000 X102.407 Y90.677
G0 X103.844 Y89.897
G0 X104.99 Y89.46
G0 X106.589 Y89.087
G0 X108.174 Y88.961
G0 X127.727 Y88.997
G0 X128.917 Y89.157
G0 X130.513 Y89.596
G0 X131.617 Y90.066
G0 X133.029 Y90.905
G0 X132.507 Y92.343
;TIME_ELAPSED:183.323109
;LAYER:-4
;TYPE:SUPPORT-INTERFACE
G1 F2700 E175.72735
G1 F1500 X134.193 Y94.029 E175.77494
G1 X134.075 Y93.867 E175.77894
G1 X133.529 Y93.246 E175.79544
G1 X132.938 Y92.685 E175.8117
G1 X132.39 Y92.251 E175.82565
G1 X132.183 Y92.102 E175.83074
G1 X131.608 Y91.723 E175.84448
G1 X130.991 Y91.393 E175.85845
G1 X135.125 Y95.527 E175.97512
G1 X135.348 Y95.987 E175.98532
G1 X135.548 Y96.516 E175.9966
G1 X130.004 Y90.972 E176.15307
G1 X129.338 Y90.755 E176.16705
G1 X129.188 Y90.721 E176.17011
G1 X135.802 Y97.336 E176.35679
G1 X135.881 Y97.659 E176.36343
G1 X135.956 Y98.055 E176.37147
G1 X128.465 Y90.564 E176.58288
G1 X127.808 Y90.473 E176.59612
G1 X136.044 Y98.709 E176.82856
G1 X136.102 Y99.332 E176.84104
G1 X127.212 Y90.442 E177.09194
G1 X126.621 Y90.417 E177.10374
G1 X136.099 Y99.895 E177.37123
G1 X136.099 Y100.461 E177.38253
G1 X126.063 Y90.425 E177.66576
G1 X125.498 Y90.425 E177.67704
G1 X136.099 Y101.027 E177.97624
G1 X136.099 Y101.592 E177.98751
G1 X124.932 Y90.425 E178.30267
G1 X124.366 Y90.425 E178.31396
G1 X136.099 Y102.158 E178.64509
G1 X136.099 Y102.724 E178.65639
G1 X123.803 Y90.428 E179.00341
G1 X123.238 Y90.428 E179.01468
G1 X136.099 Y103.289 E179.37765
G1 X136.099 Y103.855 E179.38894
G1 X122.669 Y90.425 E179.76797
G1 X122.103 Y90.425 E179.77926
G1 X136.099 Y104.421 E180.17426
G1 X136.099 Y104.986 E180.18554
G1 X121.538 Y90.425 E180.59648
G1 X120.972 Y90.425 E180.60777
G1 X136.099 Y105.552 E181.03469
G1 X136.099 Y106.118 E181.04599
G1 X120.406 Y90.425 E181.48888
G1 X119.841 Y90.425 E181.50015
G1 X136.099 Y106.684 E181.959
G1 X136.099 Y107.249 E181.97028
G1 X119.275 Y90.425 E182.44509
G1 X118.709 Y90.425 E182.45638
G1 X136.099 Y107.815 E182.94716
G1 X136.099 Y108.381 E182.95846
G1 X118.144 Y90.425 E183.4652
G1 X117.578 Y90.425 E183.4765
G1 X136.099 Y108.946 E183.9992
G1 X136.099 Y109.512 E184.0105
G1 X117.012 Y90.425 E184.54917
G1 X116.447 Y90.425 E184.56045
G1 X136.099 Y110.078 E185.11508
G1 X136.099 Y110.643 E185.12636
G1 X115.881 Y90.425 E185.69695
G1 X115.315 Y90.425 E185.70825
G1 X136.099 Y111.209 E186.29482
G1 X136.099 Y111.775 E186.30611
G1 X114.749 Y90.425 E186.90866
G1 X114.184 Y90.425 E186.91993
G1 X136.099 Y112.34 E187.53842
G1 X136.099 Y112.906 E187.54972
G1 X113.618 Y90.425 E188.18418
G1 X113.052 Y90.425 E188.19547
G1 X136.099 Y113.472 E188.84591
G1 X136.099 Y114.037 E188.85718
G1 X112.487 Y90.425 E189.52357
G1 X111.921 Y90.425 E189.53486
G1 X136.099 Y114.603 E190.21722
G1 X136.094 Y115.164 E190.22841
G1 X111.355 Y90.425 E190.9266
G1 X110.79 Y90.425 E190.93788
G1 X136.072 Y115.707 E191.65139
G1 X136.061 Y115.961 E191.65646
G1 X136.024 Y116.225 E191.66178
G1 X110.224 Y90.425 E192.38991
G1 X109.658 Y90.425 E192.40121
G1 X135.956 Y116.722 E193.14338
G1 X135.854 Y117.186 E193.15286
G1 X109.093 Y90.425 E193.90811
G1 X108.527 Y90.425 E193.91941
G1 X135.743 Y117.641 E194.6875
G1 X135.605 Y118.069 E194.69648
G1 X107.97 Y90.434 E195.4764
G1 X107.422 Y90.451 E195.48734
G1 X135.456 Y118.486 E196.27853
G1 X135.288 Y118.883 E196.28714
G1 X106.92 Y90.515 E197.08774
G1 X106.442 Y90.603 E197.09744
G1 X135.106 Y119.266 E197.90639
G1 X134.908 Y119.635 E197.91474
G1 X105.976 Y90.702 E198.73128
G1 X105.535 Y90.827 E198.74043
G1 X134.698 Y119.991 E199.56349
G1 X134.474 Y120.331 E199.57161
G1 X105.11 Y90.968 E200.40031
G1 X104.701 Y91.124 E200.40905
G1 X134.24 Y120.664 E201.24272
G1 X134.003 Y120.992 E201.25079
G1 X104.31 Y91.299 E202.08879
G1 X103.928 Y91.483 E202.09725
G1 X133.766 Y121.321 E202.93935
G1 X133.74 Y121.355 E202.9402
G1 X133.79 Y121.389 E202.94141
G1 X133.611 Y121.731 E202.94911
G1 X103.567 Y91.688 E203.797
G1 X103.214 Y91.901 E203.80523
G1 X133.455 Y122.142 E204.6587
G1 X133.299 Y122.551 E204.66743
G1 X102.879 Y92.131 E205.52595
G1 X102.552 Y92.37 E205.53403
G1 X133.208 Y123.025 E206.3992
G1 X133.178 Y123.151 E206.40178
G1 X133.146 Y123.53 E206.40937
G1 X102.241 Y92.625 E207.28158
G1 X101.94 Y92.889 E207.28957
G1 X133.101 Y124.05 E208.169
G1 X133.099 Y124.614 E208.18026
G1 X101.655 Y93.169 E209.06769
G1 X101.379 Y93.459 E209.07568
G1 X133.099 Y125.179 E209.97088
G1 X133.099 Y125.745 E209.98218
G1 X101.116 Y93.763 E210.88479
G1 X100.867 Y94.079 E210.89282
G1 X133.099 Y126.311 E211.80248
G1 X133.099 Y126.876 E211.81375
G1 X100.63 Y94.407 E212.7301
G1 X100.406 Y94.749 E212.73826
G1 X133.099 Y127.442 E213.66093
G1 X133.099 Y128.008 E213.67222
G1 X100.194 Y95.103 E214.60087
G1 X99.998 Y95.472 E214.60921
G1 X133.099 Y128.573 E215.54339
G1 X133.099 Y129.139 E215.55469
G1 X99.814 Y95.854 E216.49406
G1 X99.645 Y96.251 E216.50267
G1 X133.1 Y129.706 E217.44684
G1 X133.1 Y130.271 E217.45812
G1 X99.496 Y96.668 E218.40648
G1 X99.359 Y97.096 E218.41545
G1 X133.1 Y130.837 E219.36769
G1 X133.1 Y131.403 E219.37899
G1 X99.246 Y97.549 E220.33442
G1 X99.144 Y98.012 E220.34388
G1 X133.1 Y131.968 E221.3022
