;FLAVOR:Marlin
;TIME:3554
;Filament used: 1.41376m
;Layer height: 0.12
;MINX:98.601
;MINY:88.966
;MINZ:0.144
;MAXX:137.565
;MAXY:146.039
;MAXZ:16.674
;Generated with Cura_SteamEngine 5.2.1
M140 S60
M105
M190 S60
M104 S200
M105
M109 S200
M82 ;absolute extrusion mode
; Ender 3 Custom Start G-code
G92 E0 ; Reset Extruder
G28 ; Home all axes
G1 Z2.0 F3000 ; Move Z Axis up little to prevent scratching of Heat Bed
G1 X0.1 Y20 Z0.3 F5000.0 ; Move to start position
G1 X0.1 Y200.0 Z0.3 F1500.0 E15 ; Draw the first line
G1 X0.4 Y200.0 Z0.3 F5000.0 ; Move to side a little
G1 X0.4 Y20 Z0.3 F1500.0 E30 ; Draw the second line
G92 E0 ; Reset Extruder
G1 Z2.0 F3000 ; Move Z Axis up little to prevent scratching of Heat Bed
G1 X5 Y20 Z0.3 F5000.0 ; Move over to prevent blob squish
G92 E0
G92 E0
G1 F2700 E-5
;LAYER_COUNT:133
;LAYER:-6
M107
G0 F9000 X100.429 Y97.991 Z0.144
;TYPE:SUPPORT-INTERFACE
G1 F2700 E0
G1 F1125 X99.954 Y98.711 E0.04131
G1 X99.544 Y99.475 E0.08284
G1 X99.216 Y100.245 E0.12293
G1 X98.947 Y101.074 E0.16467
G1 X98.756 Y101.909 E0.20569
G1 X98.638 Y102.768 E0.24722
G1 X98.601 Y103.701 E0.29194
G1 X98.601 Y135.369 E1.80867
G1 X98.62 Y135.923 E1.83522
G1 X98.695 Y136.716 E1.87337
G1 X98.856 Y137.57 E1.91499
G1 X99.086 Y138.389 E1.95573
G1 X99.391 Y139.185 E1.99656
G1 X99.77 Y139.964 E2.03805
G1 X100.203 Y140.686 E2.07837
G1 X100.721 Y141.392 E2.12031
G1 X101.287 Y142.035 E2.16134
G1 X101.899 Y142.615 E2.20172
G1 X102.566 Y143.146 E2.24255
G1 X103.287 Y143.622 E2.28393
G1 X104.051 Y144.032 E2.32546
G1 X104.756 Y144.332 E2.36216
G1 X105.642 Y144.626 E2.40687
G1 X106.482 Y144.819 E2.44815
G1 X107.344 Y144.937 E2.48982
G1 X108.276 Y144.975 E2.53449
G1 X123.084 Y144.975 E3.24371
G1 X123.44 Y144.967 E3.26077
G1 X123.973 Y144.975 E3.2863
G1 X126.908 Y144.974 E3.42687
G1 X127.448 Y144.955 E3.45275
G1 X128.243 Y144.88 E3.491
G1 X129.096 Y144.719 E3.53257
G1 X129.905 Y144.492 E3.57281
G1 X130.706 Y144.186 E3.61388
G1 X131.482 Y143.809 E3.6552
G1 X132.219 Y143.366 E3.69639
G1 X132.916 Y142.854 E3.73781
G1 X133.561 Y142.287 E3.77894
G1 X134.14 Y141.676 E3.81925
G1 X134.677 Y141.002 E3.86053
G1 X135.146 Y140.288 E3.90144
G1 X135.557 Y139.524 E3.94299
G1 X135.885 Y138.753 E3.98312
G1 X136.15 Y137.938 E4.02417
G1 X136.344 Y137.092 E4.06574
G1 X136.462 Y136.232 E4.10731
G1 X136.5 Y135.291 E4.15242
G1 X136.5 Y119.883 E4.89038
G1 X136.48 Y119.326 E4.91707
G1 X136.405 Y118.533 E4.95522
G1 X136.273 Y117.825 E4.98972
G1 X136.217 Y117.578 E5.00185
G1 X136.014 Y116.855 E5.03781
G1 X135.707 Y116.061 E5.07859
G1 X135.33 Y115.286 E5.11986
G1 X134.891 Y114.558 E5.16058
G1 X134.541 Y114.079 E5.18899
G1 X134.164 Y113.485 E5.22269
G1 X133.887 Y112.899 E5.25373
G1 X133.664 Y112.217 E5.2881
G1 X133.545 Y111.59 E5.31866
G1 X133.5 Y110.917 E5.35097
G1 X133.5 Y99.631 E5.89151
G1 X133.48 Y99.076 E5.91811
G1 X133.405 Y98.284 E5.95621
G1 X133.245 Y97.432 E5.99773
G1 X133.017 Y96.621 E6.03808
G1 X132.714 Y95.824 E6.07891
G1 X132.334 Y95.043 E6.12051
G1 X131.891 Y94.306 E6.1617
G1 X131.38 Y93.609 E6.20309
G1 X130.812 Y92.964 E6.24425
G1 X130.201 Y92.385 E6.28457
G1 X129.533 Y91.853 E6.32547
G1 X128.813 Y91.379 E6.36675
G1 X128.049 Y90.968 E6.4083
G1 X127.344 Y90.668 E6.445
G1 X126.458 Y90.374 E6.48971
G1 X125.618 Y90.181 E6.53099
G1 X124.756 Y90.063 E6.57266
G1 X123.825 Y90.026 E6.61728
G1 X117.841 Y90.029 E6.90389
G1 X116.732 Y90.098 E6.9571
G1 X115.888 Y90.24 E6.9981
G1 X115.033 Y90.464 E7.04043
G1 X114.271 Y90.74 E7.07924
G1 X104.619 Y94.719 E7.57926
G1 X103.625 Y95.187 E7.63188
G1 X102.881 Y95.635 E7.67348
G1 X102.184 Y96.146 E7.71487
G1 X101.539 Y96.713 E7.756
G1 X100.96 Y97.324 E7.79632
G1 X100.429 Y97.991 E7.83715
G0 F9000 X100.646 Y98.384
G1 F1125 X136.099 Y133.836 E10.23846
G0 F9000 X136.068 Y136.068
G1 F1125 X99.827 Y99.827 E12.69318
G0 F9000 X99.255 Y101.517
G1 F1125 X135.715 Y137.978 E15.16277
G0 F9000 X135.066 Y139.592
G1 F1125 X99.007 Y103.533 E17.60516
G0 F9000 X99 Y105.788
G1 F1125 X134.186 Y140.975 E19.98845
G0 F9000 X133.103 Y142.154
G1 F1125 X99 Y108.051 E22.29835
G0 F9000 X99 Y110.314
G1 F1125 X131.822 Y143.136 E24.52149
G0 F9000 X130.326 Y143.902
G1 F1125 X99 Y112.577 E26.64327
G0 F9000 X99 Y114.839
G1 F1125 X128.571 Y144.41 E28.64621
G0 F9000 X126.47 Y144.572
G1 F1125 X99 Y117.102 E30.50684
G0 F9000 X99 Y119.365
G1 F1125 X124.208 Y144.573 E32.21426
G0 F9000 X121.946 Y144.573
G1 F1125 X99 Y121.628 E33.76843
G0 F9000 X99 Y123.89
G1 F1125 X119.683 Y144.573 E35.16935
G0 F9000 X117.42 Y144.573
G1 F1125 X99 Y126.153 E36.417
G0 F9000 X99 Y128.416
G1 F1125 X115.157 Y144.573 E37.51136
G0 F9000 X112.895 Y144.573
G1 F1125 X99 Y130.678 E38.45252
G0 F9000 X99 Y132.941
G1 F1125 X110.632 Y144.573 E39.24039
G0 F9000 X108.369 Y144.573
G1 F1125 X99 Y135.204 E39.87498
G0 F9000 X99.337 Y137.803
G1 F1125 X105.778 Y144.245 E40.31128
G1 F2700 E35.31128
G0 F9000 X105.499 Y145.686
G0 X107.127 Y145.981
G0 X108.26 Y146.039
G0 X127.526 Y146.017
G0 X129.181 Y145.788
G0 X130.361 Y145.457
G0 X131.881 Y144.8
G0 X132.912 Y144.177
G0 X134.19 Y143.154
G0 X135.029 Y142.27
G0 X135.997 Y140.932
G0 X136.565 Y139.873
G0 X137.144 Y138.324
G0 X137.41 Y137.151
G0 X137.535 Y135.657
G0 X137.565 Y131.574
G0 X136.099 Y131.574
G1 F2700 E40.31128
G1 F1125 X101.674 Y97.149 E42.643
G0 F9000 X102.903 Y96.114
G1 F1125 X136.099 Y129.311 E44.8915
G0 F9000 X136.099 Y127.048
G1 F1125 X104.342 Y95.291 E47.04251
G0 F9000 X105.926 Y94.613
G1 F1125 X136.099 Y124.785 E49.08619
G0 F9000 X136.099 Y122.523
G1 F1125 X107.528 Y93.951 E51.02142
G0 F9000 X109.13 Y93.291
G1 F1125 X136.099 Y120.26 E52.84812
G0 F9000 X135.849 Y117.747
G1 F1125 X110.732 Y92.63 E54.54938
G0 F9000 X112.335 Y91.97
G1 F1125 X133.609 Y113.244 E55.99033
G0 F9000 X133.1 Y110.472
G1 F1125 X113.937 Y91.31 E57.28827
G0 F9000 X115.615 Y90.725
G1 F1125 X133.1 Y108.209 E58.47255
G0 F9000 X133.1 Y105.947
G1 F1125 X117.598 Y90.445 E59.52255
G0 F9000 X119.843 Y90.428
G1 F1125 X133.1 Y103.684 E60.42045
G0 F9000 X133.1 Y101.421
G1 F1125 X122.105 Y90.426 E61.16518
G0 F9000 X124.389 Y90.448
G1 F1125 X133.081 Y99.14 E61.75392
G0 F9000 X132.444 Y96.24
G1 F1125 X127.28 Y91.076 E62.10369
G1 F2700 E57.10369
G0 F300 X127.28 Y91.076 Z0.324
G0 F9000 X127.513 Y89.596
G0 X125.917 Y89.157
G0 X124.727 Y88.997
G0 X117.799 Y88.966
G0 X116.452 Y89.064
G0 X114.849 Y89.41
G0 X113.795 Y89.782
G0 X104.057 Y93.802
G0 X102.997 Y94.322
G0 X101.635 Y95.227
G0 X100.717 Y96.032
G0 X99.851 Y97.029
G0 X98.979 Y98.277
G0 X100.076 Y99.327
;TIME_ELAPSED:80.030903
;LAYER:-5
;TYPE:SUPPORT
G1 F2700 E62.10369
G1 F1125 X103.91 Y95.493 E62.4283
G1 X103.811 Y95.54 E62.43486
G1 X103.106 Y95.964 E62.48412
G1 X102.448 Y96.445 E62.53291
G1 X101.819 Y96.995 E62.58293
G1 X101.246 Y97.6 E62.63282
G1 X100.824 Y98.132 E62.67348
G1 X100.676 Y98.34 E62.68876
G1 X100.293 Y98.921 E62.73042
G1 X99.898 Y99.661 E62.78064
G1 X99.589 Y100.387 E62.82788
G1 X99.328 Y101.192 E62.87854
G1 X99.241 Y101.576 E62.90211
G1 X106.405 Y94.412 E63.50866
G1 X108.811 Y93.42 E63.66447
G1 X99.021 Y103.211 E64.4934
G1 X98.999 Y103.717 E64.52372
G1 X98.999 Y104.646 E64.57934
G1 X111.217 Y92.428 E65.61379
G1 X113.624 Y91.436 E65.76965
G1 X98.999 Y106.061 E67.0079
G1 X98.999 Y107.475 E67.09255
G1 X115.82 Y90.654 E68.51673
G1 X116.761 Y90.496 E68.57385
G1 X117.434 Y90.454 E68.61422
G1 X98.999 Y108.889 E70.17505
G1 X98.999 Y110.303 E70.2597
G1 X118.875 Y90.427 E71.94253
G1 X120.29 Y90.426 E72.02725
G1 X98.999 Y111.717 E73.82988
G1 X98.999 Y113.132 E73.91459
G1 X121.705 Y90.426 E75.83703
G1 X123.121 Y90.424 E75.9218
G1 X98.999 Y114.546 E77.96413
G1 X98.999 Y115.96 E78.04878
G1 X124.527 Y90.433 E80.21011
G1 X125.768 Y90.606 E80.28512
G1 X98.999 Y117.374 E82.55152
G1 X98.999 Y118.788 E82.63617
G1 X126.863 Y90.925 E84.99527
G1 X127.127 Y91.011 E85.0119
G1 X127.873 Y91.329 E85.06045
G1 X98.999 Y120.203 E87.50511
G1 X98.999 Y121.617 E87.58976
G1 X128.781 Y91.835 E90.1113
G1 X129.184 Y92.102 E90.14024
G1 X129.391 Y92.251 E90.15551
G1 X129.608 Y92.423 E90.17209
G1 X98.999 Y123.031 E92.7636
G1 X98.999 Y124.445 E92.84825
G1 X130.374 Y93.071 E95.50462
G1 X131.035 Y93.824 E95.56461
G1 X98.999 Y125.86 E98.27698
G1 X98.999 Y127.274 E98.36164
G1 X131.627 Y94.646 E101.12414
G1 X131.982 Y95.235 E101.16531
G1 X132.136 Y95.552 E101.18641
G1 X98.999 Y128.688 E103.99196
G1 X98.999 Y130.102 E104.07661
G1 X132.575 Y96.527 E106.91933
G1 X132.885 Y97.63 E106.98792
G1 X98.999 Y131.516 E109.85693
G1 X98.999 Y132.931 E109.94165
G1 X133.072 Y98.858 E112.82649
G1 X133.099 Y99.624 E112.87237
G1 X133.099 Y100.245 E112.90955
G1 X98.999 Y134.345 E115.79668
G1 X98.999 Y135.374 E115.85828
G1 X99.013 Y135.746 E115.88057
G1 X133.099 Y101.66 E118.76651
G1 X133.099 Y103.074 E118.85117
G1 X99.157 Y137.016 E121.72492
G1 X99.217 Y137.339 E121.74458
G1 X99.275 Y137.588 E121.75989
G1 X99.434 Y138.153 E121.79503
G1 X133.099 Y104.488 E124.64533
G1 X133.099 Y105.902 E124.72998
G1 X99.83 Y139.172 E127.54679
G1 X100.115 Y139.763 E127.58607
G1 X100.317 Y140.098 E127.60949
G1 X133.099 Y107.316 E130.38503
G1 X133.099 Y108.731 E130.46974
G1 X100.872 Y140.957 E133.19825
G1 X101.534 Y141.709 E133.25823
G1 X133.099 Y110.145 E135.93068
G1 X133.099 Y110.917 E135.9769
G1 X133.136 Y111.522 E136.01319
G1 X102.263 Y142.395 E138.6271
G1 X102.707 Y142.748 E138.66106
G1 X103.072 Y143.001 E138.68764
G1 X133.392 Y112.68 E141.25478
G1 X133.51 Y113.04 E141.27746
G1 X133.811 Y113.675 E141.31953
G1 X103.96 Y143.527 E143.84695
G1 X104.236 Y143.674 E143.86567
G1 X104.931 Y143.97 E143.91089
G1 X134.372 Y114.528 E146.4036
G1 X134.56 Y114.783 E146.42257
G1 X134.925 Y115.39 E146.46497
G1 X106.014 Y144.301 E148.91277
G1 X106.558 Y144.425 E148.94617
G1 X107.214 Y144.515 E148.98581
G1 X135.387 Y116.342 E151.37112
G1 X135.634 Y116.992 E151.41275
G1 X135.748 Y117.395 E151.43782
G1 X108.569 Y144.574 E153.73897
G1 X109.984 Y144.574 E153.82369
G1 X136.002 Y118.555 E156.02658
G1 X136.079 Y119.336 E156.07357
G1 X136.098 Y119.874 E156.10579
G1 X111.398 Y144.574 E158.19706
G1 X112.812 Y144.574 E158.28171
G1 X136.098 Y121.287 E160.2533
G1 X136.098 Y122.702 E160.33801
G1 X114.226 Y144.574 E162.18984
G1 X115.64 Y144.574 E162.27449
G1 X136.098 Y124.116 E164.0066
G1 X136.098 Y125.53 E164.09125
G1 X117.055 Y144.574 E165.7036
G1 X118.469 Y144.574 E165.78825
G1 X136.098 Y126.944 E167.28088
G1 X136.098 Y128.358 E167.36553
G1 X119.883 Y144.574 E168.73844
G1 X121.297 Y144.574 E168.82309
G1 X136.098 Y129.773 E170.07624
G1 X136.098 Y131.187 E170.1609
G1 X122.712 Y144.574 E171.29428
G1 X123.426 Y144.566 E171.33703
G1 X124.126 Y144.574 E171.37894
G1 X136.098 Y132.601 E172.39261
G1 X136.098 Y134.015 E172.47727
G1 X125.54 Y144.574 E173.37122
G1 X126.956 Y144.572 E173.45599
G1 X136.092 Y135.436 E174.2295
G1 X136.062 Y136.21 E174.27588
G1 X135.954 Y136.988 E174.3229
G1 X128.522 Y144.42 E174.95214
G1 X128.865 Y144.356 E174.97303
G1 X129.109 Y144.3 E174.98802
G1 X129.776 Y144.111 E175.02952
G1 X130.533 Y143.824 E175.07799
G1 X135.334 Y139.022 E175.48452
G1 X135.202 Y139.333 E175.50474
G1 X134.798 Y140.089 E175.55606
G1 X134.361 Y140.755 E175.60375
G1 X133.846 Y141.405 E175.6534
G1 X133.274 Y142.008 E175.70316
G1 X132.658 Y142.548 E175.7522
G1 X131.998 Y143.029 E175.80109
G1 X131.279 Y143.464 E175.8514
G1 F2700 E170.8514
G0 F300 X131.279 Y143.464 Z0.444
G0 F9000 X131.881 Y144.8
G0 X130.361 Y145.457
G0 X129.181 Y145.788
G0 X127.348 Y146.028
G0 X107.373 Y146.003
G0 X106.183 Y145.843
G0 X104.587 Y145.404
G0 X103.475 Y144.93
G0 X102.339 Y144.255
G0 X101.114 Y143.339
G0 X101.925 Y142.089
;TIME_ELAPSED:183.761594
;LAYER:-4
;TYPE:SUPPORT-INTERFACE
G1 F2700 E175.8514
G1 F1500 X101.448 Y141.612 E175.86487
G1 X101.573 Y141.753 E175.86863
G1 X102.162 Y142.314 E175.88486
G1 X102.707 Y142.748 E175.89876
G1 X102.915 Y142.897 E175.90387
G1 X103.49 Y143.274 E175.91759
G1 X103.891 Y143.489 E175.92667
G1 X100.069 Y139.667 E176.03453
G1 X99.75 Y139.008 E176.04915
G1 X99.61 Y138.643 E176.05695
G1 X104.943 Y143.975 E176.20744
G1 X105.781 Y144.247 E176.22502
G1 X99.322 Y137.789 E176.4073
G1 X99.217 Y137.339 E176.41652
G1 X99.166 Y137.067 E176.42204
G1 X106.513 Y144.414 E176.62939
G1 X107.174 Y144.509 E176.64272
G1 X99.064 Y136.4 E176.87158
G1 X99.014 Y135.783 E176.88394
G1 X107.783 Y144.553 E177.13143
G1 X108.37 Y144.574 E177.14315
G1 X98.999 Y135.203 E177.40762
G1 X98.999 Y134.638 E177.4189
G1 X108.936 Y144.574 E177.69933
G1 X109.501 Y144.574 E177.7106
G1 X98.999 Y134.072 E178.00699
G1 X98.999 Y133.506 E178.01829
G1 X110.067 Y144.574 E178.33065
G1 X110.633 Y144.574 E178.34194
G1 X98.999 Y132.941 E178.67027
G1 X98.999 Y132.375 E178.68156
G1 X111.198 Y144.574 E179.02584
G1 X111.764 Y144.574 E179.03714
G1 X98.999 Y131.809 E179.3974
G1 X98.999 Y131.243 E179.40869
G1 X112.33 Y144.574 E179.78492
G1 X112.895 Y144.574 E179.7962
G1 X98.999 Y130.678 E180.18837
G1 X98.999 Y130.112 E180.19967
G1 X113.461 Y144.574 E180.60781
G1 X114.027 Y144.574 E180.61911
G1 X98.999 Y129.546 E181.04323
G1 X98.999 Y128.981 E181.05451
G1 X114.593 Y144.574 E181.49459
G1 X115.158 Y144.574 E181.50586
G1 X98.999 Y128.415 E181.96191
G1 X98.999 Y127.849 E181.9732
G1 X115.724 Y144.574 E182.44522
G1 X116.29 Y144.574 E182.45651
G1 X98.999 Y127.284 E182.94449
G1 X98.999 Y126.718 E182.95578
G1 X116.855 Y144.574 E183.45972
G1 X117.421 Y144.574 E183.47101
G1 X98.999 Y126.152 E183.99092
G1 X98.999 Y125.587 E184.0022
G1 X117.987 Y144.574 E184.53806
G1 X118.552 Y144.574 E184.54934
G1 X98.999 Y125.021 E185.10117
G1 X98.999 Y124.455 E185.11246
G1 X119.118 Y144.574 E185.68026
G1 X119.684 Y144.574 E185.69156
G1 X98.999 Y123.89 E186.27532
G1 X98.999 Y123.324 E186.28662
G1 X120.249 Y144.574 E186.88634
G1 X120.815 Y144.574 E186.89763
G1 X98.999 Y122.758 E187.51333
G1 X98.999 Y122.193 E187.5246
G1 X121.381 Y144.574 E188.15626
G1 X121.946 Y144.574 E188.16753
G1 X98.999 Y121.627 E188.81515
G1 X98.999 Y121.061 E188.82644
G1 X122.512 Y144.574 E189.49003
G1 X123.077 Y144.573 E189.5013
G1 X98.999 Y120.495 E190.18084
G1 X98.999 Y119.93 E190.19211
G1 X123.639 Y144.569 E190.88749
G1 X124.209 Y144.574 E190.89887
G1 X98.999 Y119.364 E191.61035
G1 X98.999 Y118.798 E191.62164
G1 X124.775 Y144.574 E192.3491
G1 X125.341 Y144.574 E192.36039
G1 X98.999 Y118.233 E193.10381
G1 X98.999 Y117.667 E193.1151
G1 X125.906 Y144.574 E193.87448
G1 X126.472 Y144.574 E193.88577
G1 X98.999 Y117.101 E194.66112
G1 X98.999 Y116.536 E194.67239
G1 X127.033 Y144.569 E195.46356
G1 X127.581 Y144.551 E195.4745
G1 X98.999 Y115.97 E196.28113
G1 X98.999 Y115.404 E196.29243
G1 X128.095 Y144.5 E197.11358
G1 X128.571 Y144.411 E197.12324
G1 X98.999 Y114.839 E197.95783
G1 X98.999 Y114.273 E197.96912
G1 X129.042 Y144.315 E198.81699
G1 X129.486 Y144.193 E198.82618
G1 X98.999 Y113.707 E199.68657
G1 X98.999 Y113.142 E199.69785
G1 X129.916 Y144.058 E200.57038
G1 X130.326 Y143.902 E200.57913
G1 X98.999 Y112.576 E201.46323
G1 X98.999 Y112.01 E201.47453
G1 X130.721 Y143.732 E202.36979
G1 X131.103 Y143.548 E202.37825
G1 X98.999 Y111.444 E203.2843
G1 X98.999 Y110.879 E203.29557
G1 X131.469 Y143.348 E204.21193
G1 X131.821 Y143.135 E204.22014
G1 X98.999 Y110.313 E205.14645
G1 X98.999 Y109.747 E205.15775
G1 X132.161 Y142.909 E206.09365
G1 X132.489 Y142.671 E206.10174
G1 X98.999 Y109.182 E207.04688
G1 X98.999 Y108.616 E207.05818
G1 X132.803 Y142.42 E208.0122
G1 X133.105 Y142.156 E208.0202
G1 X98.999 Y108.05 E208.98275
G1 X98.999 Y107.485 E208.99402
G1 X133.395 Y141.88 E209.96474
G1 X133.671 Y141.591 E209.97271
G1 X98.999 Y106.919 E210.95123
G1 X98.999 Y106.353 E210.96253
G1 X133.938 Y141.291 E211.94857
G1 X134.187 Y140.975 E211.9566
G1 X98.999 Y105.788 E212.94966
G1 X98.999 Y105.222 E212.96096
G1 X134.429 Y140.652 E213.96087
G1 X134.653 Y140.31 E213.96903
G1 X98.999 Y104.656 E214.97526
G1 X98.999 Y104.091 E214.98654
G1 X134.868 Y139.959 E215.99882
G1 X135.065 Y139.59 E216.00717
G1 X99.006 Y103.532 E217.02482
G1 X99.029 Y102.989 E217.03567
G1 X135.253 Y139.213 E218.05799
G1 X135.422 Y138.817 E218.06658
G1 X99.08 Y102.474 E219.09224
G1 X99.149 Y101.978 E219.10224
G1 X135.577 Y138.405 E220.1303
G1 X135.715 Y137.978 E220.13925
G1 X99.254 Y101.517 E221.16826
G1 X99.359 Y101.056 E221.1777
G1 X135.834 Y137.531 E222.2071
