;FLAVOR:Marlin
;TIME:6517
;Filament used: 2.48994m
;Layer height: 0.12
;MINX:99.085
;MINY:91.336
;MINZ:0.144
;MAXX:135.663
;MAXY:143.664
;MAXZ:20.754
;Generated with Cura_SteamEngine 5.2.1
M140 S60
M105
M190 S60
M104 S200
M105
M109 S200
M82 ;absolute extrusion mode
; Ender 3 Custom Start G-code
G92 E0 ; Reset Extruder
G28 ; Home all axes
G1 Z2.0 F3000 ; Move Z Axis up little to prevent scratching of Heat Bed
G1 X0.1 Y20 Z0.3 F5000.0 ; Move to start position
G1 X0.1 Y200.0 Z0.3 F1500.0 E15 ; Draw the first line
G1 X0.4 Y200.0 Z0.3 F5000.0 ; Move to side a little
G1 X0.4 Y20 Z0.3 F1500.0 E30 ; Draw the second line
G92 E0 ; Reset Extruder
G1 Z2.0 F3000 ; Move Z Axis up little to prevent scratching of Heat Bed
G1 X5 Y20 Z0.3 F5000.0 ; Move over to prevent blob squish
G92 E0
G92 E0
G1 F2700 E-5
;LAYER_COUNT:167
;LAYER:-6
M107
G0 F9000 X101.979 Y96.366 Z0.144
;TYPE:SUPPORT-INTERFACE
G1 F2700 E0
G1 F1125 X101.504 Y97.086 E0.04131
G1 X101.094 Y97.85 E0.08284
G1 X100.766 Y98.62 E0.12293
G1 X100.498 Y99.449 E0.16465
G1 X100.306 Y100.284 E0.20569
G1 X100.188 Y101.143 E0.24722
G1 X100.15 Y102.076 E0.29194
G1 X100.151 Y132.994 E1.77274
G1 X100.17 Y133.548 E1.79929
G1 X100.245 Y134.341 E1.83744
G1 X100.406 Y135.195 E1.87907
G1 X100.636 Y136.014 E1.91981
G1 X100.941 Y136.81 E1.96064
G1 X101.32 Y137.589 E2.00213
G1 X101.753 Y138.311 E2.04245
G1 X102.271 Y139.017 E2.08439
G1 X102.837 Y139.66 E2.12542
G1 X103.449 Y140.24 E2.1658
G1 X104.116 Y140.771 E2.20663
G1 X104.837 Y141.247 E2.24801
G1 X105.601 Y141.657 E2.28954
G1 X106.306 Y141.957 E2.32623
G1 X107.192 Y142.251 E2.37094
G1 X108.032 Y142.444 E2.41222
G1 X108.894 Y142.562 E2.45389
G1 X109.826 Y142.6 E2.49857
G1 X125.258 Y142.6 E3.23768
G1 X125.798 Y142.58 E3.26356
G1 X126.593 Y142.505 E3.3018
G1 X127.446 Y142.344 E3.34338
G1 X128.255 Y142.117 E3.38362
G1 X129.056 Y141.811 E3.42469
G1 X129.832 Y141.434 E3.46601
G1 X130.569 Y140.991 E3.50719
G1 X131.266 Y140.479 E3.54862
G1 X131.911 Y139.912 E3.58975
G1 X132.49 Y139.301 E3.63006
G1 X133.027 Y138.627 E3.67134
G1 X133.496 Y137.913 E3.71225
G1 X133.907 Y137.149 E3.7538
G1 X134.205 Y136.45 E3.7902
G1 X134.501 Y135.558 E3.83521
G1 X134.694 Y134.719 E3.87644
G1 X134.811 Y133.86 E3.91796
G1 X134.847 Y133.058 E3.95641
G1 X134.849 Y102.006 E5.44364
G1 X134.83 Y101.451 E5.47023
G1 X134.755 Y100.659 E5.50833
G1 X134.595 Y99.807 E5.54985
G1 X134.367 Y98.995 E5.59025
G1 X134.065 Y98.203 E5.63085
G1 X133.683 Y97.418 E5.67266
G1 X133.241 Y96.681 E5.71382
G1 X132.729 Y95.984 E5.75524
G1 X132.162 Y95.339 E5.79637
G1 X131.551 Y94.76 E5.83669
G1 X130.883 Y94.228 E5.87759
G1 X130.163 Y93.754 E5.91887
G1 X129.402 Y93.344 E5.96027
G1 X128.694 Y93.043 E5.99712
G1 X127.808 Y92.749 E6.04183
G1 X126.968 Y92.556 E6.08311
G1 X126.106 Y92.438 E6.12478
G1 X125.174 Y92.401 E6.16945
G1 X109.742 Y92.4 E6.90856
G1 X109.202 Y92.42 E6.93444
G1 X108.407 Y92.495 E6.97269
G1 X107.554 Y92.656 E7.01426
G1 X106.745 Y92.883 E7.05451
G1 X105.944 Y93.189 E7.09557
G1 X105.168 Y93.566 E7.13689
G1 X104.431 Y94.009 E7.17808
G1 X103.734 Y94.52 E7.21947
G1 X103.089 Y95.088 E7.26063
G1 X102.51 Y95.699 E7.30095
G1 X101.979 Y96.366 E7.34178
G0 F9000 X102.783 Y95.995
G1 F1125 X134.447 Y127.658 E9.48645
G0 F9000 X134.447 Y125.396
G1 F1125 X103.93 Y94.879 E11.55347
G0 F9000 X105.279 Y93.966
G1 F1125 X134.447 Y123.133 E13.52907
G0 F9000 X134.447 Y120.87
G1 F1125 X106.848 Y93.272 E15.39841
G0 F9000 X108.707 Y92.867
G1 F1125 X134.447 Y118.607 E17.14186
G0 F9000 X134.447 Y116.345
G1 F1125 X110.902 Y92.8 E18.73664
G0 F9000 X113.165 Y92.8
G1 F1125 X134.447 Y114.083 E20.17817
G0 F9000 X134.447 Y111.82
G1 F1125 X115.428 Y92.8 E21.46642
G0 F9000 X117.69 Y92.8
G1 F1125 X134.447 Y109.557 E22.60143
G0 F9000 X134.447 Y107.294
G1 F1125 X119.953 Y92.8 E23.58315
G0 F9000 X122.216 Y92.8
G1 F1125 X134.447 Y105.032 E24.41163
G0 F9000 X134.447 Y102.769
G1 F1125 X124.479 Y92.8 E25.08683
G0 F9000 X126.891 Y92.949
G1 F1125 X134.288 Y100.347 E25.58788
G1 F2700 E20.58788
G0 F9000 X135.663 Y99.719
G0 X135.332 Y98.539
G0 X134.675 Y97.019
G0 X134.499 Y96.728
G0 X133.648 Y95.435
G0 X132.253 Y96.049
G1 F2700 E25.58788
G1 F1125 X131.183 Y94.979 E25.66036
G1 F2700 E20.66036
G0 F9000 X131.611 Y93.446
G0 X130.598 Y92.779
G0 X129.101 Y92.059
G0 X127.951 Y91.689
G0 X126.323 Y91.394
G0 X125.19 Y91.336
G0 X109.124 Y91.358
G0 X107.469 Y91.587
G0 X106.289 Y91.918
G0 X104.769 Y92.575
G0 X103.738 Y93.198
G0 X102.46 Y94.221
G0 X101.621 Y95.105
G0 X100.653 Y96.443
G0 X101.836 Y97.31
G1 F2700 E25.66036
G1 F1125 X134.447 Y129.921 E27.86921
G0 F9000 X134.447 Y132.184
G1 F1125 X101.111 Y98.848 E30.12716
G0 F9000 X100.658 Y100.658
G1 F1125 X134.341 Y134.341 E32.40862
G0 F9000 X133.885 Y136.147
G1 F1125 X100.549 Y102.812 E34.66654
G0 F9000 X100.549 Y105.075
G1 F1125 X133.162 Y137.687 E36.87548
G0 F9000 X132.215 Y139.003
G1 F1125 X100.549 Y107.338 E39.02029
G0 F9000 X100.549 Y109.6
G1 F1125 X131.067 Y140.118 E41.08737
G0 F9000 X129.72 Y141.033
G1 F1125 X100.549 Y111.863 E43.06318
G0 F9000 X100.549 Y114.126
G1 F1125 X128.151 Y141.727 E44.93272
G0 F9000 X126.292 Y142.131
G1 F1125 X100.549 Y116.389 E46.67634
G0 F9000 X100.55 Y118.652
G1 F1125 X124.097 Y142.199 E48.27125
G0 F9000 X121.834 Y142.199
G1 F1125 X100.55 Y120.915 E49.71289
G0 F9000 X100.55 Y123.178
G1 F1125 X119.571 Y142.199 E51.00124
G0 F9000 X117.309 Y142.199
G1 F1125 X100.55 Y125.44 E52.13638
G0 F9000 X100.55 Y127.703
G1 F1125 X115.046 Y142.199 E53.11824
G0 F9000 X112.783 Y142.199
G1 F1125 X100.55 Y129.966 E53.94682
G0 F9000 X100.55 Y132.228
G1 F1125 X110.52 Y142.199 E54.62215
G0 F9000 X108.108 Y142.049
G1 F1125 X100.71 Y134.651 E55.12324
G1 F2700 E50.12324
G0 F9000 X99.337 Y135.281
G0 X99.668 Y136.461
G0 X100.325 Y137.981
G0 X100.501 Y138.272
G0 X101.346 Y139.558
G0 X102.738 Y138.942
G1 F2700 E55.12324
G1 F1125 X103.816 Y140.019 E55.19623
G1 F2700 E50.19623
G0 F300 X103.816 Y140.019 Z0.324
G0 F9000 X102.904 Y141.168
G0 X104.193 Y142.097
G0 X105.252 Y142.665
G0 X106.801 Y143.244
G0 X107.974 Y143.51
G0 X109.661 Y143.661
G0 X125.876 Y143.642
G0 X127.531 Y143.413
G0 X128.711 Y143.082
G0 X130.231 Y142.425
G0 X131.262 Y141.802
G0 X132.54 Y140.779
G0 X133.379 Y139.895
G0 X134.347 Y138.557
G0 X134.507 Y138.258
G0 X135.191 Y136.851
G0 X133.846 Y136.267
;TIME_ELAPSED:73.349614
;LAYER:-5
;TYPE:SUPPORT
G1 F2700 E55.19623
G1 F1125 X128.532 Y141.582 E55.64619
G1 X128.878 Y141.451 E55.66834
G1 X129.628 Y141.089 E55.71819
G1 X130.348 Y140.654 E55.76856
G1 X131.009 Y140.173 E55.8175
G1 X131.624 Y139.633 E55.86649
G1 X132.197 Y139.03 E55.91629
G1 X132.711 Y138.38 E55.96591
G1 X133.148 Y137.713 E56.01364
G1 X133.552 Y136.958 E56.06491
G1 X133.86 Y136.235 E56.11196
G1 X134.121 Y135.428 E56.16274
G1 X134.301 Y134.635 E56.21142
G1 X134.338 Y134.361 E56.22797
G1 X126.596 Y142.103 E56.88346
G1 X125.772 Y142.181 E56.93301
G1 X125.087 Y142.199 E56.97404
G1 X134.449 Y132.837 E57.76668
G1 X134.449 Y131.422 E57.8514
G1 X123.672 Y142.199 E58.76385
G1 X122.258 Y142.199 E58.8485
G1 X134.449 Y130.008 E59.88067
G1 X134.449 Y128.594 E59.96532
G1 X120.844 Y142.199 E61.11721
G1 X119.43 Y142.199 E61.20187
G1 X134.449 Y127.18 E62.47347
G1 X134.449 Y125.766 E62.55812
G1 X118.016 Y142.199 E63.94945
G1 X116.601 Y142.199 E64.03416
G1 X134.449 Y124.351 E65.54529
G1 X134.449 Y122.937 E65.62994
G1 X115.187 Y142.199 E67.26079
G1 X113.773 Y142.199 E67.34544
G1 X134.449 Y121.523 E69.09601
G1 X134.449 Y120.109 E69.18066
G1 X112.359 Y142.199 E71.05094
G1 X110.945 Y142.199 E71.1356
G1 X134.449 Y118.694 E73.12564
G1 X134.449 Y117.28 E73.21029
G1 X109.542 Y142.187 E75.31908
G1 X108.914 Y142.16 E75.35671
G1 X108.246 Y142.069 E75.39708
G1 X134.449 Y115.866 E77.61559
G1 X134.449 Y114.452 E77.70025
G1 X107.1 Y141.801 E80.01579
G1 X106.517 Y141.611 E80.0525
G1 X106.067 Y141.419 E80.08179
G1 X134.449 Y113.038 E82.48475
G1 X134.449 Y111.623 E82.56946
G1 X105.12 Y140.952 E85.05265
G1 X104.267 Y140.391 E85.11377
G1 X134.449 Y110.209 E87.66917
G1 X134.449 Y108.795 E87.75383
G1 X103.502 Y139.741 E90.37396
G1 X103.123 Y139.379 E90.40534
G1 X102.809 Y139.021 E90.43384
G1 X134.449 Y107.381 E93.11269
G1 X134.449 Y105.967 E93.19735
G1 X102.177 Y138.238 E95.92966
G1 X101.649 Y137.352 E95.99141
G1 X134.449 Y104.552 E98.76847
G1 X134.449 Y103.138 E98.85312
G1 X101.205 Y136.382 E101.66778
G1 X101.012 Y135.874 E101.70031
G1 X100.856 Y135.317 E101.73494
G1 X134.439 Y101.734 E104.57829
G1 X134.43 Y101.462 E104.59459
G1 X134.358 Y100.716 E104.63946
G1 X134.308 Y100.45 E104.65566
G1 X100.626 Y134.133 E107.50744
G1 X100.568 Y133.519 E107.54436
G1 X100.542 Y132.802 E107.58731
G1 X134.051 Y99.293 E110.4244
G1 X133.662 Y98.268 E110.49004
G1 X100.549 Y131.381 E113.2936
G1 X100.549 Y129.966 E113.37831
G1 X133.172 Y97.344 E116.14035
G1 X132.911 Y96.909 E116.17072
G1 X132.607 Y96.494 E116.20152
G1 X100.549 Y128.552 E118.91575
G1 X100.549 Y127.138 E119.00041
G1 X131.975 Y95.712 E121.66114
G1 X131.246 Y95.027 E121.72102
G1 X100.549 Y125.724 E124.32003
G1 X100.549 Y124.31 E124.40468
G1 X130.442 Y94.417 E126.93562
G1 X129.959 Y94.098 E126.97027
G1 X129.56 Y93.885 E126.99735
G1 X100.549 Y122.895 E129.45357
G1 X100.549 Y121.481 E129.53822
G1 X128.603 Y93.427 E131.91346
G1 X127.535 Y93.08 E131.98069
G1 X100.549 Y120.067 E134.26554
G1 X100.549 Y118.653 E134.35019
G1 X126.331 Y92.871 E136.53306
G1 X126.084 Y92.838 E136.54798
G1 X124.995 Y92.792 E136.61324
G1 X100.549 Y117.239 E138.68303
G1 X100.549 Y115.824 E138.76775
G1 X123.574 Y92.799 E140.71719
G1 X122.16 Y92.799 E140.80185
G1 X100.549 Y114.41 E142.63158
G1 X100.549 Y112.996 E142.71623
G1 X120.746 Y92.799 E144.42624
G1 X119.332 Y92.799 E144.51089
G1 X100.549 Y111.582 E146.10118
G1 X100.549 Y110.167 E146.1859
G1 X117.917 Y92.799 E147.65638
G1 X116.503 Y92.799 E147.74104
G1 X100.549 Y108.753 E149.09181
G1 X100.549 Y107.339 E149.17646
G1 X115.089 Y92.799 E150.40751
G1 X113.675 Y92.799 E150.49216
G1 X100.549 Y105.925 E151.6035
G1 X100.549 Y104.511 E151.68815
G1 X112.26 Y92.799 E152.67972
G1 X110.846 Y92.799 E152.76438
G1 X100.549 Y103.096 E153.63619
G1 X100.549 Y102.092 E153.69629
G1 X100.567 Y101.664 E153.72194
G1 X109.433 Y92.799 E154.47255
G1 X108.464 Y92.889 E154.53081
G1 X107.804 Y93.014 E154.57103
G1 X100.769 Y100.049 E155.16666
G1 X100.878 Y99.567 E155.19624
G1 X101.138 Y98.763 E155.24683
G1 X101.448 Y98.036 E155.29415
G1 X101.843 Y97.296 E155.34436
G1 X102.226 Y96.715 E155.38603
G1 X102.374 Y96.508 E155.40126
G1 X102.796 Y95.975 E155.44196
G1 X103.376 Y95.364 E155.4924
G1 X103.992 Y94.823 E155.54148
G1 X104.65 Y94.345 E155.59017
G1 X105.37 Y93.909 E155.64056
G1 X105.61 Y93.793 E155.65652
G1 X101.541 Y97.862 E156.00103
G1 F2700 E151.00103
G0 F300 X101.541 Y97.862 Z0.444
G0 F9000 X100.25 Y97.172
G0 X101.03 Y95.871
G0 X101.786 Y94.914
G0 X102.973 Y93.772
G0 X103.957 Y93.052
G0 X105.394 Y92.272
G0 X106.54 Y91.835
G0 X108.139 Y91.462
G0 X109.724 Y91.336
G0 X126.077 Y91.372
G0 X127.267 Y91.532
G0 X128.863 Y91.971
G0 X129.967 Y92.441
G0 X131.379 Y93.28
G0 X131.649 Y93.493
G0 X132.843 Y94.517
G0 X131.879 Y95.622
;TIME_ELAPSED:165.537929
;LAYER:-4
;TYPE:SUPPORT-INTERFACE
G1 F2700 E156.00103
G1 F1500 X131.287 Y95.059 E156.01733
G1 X131.171 Y94.967 E156.02029
G1 X132.369 Y96.165 E156.0541
G1 X132.911 Y96.909 E156.07247
G1 X133.332 Y97.611 E156.0888
G1 X133.411 Y97.773 E156.0924
G1 X129.481 Y93.843 E156.20331
G1 X129.213 Y93.7 E156.20937
G1 X128.45 Y93.377 E156.22591
G1 X133.859 Y98.787 E156.37858
G1 X133.984 Y99.117 E156.38562
G1 X134.127 Y99.62 E156.39605
G1 X127.622 Y93.116 E156.57962
G1 X126.89 Y92.949 E156.59461
G1 X134.29 Y100.349 E156.80345
G1 X134.358 Y100.716 E156.8109
G1 X134.387 Y101.012 E156.81684
G1 X126.219 Y92.844 E157.04735
G1 X125.629 Y92.819 E157.05914
G1 X134.436 Y101.626 E157.30769
G1 X134.449 Y102.205 E157.31925
G1 X125.044 Y92.799 E157.58469
G1 X124.478 Y92.799 E157.59599
G1 X134.449 Y102.77 E157.87739
G1 X134.449 Y103.336 E157.88869
G1 X123.912 Y92.799 E158.18606
G1 X123.346 Y92.799 E158.19736
G1 X134.449 Y103.902 E158.51071
G1 X134.449 Y104.467 E158.52198
G1 X122.781 Y92.799 E158.85128
G1 X122.215 Y92.799 E158.86258
G1 X134.449 Y105.033 E159.20785
G1 X134.449 Y105.599 E159.21914
G1 X121.649 Y92.799 E159.58038
G1 X121.084 Y92.799 E159.59166
G1 X134.449 Y106.165 E159.96886
G1 X134.449 Y106.73 E159.98014
G1 X120.518 Y92.799 E160.3733
G1 X119.952 Y92.799 E160.3846
G1 X134.449 Y107.296 E160.79373
G1 X134.449 Y107.862 E160.80503
G1 X119.387 Y92.799 E161.23012
G1 X118.821 Y92.799 E161.24142
G1 X134.449 Y108.427 E161.68247
G1 X134.449 Y108.993 E161.69377
G1 X118.255 Y92.799 E162.1508
G1 X117.69 Y92.799 E162.16207
G1 X134.449 Y109.559 E162.63506
G1 X134.449 Y110.124 E162.64634
G1 X117.124 Y92.799 E163.13529
G1 X116.558 Y92.799 E163.14658
G1 X134.449 Y110.69 E163.65151
G1 X134.449 Y111.256 E163.6628
G1 X115.993 Y92.799 E164.18368
G1 X115.427 Y92.799 E164.19498
G1 X134.449 Y111.821 E164.73182
G1 X134.449 Y112.387 E164.74312
G1 X114.861 Y92.799 E165.29593
G1 X114.296 Y92.799 E165.30721
G1 X134.449 Y112.953 E165.87598
G1 X134.449 Y113.518 E165.88726
G1 X113.73 Y92.799 E166.47199
G1 X113.164 Y92.799 E166.48329
G1 X134.449 Y114.084 E167.084
G1 X134.449 Y114.65 E167.09529
G1 X112.598 Y92.799 E167.71197
G1 X112.033 Y92.799 E167.72325
G1 X134.449 Y115.215 E168.35588
G1 X134.449 Y115.781 E168.36717
G1 X111.467 Y92.799 E169.01577
G1 X110.901 Y92.799 E169.02707
G1 X134.449 Y116.347 E169.69164
G1 X134.449 Y116.913 E169.70294
G1 X110.336 Y92.799 E170.38347
G1 X109.77 Y92.799 E170.39477
G1 X134.449 Y117.478 E171.09126
G1 X134.449 Y118.044 E171.10256
G1 X109.223 Y92.819 E171.81448
G1 X108.706 Y92.867 E171.82484
G1 X134.449 Y118.61 E172.55136
G1 X134.449 Y119.175 E172.56264
G1 X108.211 Y92.937 E173.30313
G1 X107.737 Y93.029 E173.31277
G1 X134.449 Y119.741 E174.06664
G1 X134.449 Y120.307 E174.07793
G1 X107.288 Y93.146 E174.84447
G1 X106.849 Y93.273 E174.85359
G1 X134.449 Y120.872 E175.63251
G1 X134.449 Y121.438 E175.64381
G1 X106.438 Y93.427 E176.43434
G1 X106.027 Y93.582 E176.4431
G1 X134.449 Y122.004 E177.24523
G1 X134.449 Y122.569 E177.25651
G1 X105.653 Y93.773 E178.06919
G1 X105.271 Y93.957 E178.07766
G1 X134.449 Y123.135 E178.90112
G1 X134.449 Y123.701 E178.91242
G1 X104.926 Y94.178 E179.74562
G1 X104.573 Y94.391 E179.75385
G1 X134.449 Y124.266 E180.597
G1 X134.449 Y124.832 E180.60829
G1 X104.252 Y94.635 E181.46052
G1 X103.924 Y94.873 E181.4686
G1 X134.449 Y125.398 E182.33009
G1 X134.449 Y125.964 E182.34138
G1 X103.628 Y95.143 E183.21122
G1 X103.33 Y95.411 E183.21921
G1 X134.449 Y126.529 E184.09745
G1 X134.449 Y127.095 E184.10874
G1 X103.055 Y95.701 E184.99475
G1 X102.781 Y95.993 E185.00274
G1 X134.449 Y127.661 E185.89648
G1 X134.449 Y128.226 E185.90775
G1 X102.531 Y96.308 E186.80855
G1 X102.286 Y96.629 E186.81661
G1 X134.449 Y128.792 E187.72432
G1 X134.449 Y129.358 E187.73561
G1 X102.058 Y96.967 E188.64976
G1 X101.835 Y97.309 E188.6579
G1 X134.449 Y129.923 E189.57834
G1 X134.449 Y130.489 E189.58964
G1 X101.638 Y97.679 E190.51562
G1 X101.442 Y98.048 E190.52396
G1 X134.449 Y131.055 E191.45549
G1 X134.449 Y131.62 E191.46676
G1 X101.273 Y98.445 E192.40305
G1 X101.105 Y98.842 E192.41165
G1 X134.449 Y132.186 E193.35269
G1 X134.449 Y132.752 E193.36398
G1 X100.972 Y99.275 E194.30878
G1 X100.834 Y99.703 E194.31775
G1 X134.433 Y133.301 E195.26597
G1 X134.41 Y133.844 E195.27682
G1 X100.726 Y100.16 E196.22745
G1 X100.656 Y100.656 E196.23745
G1 X134.341 Y134.341 E197.18811
G1 X134.273 Y134.838 E197.19812
G1 X100.588 Y101.154 E198.14877
G1 X100.565 Y101.696 E198.1596
G1 X134.163 Y135.294 E199.10781
G1 X134.027 Y135.724 E199.11681
G1 X100.549 Y102.246 E200.06163
G1 X100.549 Y102.812 E200.07292
G1 X133.893 Y136.156 E201.01396
G1 X133.725 Y136.554 E201.02258
G1 X100.549 Y103.378 E201.95888
G1 X100.549 Y103.943 E201.97016
G1 X133.556 Y136.95 E202.90169
G1 X133.36 Y137.32 E202.91004
G1 X100.549 Y104.509 E203.83604
G1 X100.549 Y105.075 E203.84734
G1 X133.163 Y137.688 E204.76776
G1 X132.941 Y138.032 E204.77593
G1 X100.549 Y105.641 E205.69009
G1 X100.549 Y106.206 E205.70136
G1 X132.716 Y138.373 E206.60918
G1 X132.467 Y138.689 E206.61721
G1 X100.549 Y106.772 E207.51799
G1 X100.549 Y107.338 E207.52929
