;FLAVOR:Marlin
;TIME:14298
;Filament used: 9.30464m
;Layer height: 0.16
;MINX:81.036
;MINY:72.835
;MINZ:0.24
;MAXX:153.864
;MAXY:162.164
;MAXZ:76.39
;Generated with Cura_SteamEngine 5.2.1
M140 S50
M105
M190 S50
M104 S200
M105
M109 S200
M82 ;absolute extrusion mode
; Ender 3 Custom Start G-code
G92 E0 ; Reset Extruder
G28 ; Home all axes
G1 Z2.0 F3000 ; Move Z Axis up little to prevent scratching of Heat Bed
G1 X0.1 Y20 Z0.3 F5000.0 ; Move to start position
G1 X0.1 Y200.0 Z0.3 F1500.0 E15 ; Draw the first line
G1 X0.4 Y200.0 Z0.3 F5000.0 ; Move to side a little
G1 X0.4 Y20 Z0.3 F1500.0 E30 ; Draw the second line
G92 E0 ; Reset Extruder
G1 Z2.0 F3000 ; Move Z Axis up little to prevent scratching of Heat Bed
G1 X5 Y20 Z0.3 F5000.0 ; Move over to prevent blob squish
G92 E0
G92 E0
G1 F2700 E-5
;LAYER_COUNT:427
;LAYER:-6
M107
G0 F9000 X95.945 Y81.848 Z0.24
;TYPE:SUPPORT-INTERFACE
G1 F2700 E0
G1 F1237.5 X95.232 Y82.877 E0.09993
G1 X94.597 Y83.932 E0.19822
G1 X93.959 Y85.175 E0.30975
G1 X93.476 Y86.291 E0.40682
G1 X92.941 Y87.751 E0.53094
G1 X92.602 Y88.558 E0.60081
G1 X83.406 Y112.485 E2.64698
G1 X83.092 Y113.366 E2.72164
G1 X82.711 Y114.682 E2.831
G1 X82.442 Y115.892 E2.92994
G1 X82.248 Y117.148 E3.03139
G1 X82.137 Y118.378 E3.12998
G1 X82.101 Y119.571 E3.22525
G1 X82.101 Y127.059 E3.82297
G1 X82.134 Y128.173 E3.91194
G1 X82.224 Y129.242 E3.99757
G1 X82.414 Y130.56 E4.10387
G1 X82.69 Y131.832 E4.20777
G1 X82.992 Y132.909 E4.29705
G1 X83.397 Y134.07 E4.39521
G1 X83.879 Y135.221 E4.49481
G1 X84.491 Y136.438 E4.60355
G1 X85.118 Y137.51 E4.70269
G1 X85.726 Y138.418 E4.78992
G1 X86.521 Y139.465 E4.89485
G1 X87.3 Y140.356 E4.98933
G1 X88.164 Y141.235 E5.08771
G1 X89.082 Y142.059 E5.18618
G1 X90.054 Y142.827 E5.28507
G1 X91.073 Y143.531 E5.38393
G1 X92.129 Y144.165 E5.48225
G1 X93.499 Y144.88 E5.60561
G1 X94.066 Y145.247 E5.65953
G1 X94.581 Y145.68 E5.71323
G1 X95.049 Y146.19 E5.76849
G1 X95.491 Y146.817 E5.82972
G1 X96.137 Y147.711 E5.91777
G1 X96.944 Y148.699 E6.0196
G1 X101.925 Y154.378 E6.62258
G1 X103.215 Y155.723 E6.77135
G1 X104.066 Y156.48 E6.86226
G1 X105.047 Y157.255 E6.96206
G1 X106.076 Y157.967 E7.06195
G1 X107.13 Y158.601 E7.16013
G1 X108.23 Y159.172 E7.25906
G1 X109.488 Y159.724 E7.36872
G1 X110.544 Y160.106 E7.45836
G1 X111.86 Y160.489 E7.56777
G1 X113.07 Y160.758 E7.66671
G1 X114.326 Y160.952 E7.76816
G1 X115.556 Y161.063 E7.86675
G1 X116.749 Y161.1 E7.96202
G1 X133.204 Y161.099 E9.27553
G1 X134.294 Y161.067 E9.36258
G1 X135.537 Y160.957 E9.46219
G1 X136.768 Y160.77 E9.56158
G1 X137.965 Y160.508 E9.65939
G1 X139.154 Y160.172 E9.75802
G1 X140.207 Y159.802 E9.84711
G1 X141.358 Y159.32 E9.94672
G1 X142.575 Y158.708 E10.05546
G1 X143.525 Y158.157 E10.14312
G1 X144.545 Y157.477 E10.24098
G1 X145.599 Y156.679 E10.34651
G1 X146.475 Y155.915 E10.43929
G1 X147.423 Y154.985 E10.5453
G1 X148.181 Y154.133 E10.63633
G1 X148.955 Y153.153 E10.73601
G1 X149.668 Y152.123 E10.83601
G1 X150.302 Y151.069 E10.93419
G1 X150.941 Y149.826 E11.04576
G1 X151.426 Y148.707 E11.14311
G1 X151.806 Y147.656 E11.23232
G1 X152.191 Y146.332 E11.34238
G1 X152.458 Y145.13 E11.44067
G1 X152.644 Y143.956 E11.53555
G1 X152.763 Y142.645 E11.64063
G1 X152.8 Y141.45 E11.73607
G1 X152.8 Y93.505 E15.56325
G1 X152.767 Y92.406 E15.65101
G1 X152.657 Y91.161 E15.75078
G1 X152.47 Y89.932 E15.85002
G1 X152.209 Y88.735 E15.94781
G1 X151.873 Y87.547 E16.04636
G1 X151.502 Y86.493 E16.13556
G1 X151.02 Y85.342 E16.23517
G1 X150.407 Y84.125 E16.34394
G1 X149.857 Y83.175 E16.43156
G1 X149.177 Y82.155 E16.52942
G1 X148.379 Y81.101 E16.63495
G1 X147.615 Y80.225 E16.72773
G1 X146.685 Y79.277 E16.83374
G1 X145.833 Y78.519 E16.92477
G1 X144.852 Y77.745 E17.02452
G1 X143.823 Y77.032 E17.12445
G1 X142.77 Y76.399 E17.22252
G1 X141.524 Y75.759 E17.33434
G1 X140.408 Y75.275 E17.43144
G1 X139.358 Y74.896 E17.52054
G1 X138.177 Y74.547 E17.61885
G1 X136.832 Y74.242 E17.72894
G1 X135.573 Y74.048 E17.83062
G1 X134.437 Y73.94 E17.92171
G1 X133.151 Y73.9 E18.02442
G1 X111.696 Y73.9 E19.73705
G1 X110.606 Y73.933 E19.82409
G1 X109.363 Y74.043 E19.9237
G1 X108.132 Y74.23 E20.02309
G1 X106.934 Y74.491 E20.12097
G1 X105.853 Y74.793 E20.21056
G1 X104.693 Y75.198 E20.30864
G1 X103.542 Y75.68 E20.40825
G1 X102.325 Y76.293 E20.51702
G1 X101.375 Y76.843 E20.60465
G1 X100.355 Y77.523 E20.7025
G1 X99.301 Y78.321 E20.80803
G1 X98.425 Y79.085 E20.90082
G1 X97.477 Y80.015 E21.00682
G1 X96.719 Y80.867 E21.09785
G1 X95.945 Y81.848 E21.1976
G0 F9000 X96.018 Y82.442
G1 F1237.5 X152.399 Y138.823 E27.56237
G0 F9000 X152.399 Y141.086
G1 F1237.5 X95.131 Y83.817 E34.02734
G0 F9000 X94.345 Y85.294
G1 F1237.5 X152.305 Y143.254 E40.57036
G0 F9000 X152.024 Y145.236
G1 F1237.5 X93.681 Y86.892 E47.15668
G0 F9000 X93.048 Y88.523
G1 F1237.5 X151.567 Y147.042 E53.76281
G0 F9000 X150.983 Y148.72
G1 F1237.5 X92.416 Y90.153 E60.37436
G0 F9000 X91.788 Y91.788
G1 F1237.5 X150.265 Y150.265 E66.97575
G0 F9000 X149.449 Y151.711
G1 F1237.5 X91.159 Y93.422 E73.55597
G0 F9000 X90.531 Y95.057
G1 F1237.5 X148.525 Y153.051 E80.10284
G0 F9000 X147.503 Y154.292
G1 F1237.5 X89.903 Y96.691 E86.60528
G0 F9000 X89.275 Y98.326
G1 F1237.5 X146.387 Y155.438 E93.05257
G0 F9000 X145.179 Y156.493
G1 F1237.5 X88.647 Y99.96 E99.43445
G0 F9000 X88.018 Y101.594
G1 F1237.5 X143.869 Y157.445 E105.7394
G0 F9000 X142.467 Y158.307
G1 F1237.5 X87.39 Y103.229 E111.95702
G0 F9000 X86.762 Y104.864
G1 F1237.5 X140.952 Y159.054 E118.07446
G0 F9000 X139.322 Y159.687
G1 F1237.5 X86.134 Y106.498 E124.07883
G0 F9000 X85.506 Y108.133
G1 F1237.5 X137.559 Y160.186 E129.95503
G0 F9000 X135.645 Y160.535
G1 F1237.5 X84.877 Y109.767 E135.68616
G0 F9000 X84.249 Y111.402
G1 F1237.5 X133.535 Y160.688 E141.24999
G0 F9000 X131.282 Y160.698
G1 F1237.5 X83.63 Y113.045 E146.62941
G0 F9000 X83.099 Y114.777
G1 F1237.5 X129.02 Y160.698 E151.81337
G0 F9000 X126.757 Y160.698
G1 F1237.5 X82.726 Y116.667 E156.78397
G0 F9000 X82.525 Y118.729
G1 F1237.5 X124.494 Y160.698 E161.52179
G0 F9000 X122.231 Y160.698
G1 F1237.5 X82.5 Y120.967 E166.00697
G0 F9000 X82.5 Y123.23
G1 F1237.5 X119.969 Y160.698 E170.23674
G0 F9000 X117.706 Y160.698
G1 F1237.5 X82.5 Y125.493 E174.21104
G0 F9000 X82.521 Y127.776
G1 F1237.5 X115.391 Y160.646 E177.92169
G0 F9000 X112.761 Y160.279
G1 F1237.5 X82.78 Y130.297 E181.30626
G0 F9000 X83.57 Y133.35
G1 F1237.5 X109.518 Y159.298 E184.2355
G1 F2700 E179.2355
G0 F9000 X108.933 Y160.645
G0 X106.775 Y159.621
G0 X105.491 Y158.858
G0 X103.548 Y157.435
G0 X102.892 Y156.85
G0 X90.489 Y144.422
G0 X90.84 Y142.883
G1 F2700 E184.2355
G1 F1237.5 X85.867 Y137.91 E184.79689
G1 F2700 E179.79689
G0 F9000 X84.65 Y138.726
G0 X83.482 Y136.815
G0 X82.456 Y134.589
G0 X81.974 Y133.218
G0 X81.388 Y130.852
G0 X81.165 Y129.353
G0 X81.036 Y127.073
G0 X81.074 Y118.322
G0 X81.216 Y116.82
G0 X81.677 Y114.426
G0 X82.408 Y112.117
G0 X92.533 Y85.783
G0 X93.579 Y83.575
G0 X94.342 Y82.291
G0 X95.765 Y80.348
G0 X96.998 Y81.158
G1 F2700 E184.79689
G1 F1237.5 X152.399 Y136.56 E191.05109
G0 F9000 X152.399 Y134.297
G1 F1237.5 X98.083 Y79.981 E197.18275
G0 F9000 X99.255 Y78.891
G1 F1237.5 X152.399 Y132.035 E203.18211
G0 F9000 X152.399 Y129.772
G1 F1237.5 X100.524 Y77.897 E209.0382
G0 F9000 X101.894 Y77.004
G1 F1237.5 X152.399 Y127.509 E214.73964
G0 F9000 X152.399 Y125.246
G1 F1237.5 X103.368 Y76.215 E220.27469
G0 F9000 X104.948 Y75.533
G1 F1237.5 X152.399 Y122.984 E225.63137
G0 F9000 X152.399 Y120.721
G1 F1237.5 X106.66 Y74.982 E230.79478
G0 F9000 X108.517 Y74.576
G1 F1237.5 X152.399 Y118.458 E235.74856
G0 F9000 X152.399 Y116.196
G1 F1237.5 X110.543 Y74.339 E240.47368
G0 F9000 X112.766 Y74.299
G1 F1237.5 X152.399 Y113.933 E244.94785
G0 F9000 X152.399 Y111.67
G1 F1237.5 X115.029 Y74.299 E249.16656
G0 F9000 X117.292 Y74.299
G1 F1237.5 X152.399 Y109.407 E253.1298
G0 F9000 X152.399 Y107.145
G1 F1237.5 X119.554 Y74.299 E256.83768
G0 F9000 X121.817 Y74.299
G1 F1237.5 X152.399 Y104.882 E260.2901
G0 F9000 X152.399 Y102.619
G1 F1237.5 X124.08 Y74.299 E263.48705
G0 F9000 X126.343 Y74.299
G1 F1237.5 X152.399 Y100.356 E266.42853
G0 F9000 X152.399 Y98.094
G1 F1237.5 X128.605 Y74.299 E269.11466
G0 F9000 X130.868 Y74.299
G1 F1237.5 X152.399 Y95.831 E271.54532
G0 F9000 X152.399 Y93.568
G1 F1237.5 X133.131 Y74.299 E273.72052
G0 F9000 X135.542 Y74.448
G1 F1237.5 X152.251 Y91.157 E275.60677
G0 F9000 X151.675 Y88.318
G1 F1237.5 X138.38 Y75.024 E277.10757
G0 F9000 X142.151 Y76.531
G1 F1237.5 X150.176 Y84.556 E278.0135
G1 F2700 E273.0135
G0 F300 X150.176 Y84.556 Z0.48
G0 F9000 X151.34 Y83.608
G0 X150.05 Y81.545
G0 X149.131 Y80.344
G0 X147.493 Y78.579
G0 X146.352 Y77.565
G0 X144.409 Y76.142
G0 X143.125 Y75.379
G0 X140.918 Y74.334
G0 X139.548 Y73.838
G0 X137.175 Y73.223
G0 X135.697 Y72.99
G0 X133.164 Y72.835
G0 X110.536 Y72.87
G0 X108.094 Y73.155
G0 X106.667 Y73.461
G0 X105.416 Y73.816
G0 X103.109 Y74.708
G0 X101.808 Y75.36
G0 X99.745 Y76.65
G0 X99.405 Y76.91
G0 X97.727 Y78.28
G0 X98.689 Y79.384
;TIME_ELAPSED:183.487408
;LAYER:-5
;TYPE:SUPPORT
G1 F2700 E278.0135
G1 F1237.5 X97.821 Y80.235 E278.11053
G1 X97.019 Y81.13 E278.20646
G1 X96.87 Y81.32 E278.22574
G1 X99.55 Y78.64 E278.52828
G1 X100.445 Y77.947 E278.61864
G1 X101.57 Y77.189 E278.72692
G1 X102.62 Y76.584 E278.82365
G1 X103.417 Y76.187 E278.89473
G1 X94.366 Y85.238 E279.91648
G1 X93.846 Y86.44 E280.02103
G1 X93.43 Y87.588 E280.1185
G1 X105.787 Y75.231 E281.51346
G1 X107.041 Y74.876 E281.6175
G1 X107.7 Y74.732 E281.67134
G1 X92.503 Y89.929 E283.38691
G1 X91.62 Y92.227 E283.58342
G1 X109.408 Y74.439 E285.59148
G1 X110.628 Y74.331 E285.68925
G1 X110.94 Y74.321 E285.71417
G1 X90.738 Y94.523 E287.99475
G1 X89.854 Y96.821 E288.19129
G1 X112.376 Y74.299 E290.73376
G1 X113.79 Y74.299 E290.84664
G1 X88.972 Y99.117 E293.64831
G1 X88.089 Y101.415 E293.84482
G1 X115.204 Y74.299 E296.90585
G1 X116.618 Y74.299 E297.01872
G1 X87.206 Y103.712 E300.33906
G1 X86.323 Y106.009 E300.5355
G1 X118.033 Y74.299 E304.1152
G1 X119.447 Y74.299 E304.22807
G1 X85.441 Y108.306 E308.06701
G1 X84.557 Y110.603 E308.26348
G1 X120.861 Y74.299 E312.36179
G1 X122.275 Y74.299 E312.47466
G1 X83.687 Y112.888 E316.83086
G1 X83.469 Y113.502 E316.88287
G1 X83.05 Y114.939 E317.00236
G1 X123.689 Y74.299 E321.5901
G1 X125.104 Y74.299 E321.70305
G1 X82.723 Y116.68 E326.48738
G1 X82.643 Y117.195 E326.52898
G1 X82.545 Y118.272 E326.61531
G1 X126.518 Y74.299 E331.57936
G1 X127.932 Y74.299 E331.69223
G1 X82.5 Y119.732 E336.82105
G1 X82.5 Y121.146 E336.93392
G1 X129.346 Y74.299 E342.22236
G1 X130.761 Y74.299 E342.33531
G1 X82.5 Y122.56 E347.78343
G1 X82.5 Y123.974 E347.8963
G1 X132.175 Y74.299 E353.50404
G1 X133.136 Y74.299 E353.58075
G1 X133.576 Y74.312 E353.61589
G1 X82.5 Y125.389 E359.38185
G1 X82.5 Y126.803 E359.49472
G1 X134.915 Y74.388 E365.41178
G1 X135.522 Y74.444 E365.46044
G1 X136.173 Y74.543 E365.513
G1 X82.535 Y128.182 E371.56818
G1 X82.649 Y129.482 E371.67235
G1 X137.363 Y74.768 E377.84894
G1 X137.931 Y74.895 E377.8954
G1 X138.488 Y75.057 E377.9417
G1 X82.853 Y130.693 E384.22232
G1 X83.103 Y131.857 E384.31735
G1 X139.565 Y75.395 E390.69127
G1 X140.257 Y75.646 E390.75003
G1 X140.586 Y75.788 E390.77863
G1 X83.427 Y132.946 E397.23118
G1 X83.797 Y133.991 E397.31967
G1 X141.562 Y76.226 E403.84068
G1 X142.496 Y76.706 E403.92451
G1 X84.215 Y134.988 E410.50383
G1 X84.681 Y135.935 E410.58808
G1 X143.39 Y77.226 E417.21566
G1 X144.232 Y77.798 E417.29691
G1 X85.19 Y136.84 E423.96208
G1 X85.451 Y137.29 E424.00361
G1 X85.733 Y137.711 E424.04406
G1 X145.04 Y78.405 E430.73909
G1 X145.569 Y78.819 E430.79271
G1 X145.818 Y79.041 E430.81934
G1 X86.32 Y138.539 E437.53598
G1 X86.93 Y139.343 E437.61654
G1 X146.557 Y79.717 E444.3477
G1 X147.257 Y80.431 E444.42751
G1 X87.598 Y140.089 E451.16228
G1 X88.298 Y140.804 E451.24216
G1 X147.916 Y81.186 E457.97235
G1 X148.122 Y81.424 E457.99748
G1 X148.543 Y81.973 E458.0527
G1 X89.036 Y141.48 E464.77037
G1 X89.429 Y141.828 E464.81227
G1 X89.807 Y142.123 E464.85054
G1 X149.125 Y82.805 E471.54687
G1 X149.509 Y83.373 E471.6016
G1 X149.678 Y83.666 E471.6286
G1 X90.615 Y142.73 E478.2962
G1 X91.459 Y143.3 E478.3775
G1 X150.188 Y84.571 E485.00733
G1 X150.657 Y85.516 E485.09155
G1 X92.345 Y143.828 E491.67431
G1 X93.277 Y144.31 E491.75807
G1 X151.082 Y86.505 E498.28359
G1 X151.446 Y87.555 E498.3723
G1 X94.209 Y144.792 E504.83371
G1 X94.202 Y144.838 E504.83742
G1 X94.949 Y145.466 E504.91533
G1 X151.767 Y88.649 E511.32938
G1 X151.844 Y88.925 E511.35225
G1 X152.031 Y89.799 E511.42359
G1 X95.588 Y146.241 E517.79531
G1 X95.829 Y146.603 E517.83003
G1 X96.17 Y147.073 E517.87638
G1 X152.241 Y91.003 E524.2061
G1 X152.356 Y92.302 E524.3102
G1 X96.786 Y147.872 E530.58342
G1 X97.244 Y148.433 E530.64123
G1 X97.429 Y148.643 E530.66357
G1 X152.399 Y93.673 E536.86906
G1 X152.399 Y95.088 E536.98201
G1 X98.09 Y149.396 E543.11282
G1 X98.75 Y150.15 E543.19281
G1 X152.399 Y96.502 E549.24912
G1 X152.399 Y97.916 E549.36199
G1 X99.412 Y150.903 E555.34362
G1 X100.072 Y151.657 E555.42361
G1 X152.399 Y99.33 E561.33073
G1 X152.399 Y100.745 E561.44368
G1 X100.733 Y152.41 E567.27613
G1 X101.394 Y153.164 E567.35617
G1 X152.399 Y102.159 E573.11406
G1 X152.399 Y103.573 E573.22693
G1 X102.055 Y153.917 E578.91019
G1 X102.227 Y154.114 E578.93107
G1 X102.739 Y154.647 E578.99007
G1 X152.399 Y104.987 E584.59612
G1 X152.399 Y106.401 E584.70899
G1 X103.425 Y155.375 E590.2376
G1 X104.173 Y156.042 E590.3176
G1 X152.399 Y107.816 E595.76176
G1 X152.399 Y109.23 E595.87464
G1 X104.957 Y156.671 E601.23024
G1 X105.416 Y157.03 E601.27676
G1 X105.771 Y157.271 E601.31101
G1 X152.399 Y110.644 E606.57472
G1 X152.399 Y112.058 E606.68759
G1 X106.624 Y157.833 E611.85507
G1 X107.51 Y158.361 E611.9374
G1 X152.399 Y113.472 E617.00486
G1 X152.399 Y114.887 E617.11781
G1 X108.449 Y158.836 E622.07921
G1 X109.436 Y159.264 E622.16509
G1 X152.399 Y116.301 E627.01512
G1 X152.399 Y117.715 E627.12799
G1 X110.454 Y159.66 E631.86311
G1 X111.544 Y159.984 E631.95388
G1 X152.399 Y119.129 E636.56594
G1 X152.399 Y120.544 E636.6789
G1 X112.681 Y160.261 E641.16255
G1 X113.132 Y160.363 E641.19946
G1 X113.878 Y160.478 E641.25971
G1 X152.399 Y121.958 E645.60824
G1 X152.399 Y123.372 E645.72111
G1 X115.146 Y160.624 E649.92649
G1 X115.558 Y160.662 E649.95952
G1 X116.494 Y160.691 E650.03427
G1 X152.399 Y124.786 E654.08754
G1 X152.399 Y126.2 E654.20041
G1 X117.9 Y160.699 E658.09496
G1 X119.315 Y160.699 E658.20791
G1 X152.399 Y127.615 E661.94272
G1 X152.399 Y129.029 E662.05559
G1 X120.729 Y160.699 E665.63077
G1 X122.143 Y160.699 E665.74364
G1 X152.399 Y130.443 E669.1592
G1 X152.399 Y131.857 E669.27207
G1 X123.557 Y160.699 E672.52801
G1 X124.971 Y160.699 E672.64088
G1 X152.399 Y133.271 E675.73719
G1 X152.399 Y134.686 E675.85014
G1 X126.386 Y160.699 E678.78671
G1 X127.8 Y160.699 E678.89958
G1 X152.399 Y136.1 E681.67653
G1 X152.399 Y137.514 E681.7894
G1 X129.214 Y160.699 E684.40673
G1 X130.628 Y160.699 E684.5196
G1 X152.399 Y138.928 E686.9773
G1 X152.399 Y140.343 E687.09025
G1 X132.042 Y160.699 E689.38827
G1 X133.188 Y160.699 E689.47974
G1 X133.464 Y160.692 E689.50178
G1 X152.387 Y141.769 E691.63797
G1 X152.352 Y142.796 E691.72
G1 X152.305 Y143.265 E691.75763
G1 X134.963 Y160.607 E693.71534
G1 X135.488 Y160.56 E693.75742
G1 X136.592 Y160.392 E693.84656
G1 X152.107 Y144.876 E695.59808
G1 X151.773 Y146.351 E695.7188
G1 X151.657 Y146.741 E695.75128
G1 X138.437 Y159.961 E697.24367
G1 X138.929 Y159.823 E697.28446
G1 X140.07 Y159.425 E697.38092
G1 X140.618 Y159.195 E697.42836
G1 X150.9 Y148.912 E698.58914
G1 X150.516 Y149.786 E698.66534
G1 X149.963 Y150.853 E698.76127
G1 X149.406 Y151.788 E698.84815
G1 X148.73 Y152.782 E698.94411
G1 X147.88 Y153.869 E699.05425
G1 X147.078 Y154.764 E699.15018
G1 X146.209 Y155.615 E699.24727
G1 X145.277 Y156.42 E699.34558
G1 X144.469 Y157.04 E699.42688
G0 F9000 X143.604 Y157.623
G1 F1237.5 X149.336 Y151.89 E700.07401
G1 F2700 E695.07401
G0 F300 X149.336 Y151.89 Z0.64
G0 F9000 X150.549 Y152.721
G0 X149.135 Y154.652
G0 X148.121 Y155.793
G0 X146.356 Y157.431
G0 X145.155 Y158.35
G0 X143.092 Y159.64
G0 X141.791 Y160.292
G0 X139.486 Y161.183
G0 X138.092 Y161.574
G0 X135.671 Y162.014
G0 X133.219 Y162.164
G0 X115.5 Y162.126
G0 X113.998 Y161.984
