;FLAVOR:Marlin
;TIME:11596
;Filament used: 4.88262m
;Layer height: 0.12
;MINX:75.335
;MINY:86.38
;MINZ:0.144
;MAXX:159.665
;MAXY:151.146
;MAXZ:21.714
;Generated with Cura_SteamEngine 5.2.1
M140 S60
M105
M190 S60
M104 S200
M105
M109 S200
M82 ;absolute extrusion mode
; Ender 3 Custom Start G-code
G92 E0 ; Reset Extruder
G28 ; Home all axes
G1 Z2.0 F3000 ; Move Z Axis up little to prevent scratching of Heat Bed
G1 X0.1 Y20 Z0.3 F5000.0 ; Move to start position
G1 X0.1 Y200.0 Z0.3 F1500.0 E15 ; Draw the first line
G1 X0.4 Y200.0 Z0.3 F5000.0 ; Move to side a little
G1 X0.4 Y20 Z0.3 F1500.0 E30 ; Draw the second line
G92 E0 ; Reset Extruder
G1 Z2.0 F3000 ; Move Z Axis up little to prevent scratching of Heat Bed
G1 X5 Y20 Z0.3 F5000.0 ; Move over to prevent blob squish
G92 E0
G92 E0
G1 F2700 E-5
;LAYER_COUNT:175
;LAYER:-6
M107
G0 F9000 X80.804 Y97.054 Z0.144
;TYPE:SUPPORT-INTERFACE
G1 F2700 E0
G1 F1125 X80.177 Y97.705 E0.04329
G1 X79.445 Y98.576 E0.09778
G1 X78.818 Y99.453 E0.14942
G1 X78.23 Y100.431 E0.20407
G1 X77.783 Y101.298 E0.25079
G1 X77.397 Y102.206 E0.29804
G1 X77.022 Y103.291 E0.35303
G1 X76.736 Y104.403 E0.40802
G1 X76.557 Y105.368 E0.45502
G1 X76.448 Y106.36 E0.50282
G1 X76.4 Y107.507 E0.5578
G1 X76.401 Y135.55 E1.90091
G1 X76.408 Y135.946 E1.91988
G1 X76.489 Y137.106 E1.97558
G1 X76.633 Y138.075 E2.02249
G1 X76.861 Y139.121 E2.07377
G1 X77.182 Y140.214 E2.12833
G1 X77.593 Y141.272 E2.18269
G1 X78.021 Y142.185 E2.23098
G1 X78.584 Y143.174 E2.28549
G1 X79.124 Y143.991 E2.33239
G1 X79.778 Y144.841 E2.38376
G1 X80.556 Y145.696 E2.43913
G1 X81.205 Y146.321 E2.48228
G1 X82.077 Y147.054 E2.53684
G1 X82.964 Y147.69 E2.58911
G1 X83.93 Y148.27 E2.64308
G1 X84.8 Y148.717 E2.68992
G1 X85.785 Y149.137 E2.74121
G1 X86.796 Y149.48 E2.79234
G1 X87.903 Y149.764 E2.84708
G1 X88.869 Y149.942 E2.89412
G1 X90.007 Y150.063 E2.94894
G1 X90.991 Y150.099 E2.9961
G1 X144.052 Y150.099 E5.53743
G1 X144.446 Y150.092 E5.5563
G1 X145.603 Y150.011 E5.61185
G1 X146.578 Y149.867 E5.65906
G1 X147.703 Y149.621 E5.71421
G1 X148.711 Y149.318 E5.76462
G1 X149.788 Y148.9 E5.81995
G1 X150.609 Y148.514 E5.86341
G1 X151.539 Y147.999 E5.91432
G1 X152.487 Y147.376 E5.96865
G1 X153.356 Y146.708 E6.02115
G1 X154.196 Y145.944 E6.07553
G1 X154.823 Y145.295 E6.11875
G1 X155.553 Y144.426 E6.17311
G1 X156.191 Y143.534 E6.22563
G1 X156.77 Y142.57 E6.27949
G1 X157.222 Y141.69 E6.32687
G1 X157.644 Y140.697 E6.37855
G1 X157.98 Y139.701 E6.42889
G1 X158.264 Y138.597 E6.48349
G1 X158.427 Y137.715 E6.52645
G1 X158.552 Y136.641 E6.57823
G1 X158.6 Y135.491 E6.63336
G1 X158.599 Y107.451 E7.97633
G1 X158.592 Y107.054 E7.99534
G1 X158.511 Y105.897 E8.05089
G1 X158.367 Y104.922 E8.0981
G1 X158.122 Y103.803 E8.15296
G1 X157.784 Y102.699 E8.20826
G1 X157.4 Y101.71 E8.25907
G1 X156.983 Y100.824 E8.30597
G1 X156.416 Y99.826 E8.36095
G1 X155.876 Y99.01 E8.40781
G1 X155.211 Y98.147 E8.45999
G1 X154.446 Y97.304 E8.51451
G1 X153.795 Y96.677 E8.5578
G1 X152.923 Y95.944 E8.61236
G1 X152.041 Y95.315 E8.66425
G1 X151.069 Y94.73 E8.71858
G1 X150.202 Y94.283 E8.7653
G1 X149.294 Y93.897 E8.81255
G1 X148.209 Y93.522 E8.86754
G1 X147.097 Y93.236 E8.92253
G1 X146.132 Y93.057 E8.96953
G1 X145.14 Y92.948 E9.01733
G1 X144.006 Y92.901 E9.07169
G1 X138.187 Y92.9 E9.35039
G1 X137.515 Y92.854 E9.38265
G1 X136.808 Y92.714 E9.41717
G1 X136.177 Y92.5 E9.44908
G1 X135.574 Y92.211 E9.48111
G1 X134.984 Y91.829 E9.51477
G1 X134.468 Y91.389 E9.54725
G1 X134.175 Y91.116 E9.56643
G1 X133.423 Y90.49 E9.61329
G1 X132.542 Y89.859 E9.66519
G1 X131.567 Y89.272 E9.7197
G1 X130.705 Y88.83 E9.7661
G1 X129.722 Y88.41 E9.8173
G1 X128.708 Y88.065 E9.86859
G1 X127.59 Y87.779 E9.92387
G1 X126.632 Y87.601 E9.97053
G1 X125.498 Y87.481 E10.02515
G1 X124.514 Y87.446 E10.07231
G1 X121.45 Y87.444 E10.21906
G1 X121.053 Y87.451 E10.23807
G1 X119.896 Y87.532 E10.29362
G1 X118.92 Y87.677 E10.34088
G1 X118.627 Y87.736 E10.3552
G1 X117.887 Y87.84 E10.39099
G1 X117.193 Y87.846 E10.42423
G1 X116.517 Y87.765 E10.45683
G1 X115.631 Y87.601 E10.49999
G1 X114.64 Y87.492 E10.54774
G1 X113.51 Y87.446 E10.60191
G1 X110.448 Y87.445 E10.74856
G1 X110.054 Y87.452 E10.76743
G1 X108.894 Y87.533 E10.82313
G1 X107.925 Y87.677 E10.87005
G1 X106.88 Y87.905 E10.92127
G1 X105.785 Y88.226 E10.97592
G1 X104.712 Y88.644 E11.03108
G1 X103.891 Y89.03 E11.07453
G1 X102.892 Y89.584 E11.12924
G1 X102.007 Y90.171 E11.1801
G1 X101.15 Y90.832 E11.23194
G1 X100.367 Y91.535 E11.28234
G1 X99.948 Y91.869 E11.308
G1 X99.396 Y92.223 E11.33941
G1 X98.774 Y92.517 E11.37236
G1 X98.119 Y92.732 E11.40538
G1 X97.444 Y92.859 E11.43827
G1 X96.803 Y92.9 E11.46904
G1 X90.951 Y92.901 E11.74931
G1 X90.554 Y92.908 E11.76833
G1 X89.395 Y92.989 E11.82398
G1 X88.423 Y93.133 E11.87104
G1 X87.303 Y93.378 E11.92595
G1 X86.199 Y93.716 E11.98125
G1 X85.212 Y94.1 E12.03197
G1 X84.324 Y94.517 E12.07896
G1 X83.326 Y95.084 E12.13393
G1 X82.507 Y95.626 E12.18097
G1 X81.646 Y96.289 E12.23302
G1 X80.804 Y97.054 E12.2875
G0 F9000 X81.302 Y97.141
G1 F1125 X133.859 Y149.698 E15.84735
G0 F9000 X131.596 Y149.698
G1 F1125 X80.197 Y98.299 E19.32877
G0 F9000 X79.217 Y99.581
G1 F1125 X129.334 Y149.698 E22.72336
G0 F9000 X127.071 Y149.698
G1 F1125 X78.381 Y101.008 E26.02128
G0 F9000 X77.69 Y102.58
G1 F1125 X124.808 Y149.698 E29.21274
G0 F9000 X122.545 Y149.698
G1 F1125 X77.169 Y104.322 E32.2862
G0 F9000 X76.858 Y106.274
G1 F1125 X120.283 Y149.698 E35.22748
G0 F9000 X118.02 Y149.698
G1 F1125 X76.8 Y108.478 E38.01944
G0 F9000 X76.8 Y110.741
G1 F1125 X115.756 Y149.698 E40.65809
G0 F9000 X113.494 Y149.698
G1 F1125 X76.8 Y113.004 E43.14349
G0 F9000 X76.8 Y115.266
G1 F1125 X111.231 Y149.698 E45.47564
G0 F9000 X108.968 Y149.698
G1 F1125 X76.8 Y117.529 E47.65452
G0 F9000 X76.8 Y119.792
G1 F1125 X106.705 Y149.698 E49.68011
G0 F9000 X104.443 Y149.698
G1 F1125 X76.8 Y122.055 E51.55246
G0 F9000 X76.8 Y124.317
G1 F1125 X102.18 Y149.698 E53.27156
G0 F9000 X99.917 Y149.698
G1 F1125 X76.8 Y126.58 E54.83739
G0 F9000 X76.8 Y128.843
G1 F1125 X97.654 Y149.698 E56.24993
G0 F9000 X95.392 Y149.698
G1 F1125 X76.8 Y131.106 E57.50922
G0 F9000 X76.8 Y133.368
G1 F1125 X93.129 Y149.698 E58.61527
G0 F9000 X90.861 Y149.693
G1 F1125 X76.803 Y135.634 E59.5675
G0 F9000 X77.059 Y138.153
G1 F1125 X88.343 Y149.437 E60.3318
G0 F9000 X85.016 Y148.373
G1 F1125 X78.142 Y141.499 E60.7974
G1 F2700 E55.7974
G0 F9000 X76.617 Y141.7
G0 X76.144 Y140.458
G0 X75.615 Y138.434
G0 X75.424 Y137.121
G0 X75.335 Y135.447
G0 X75.374 Y106.443
G0 X75.521 Y105.117
G0 X75.973 Y103.09
G0 X76.413 Y101.8
G0 X77.295 Y99.92
G0 X78.004 Y98.761
G0 X79.275 Y97.117
G0 X80.105 Y96.256
G0 X81.638 Y94.951
G0 X82.534 Y96.11
G1 F2700 E60.7974
G1 F1125 X136.122 Y149.698 E64.42708
G0 F9000 X138.385 Y149.698
G1 F1125 X83.902 Y95.216 E68.11736
G0 F9000 X85.403 Y94.454
G1 F1125 X140.647 Y149.698 E71.85921
G0 F9000 X142.91 Y149.698
G1 F1125 X87.076 Y93.864 E75.64102
G0 F9000 X88.935 Y93.461
G1 F1125 X145.116 Y149.642 E79.44634
G0 F9000 X147.082 Y149.345
G1 F1125 X91.037 Y93.299 E83.24248
G0 F9000 X93.299 Y93.299
G1 F1125 X148.838 Y148.838 E87.00432
G0 F9000 X150.422 Y148.159
G1 F1125 X95.561 Y93.299 E90.72019
G0 F9000 X97.735 Y93.21
G1 F1125 X151.844 Y147.318 E94.38513
G0 F9000 X153.145 Y146.357
G1 F1125 X99.434 Y92.646 E98.02315
G0 F9000 X100.766 Y91.715
G1 F1125 X154.305 Y145.254 E101.64952
G0 F9000 X155.344 Y144.03
G1 F1125 X101.997 Y90.683 E105.26288
G0 F9000 X103.358 Y89.782
G1 F1125 X156.243 Y142.667 E108.84495
G0 F9000 X157.008 Y141.169
G1 F1125 X104.857 Y89.018 E112.3773
G0 F9000 X106.527 Y88.425
G1 F1125 X157.615 Y139.513 E115.83766
G0 F9000 X158.029 Y137.664
G1 F1125 X108.378 Y88.014 E119.20064
G0 F9000 X110.473 Y87.845
G1 F1125 X158.196 Y135.568 E122.43307
G0 F9000 X158.199 Y133.309
G1 F1125 X112.736 Y87.845 E125.51246
G0 F9000 X115.097 Y87.944
G1 F1125 X158.199 Y131.046 E128.4319
G0 F9000 X158.199 Y128.783
G1 F1125 X117.656 Y88.241 E131.17797
G0 F9000 X119.651 Y87.973
G1 F1125 X158.199 Y126.521 E133.78895
G0 F9000 X158.199 Y124.258
G1 F1125 X121.785 Y87.844 E136.25538
G0 F9000 X124.049 Y87.845
G1 F1125 X158.199 Y121.995 E138.56847
G0 F9000 X158.199 Y119.732
G1 F1125 X126.45 Y87.983 E140.71893
G0 F9000 X129.479 Y88.75
G1 F1125 X158.199 Y117.47 E142.66423
G0 F9000 X158.199 Y115.207
G1 F1125 X135.71 Y92.718 E144.18748
G0 F9000 X138.555 Y93.3
G1 F1125 X158.199 Y112.944 E145.51803
G0 F9000 X158.199 Y110.682
G1 F1125 X140.818 Y93.3 E146.69534
G0 F9000 X143.08 Y93.3
G1 F1125 X158.199 Y108.419 E147.7194
G0 F9000 X158.121 Y106.078
G1 F1125 X145.425 Y93.382 E148.57934
G0 F9000 X148.273 Y93.967
G1 F1125 X157.525 Y103.219 E149.206
G1 F2700 E144.206
G0 F9000 X158.787 Y102.341
G0 X157.966 Y100.414
G0 X157.319 Y99.26
G0 X156.331 Y97.881
G0 X155.34 Y96.698
G0 X154.227 Y97.659
G1 F2700 E149.206
G1 F1125 X153.961 Y97.392 E149.22405
G1 F2700 E144.22405
G0 F300 X153.961 Y97.392 Z0.324
G0 F9000 X155.203 Y96.555
G0 X156.099 Y97.556
G0 X157.319 Y99.26
G0 X157.966 Y100.414
G0 X158.787 Y102.341
G0 X159.173 Y103.622
G0 X159.555 Y105.68
G0 X159.665 Y107.553
G0 X159.626 Y136.557
G0 X159.479 Y137.883
G0 X159.027 Y139.91
G0 X158.903 Y140.275
G0 X158.231 Y142.038
G0 X156.839 Y141.559
;TIME_ELAPSED:180.458752
;LAYER:-5
;TYPE:SUPPORT
G1 F2700 E149.22405
G1 F1125 X150.074 Y148.324 E149.79682
G1 X150.5 Y148.123 E149.82502
G1 X151.469 Y147.573 E149.89173
G1 X152.275 Y147.038 E149.94965
G1 X153.141 Y146.363 E150.01538
G1 X153.922 Y145.653 E150.07857
G1 X154.518 Y145.034 E150.13001
G1 X155.183 Y144.244 E150.19184
G1 X155.845 Y143.329 E150.25945
G1 X156.411 Y142.393 E150.32493
G1 X156.859 Y141.521 E150.38363
G1 X157.263 Y140.568 E150.4456
G1 X157.604 Y139.564 E150.50908
G1 X157.667 Y139.317 E150.52434
G1 X147.821 Y149.163 E151.35796
G1 X147.506 Y149.256 E151.37763
G1 X146.648 Y149.448 E151.43026
G1 X146.027 Y149.543 E151.46787
G1 X158.051 Y137.519 E152.4859
G1 X158.163 Y136.463 E152.54948
G1 X158.181 Y135.975 E152.57872
G1 X144.467 Y149.688 E153.73979
G1 X143.933 Y149.699 E153.77177
G1 X143.042 Y149.699 E153.82511
G1 X158.198 Y134.543 E155.10831
G1 X158.198 Y133.129 E155.19297
G1 X141.628 Y149.699 E156.59589
G1 X140.214 Y149.699 E156.68054
G1 X158.198 Y131.714 E158.20323
G1 X158.198 Y130.3 E158.28788
G1 X138.8 Y149.699 E159.93028
G1 X137.385 Y149.699 E160.015
G1 X158.198 Y128.886 E161.77716
G1 X158.198 Y127.472 E161.86182
G1 X135.971 Y149.699 E163.7437
G1 X134.557 Y149.699 E163.82835
G1 X158.198 Y126.058 E165.82995
G1 X158.198 Y124.643 E165.91466
G1 X133.143 Y149.699 E168.03603
G1 X131.729 Y149.699 E168.12068
G1 X158.198 Y123.229 E170.36176
G1 X158.198 Y121.815 E170.44641
G1 X130.314 Y149.699 E172.80725
G1 X128.9 Y149.699 E172.89191
G1 X158.198 Y120.401 E175.37247
G1 X158.198 Y118.986 E175.45718
G1 X127.486 Y149.699 E178.0575
G1 X126.072 Y149.699 E178.14215
G1 X158.198 Y117.572 E180.86219
G1 X158.198 Y116.158 E180.94684
G1 X124.657 Y149.699 E183.78664
G1 X123.243 Y149.699 E183.8713
G1 X158.198 Y114.744 E186.83081
G1 X158.198 Y113.33 E186.91547
G1 X121.829 Y149.699 E189.9947
G1 X120.415 Y149.699 E190.07935
G1 X158.198 Y111.915 E193.27835
G1 X158.198 Y110.501 E193.363
G1 X119.001 Y149.699 E196.68172
G1 X117.586 Y149.699 E196.76643
G1 X158.198 Y109.087 E200.20491
G1 X158.198 Y107.673 E200.28956
G1 X116.172 Y149.699 E203.84775
G1 X114.758 Y149.699 E203.93241
G1 X158.138 Y106.319 E207.60524
G1 X158.111 Y105.926 E207.62882
G1 X157.979 Y105.064 E207.68103
G1 X113.344 Y149.699 E211.46012
G1 X111.93 Y149.699 E211.54477
G1 X157.728 Y103.9 E215.42237
G1 X157.407 Y102.808 E215.49051
G1 X110.515 Y149.699 E219.46065
G1 X109.101 Y149.699 E219.54531
G1 X157 Y101.8 E223.60075
G1 X156.547 Y100.839 E223.66435
G1 X107.687 Y149.699 E227.80116
G1 X106.273 Y149.699 E227.88581
G1 X156.02 Y99.952 E232.09771
G1 X155.457 Y99.101 E232.1588
G1 X104.858 Y149.699 E236.4428
G1 X103.444 Y149.699 E236.52745
G1 X154.825 Y98.318 E240.8777
G1 X154.152 Y97.577 E240.93763
G1 X102.03 Y149.699 E245.35061
G1 X100.616 Y149.699 E245.43527
G1 X153.425 Y96.889 E249.90646
G1 X152.657 Y96.244 E249.96651
G1 X99.202 Y149.699 E254.49235
G1 X97.787 Y149.699 E254.57707
G1 X151.832 Y95.655 E259.15282
G1 X150.951 Y95.122 E259.21447
G1 X96.373 Y149.699 E263.83535
G1 X94.959 Y149.699 E263.92001
G1 X150.019 Y94.639 E268.58174
G1 X149.022 Y94.221 E268.64647
G1 X93.545 Y149.699 E273.34355
G1 X92.131 Y149.699 E273.42821
G1 X147.961 Y93.869 E278.15513
G1 X146.836 Y93.58 E278.22467
G1 X90.728 Y149.687 E282.9751
G1 X89.895 Y149.652 E283.02501
G1 X89.405 Y149.596 E283.05454
G1 X145.599 Y93.402 E287.81229
G1 X145.104 Y93.345 E287.84212
G1 X144.275 Y93.311 E287.89179
G1 X88.167 Y149.42 E292.6423
G1 X87.042 Y149.13 E292.71185
G1 X142.873 Y93.299 E297.43887
G1 X141.459 Y93.299 E297.52352
G1 X85.981 Y148.778 E302.22069
G1 X84.983 Y148.361 E302.28544
G1 X140.045 Y93.299 E306.94735
G1 X138.631 Y93.299 E307.032
G1 X84.051 Y147.879 E311.6531
G1 X83.17 Y147.346 E311.71475
G1 X137.296 Y93.22 E316.2974
G1 X136.712 Y93.103 E316.33306
G1 X136.178 Y92.923 E316.3668
G1 X82.345 Y146.757 E320.92469
G1 X81.576 Y146.112 E320.98478
G1 X135.225 Y92.462 E325.5271
G1 X134.742 Y92.148 E325.56159
G1 X134.409 Y91.864 E325.58779
G1 X80.849 Y145.424 E330.12252
G1 X80.176 Y144.683 E330.18245
G1 X133.657 Y91.202 E334.7105
G1 X133.254 Y90.867 E334.74187
G1 X132.862 Y90.583 E334.77085
G1 X79.548 Y143.896 E339.28472
G1 X78.981 Y143.049 E339.34574
G1 X132.021 Y90.01 E343.83641
G1 X131.385 Y89.629 E343.8808
G1 X131.123 Y89.493 E343.89847
G1 X78.453 Y142.164 E348.35789
G1 X78 Y141.202 E348.42155
G1 X130.168 Y89.034 E352.83843
G1 X129.574 Y88.782 E352.87706
G1 X129.151 Y88.637 E352.90384
G1 X77.594 Y140.194 E357.26899
G1 X77.271 Y139.102 E357.33716
G1 X128.064 Y88.31 E361.63758
G1 X127.518 Y88.17 E361.67133
G1 X126.903 Y88.056 E361.70878
G1 X77.019 Y137.94 E365.93228
G1 X76.886 Y137.068 E365.98509
G1 X76.86 Y136.685 E366.00807
G1 X125.652 Y87.894 E370.13907
G1 X124.295 Y87.836 E370.22039
G1 X76.8 Y135.331 E374.24162
G1 X76.8 Y133.917 E374.32628
G1 X122.874 Y87.843 E378.2272
G1 X121.459 Y87.844 E378.31191
G1 X76.8 Y132.503 E382.09303
G1 X76.8 Y131.089 E382.17769
G1 X119.961 Y87.928 E385.83198
G1 X118.966 Y88.074 E385.89219
G1 X118.721 Y88.123 E385.90714
G1 X118.289 Y88.185 E385.93327
G1 X76.8 Y129.674 E389.446
G1 X76.8 Y128.26 E389.53065
G1 X116.852 Y88.208 E392.92171
G1 X116.47 Y88.163 E392.94474
G1 X115.637 Y88.009 E392.99546
G1 X76.8 Y126.846 E396.28365
G1 X76.8 Y125.432 E396.3683
G1 X114.353 Y87.879 E399.54778
G1 X113.486 Y87.845 E399.59973
G1 X112.973 Y87.844 E399.63044
G1 X76.8 Y124.018 E402.69313
G1 X76.8 Y122.603 E402.77784
G1 X111.559 Y87.844 E405.72076
G1 X110.139 Y87.85 E405.80577
G1 X76.8 Y121.189 E408.62847
G1 X76.8 Y119.775 E408.71312
G1 X108.592 Y87.983 E411.40484
G1 X107.837 Y88.097 E411.45055
G1 X106.841 Y88.32 E411.51166
G1 X76.8 Y118.361 E414.05512
G1 X76.8 Y116.946 E414.13984
G1 X104.618 Y89.128 E416.49509
G1 X104.003 Y89.418 E416.5358
G1 X103.028 Y89.97 E416.60287
G1 X102.222 Y90.504 E416.66076
G1 X101.359 Y91.18 E416.72639
G1 X100.634 Y91.829 E416.78464
G1 X100.201 Y92.182 E416.81809
G1 X100.06 Y92.272 E416.8281
G1 X76.8 Y115.532 E418.79745
G1 X76.8 Y114.118 E418.8821
G1 X97.672 Y93.246 E420.64926
G1 X96.801 Y93.299 E420.7015
G1 X96.205 Y93.299 E420.73718
G1 X76.8 Y112.704 E422.38013
G1 X76.8 Y111.29 E422.46479
G1 X94.791 Y93.299 E423.98802
G1 X93.376 Y93.299 E424.07274
G1 X76.8 Y109.875 E425.47617
G1 X76.8 Y108.461 E425.56082
G1 X91.962 Y93.299 E426.84453
G1 X91.066 Y93.299 E426.89818
G1 X90.537 Y93.309 E426.92985
G1 X76.818 Y107.029 E428.09143
G1 X76.835 Y106.535 E428.12103
G1 X76.948 Y105.485 E428.18425
G1 X88.977 Y93.456 E429.2027
G1 X88.338 Y93.553 E429.2414
G1 X87.493 Y93.742 E429.29324
G1 X87.186 Y93.832 E429.31239
G1 X77.329 Y103.689 E430.14695
G1 X77.394 Y103.434 E430.1627
G1 X77.713 Y102.498 E430.2219
G1 X78.139 Y101.481 E430.28792
G1 X78.59 Y100.6 E430.34717
G1 X79.153 Y99.669 E430.41231
G1 X79.816 Y98.755 E430.47991
G1 X80.482 Y97.962 E430.5419
G1 X81.076 Y97.345 E430.59318
G1 X81.859 Y96.635 E430.65646
G1 X82.724 Y95.96 E430.72214
G1 X83.53 Y95.425 E430.78006
G1 X84.504 Y94.873 E430.84709
G1 X84.934 Y94.67 E430.87555
G1 X78.156 Y101.448 E431.44942
