;FLAVOR:Marlin
;TIME:9547
;Filament used: 4.01404m
;Layer height: 0.12
;MINX:86.11
;MINY:82.46
;MINZ:0.144
;MAXX:148.89
;MAXY:152.54
;MAXZ:15.954
;Generated with Cura_SteamEngine 5.2.1
M140 S60
M105
M190 S60
M104 S200
M105
M109 S200
M82 ;absolute extrusion mode
; Ender 3 Custom Start G-code
G92 E0 ; Reset Extruder
G28 ; Home all axes
G1 Z2.0 F3000 ; Move Z Axis up little to prevent scratching of Heat Bed
G1 X0.1 Y20 Z0.3 F5000.0 ; Move to start position
G1 X0.1 Y200.0 Z0.3 F1500.0 E15 ; Draw the first line
G1 X0.4 Y200.0 Z0.3 F5000.0 ; Move to side a little
G1 X0.4 Y20 Z0.3 F1500.0 E30 ; Draw the second line
G92 E0 ; Reset Extruder
G1 Z2.0 F3000 ; Move Z Axis up little to prevent scratching of Heat Bed
G1 X5 Y20 Z0.3 F5000.0 ; Move over to prevent blob squish
G92 E0
G92 E0
G1 F2700 E-5
;LAYER_COUNT:127
;LAYER:-6
M107
G0 F9000 X90.222 Y89.199 Z0.144
;TYPE:SUPPORT-INTERFACE
G1 F2700 E0
G1 F1125 X89.584 Y90.091 E0.05253
G1 X89.005 Y91.055 E0.10638
G1 X88.553 Y91.935 E0.15377
G1 X88.135 Y92.92 E0.20501
G1 X87.795 Y93.924 E0.25578
G1 X87.511 Y95.028 E0.31038
G1 X87.348 Y95.91 E0.35334
G1 X87.223 Y96.984 E0.40512
G1 X87.176 Y98.134 E0.46025
G1 X87.176 Y98.438 E0.47481
G1 X87.176 Y136.924 E2.31808
G1 X87.183 Y137.321 E2.3371
G1 X87.263 Y138.47 E2.39226
G1 X87.408 Y139.453 E2.43985
G1 X87.653 Y140.572 E2.49471
G1 X87.991 Y141.676 E2.55001
G1 X88.368 Y142.647 E2.5999
G1 X88.761 Y143.484 E2.64419
G1 X89.314 Y144.482 E2.69883
G1 X89.905 Y145.374 E2.75008
G1 X90.564 Y146.229 E2.80178
G1 X91.329 Y147.071 E2.85627
G1 X91.98 Y147.698 E2.89956
G1 X92.852 Y148.431 E2.95412
G1 X93.734 Y149.06 E3.006
G1 X94.706 Y149.645 E3.06034
G1 X95.573 Y150.092 E3.10706
G1 X96.481 Y150.478 E3.15431
G1 X97.566 Y150.853 E3.20929
G1 X98.678 Y151.139 E3.26429
G1 X99.643 Y151.318 E3.31129
G1 X100.635 Y151.427 E3.35909
G1 X101.765 Y151.474 E3.41326
G1 X123.275 Y151.474 E4.44347
G1 X123.671 Y151.467 E4.46244
G1 X124.831 Y151.386 E4.51813
G1 X125.8 Y151.242 E4.56505
G1 X126.845 Y151.014 E4.61628
G1 X127.94 Y150.693 E4.67093
G1 X129.013 Y150.275 E4.72608
G1 X129.834 Y149.889 E4.76953
G1 X130.832 Y149.336 E4.82418
G1 X131.724 Y148.746 E4.8754
G1 X132.566 Y148.096 E4.92635
G1 X133.421 Y147.319 E4.98168
G1 X134.048 Y146.668 E5.02497
G1 X134.779 Y145.798 E5.07939
G1 X135.408 Y144.92 E5.13112
G1 X135.917 Y144.084 E5.178
G1 X136.44 Y143.08 E5.23222
G1 X136.865 Y142.083 E5.28413
G1 X137.211 Y141.061 E5.33581
G1 X137.454 Y140.138 E5.38152
G1 X137.757 Y139.29 E5.42465
G1 X138.071 Y138.704 E5.45649
G1 X138.464 Y138.145 E5.48922
G1 X138.927 Y137.641 E5.522
G1 X139.443 Y137.204 E5.55438
G1 X140.021 Y136.83 E5.58735
G1 X140.899 Y136.33 E5.63575
G1 X141.723 Y135.785 E5.68306
G1 X142.565 Y135.136 E5.73398
G1 X143.421 Y134.358 E5.78938
G1 X144.048 Y133.707 E5.83267
G1 X144.779 Y132.837 E5.88709
G1 X145.408 Y131.959 E5.93882
G1 X145.917 Y131.123 E5.9857
G1 X146.439 Y130.12 E6.03985
G1 X146.861 Y129.129 E6.09144
G1 X147.203 Y128.127 E6.14215
G1 X147.489 Y127.011 E6.19733
G1 X147.667 Y126.045 E6.24437
G1 X147.788 Y124.907 E6.29918
G1 X147.825 Y123.906 E6.34716
G1 X147.825 Y116.423 E6.70556
G1 X147.796 Y115.457 E6.75184
G1 X147.697 Y114.473 E6.79921
G1 X147.507 Y113.349 E6.85381
G1 X147.245 Y112.302 E6.9055
G1 X146.944 Y111.388 E6.95159
G1 X146.504 Y110.308 E7.00744
G1 X146.003 Y109.314 E7.06075
G1 X136.858 Y92.629 E7.97204
G1 X136.546 Y92.106 E8.0012
G1 X136.296 Y91.638 E8.02661
G1 X136.151 Y91.346 E8.04223
G1 X135.724 Y90.587 E8.08394
G1 X135.103 Y89.64 E8.13818
G1 X134.433 Y88.769 E8.19081
G1 X133.669 Y87.929 E8.24519
G1 X133.02 Y87.302 E8.28841
G1 X132.151 Y86.572 E8.34277
G1 X131.273 Y85.943 E8.3945
G1 X130.295 Y85.355 E8.44915
G1 X129.415 Y84.903 E8.49653
G1 X128.43 Y84.485 E8.54778
G1 X127.426 Y84.145 E8.59855
G1 X126.322 Y83.861 E8.65315
G1 X125.44 Y83.698 E8.69611
G1 X124.366 Y83.573 E8.74789
G1 X123.234 Y83.527 E8.80215
G1 X101.723 Y83.526 E9.83241
G1 X101.329 Y83.533 E9.85129
G1 X100.172 Y83.614 E9.90684
G1 X99.197 Y83.758 E9.95404
G1 X98.072 Y84.004 E10.0092
G1 X97.064 Y84.307 E10.05961
G1 X95.987 Y84.725 E10.11494
G1 X95.166 Y85.111 E10.15839
G1 X94.236 Y85.626 E10.20931
G1 X93.288 Y86.249 E10.26364
G1 X92.419 Y86.917 E10.31613
G1 X91.579 Y87.681 E10.37052
G1 X90.952 Y88.33 E10.41374
G1 X90.222 Y89.199 E10.46809
G0 F9000 X90.081 Y90.081
G1 F1125 X138.047 Y138.047 E13.71698
G0 F9000 X139.173 Y136.91
G1 F1125 X91.071 Y88.808 E16.97508
G0 F9000 X92.191 Y87.665
G1 F1125 X140.577 Y136.051 E20.25242
G0 F9000 X141.917 Y135.128
G1 F1125 X93.431 Y86.643 E23.5365
G0 F9000 X94.813 Y85.762
G1 F1125 X143.131 Y134.08 E26.80923
G0 F9000 X144.208 Y132.894
G1 F1125 X96.333 Y85.019 E30.05196
G0 F9000 X98.016 Y84.439
G1 F1125 X145.164 Y131.588 E33.24548
G0 F9000 X145.977 Y130.138
G1 F1125 X99.898 Y84.059 E36.36655
G0 F9000 X102.028 Y83.926
G1 F1125 X146.639 Y128.537 E39.3882
G0 F9000 X147.127 Y126.763
G1 F1125 X104.291 Y83.926 E42.28965
G0 F9000 X106.553 Y83.926
G1 F1125 X147.392 Y124.765 E45.05581
G0 F9000 X147.424 Y122.534
G1 F1125 X108.816 Y83.926 E47.67085
G0 F9000 X111.079 Y83.926
G1 F1125 X147.424 Y120.271 E50.13261
G0 F9000 X147.424 Y118.009
G1 F1125 X113.342 Y83.927 E52.44109
G0 F9000 X115.605 Y83.927
G1 F1125 X147.403 Y115.725 E54.59487
G0 F9000 X147.028 Y113.087
G1 F1125 X117.868 Y83.927 E56.56997
G0 F9000 X120.131 Y83.927
G1 F1125 X145.581 Y109.378 E58.29382
G1 F2700 E53.29382
G0 F9000 X146.867 Y108.673
G0 X144.122 Y103.665
G0 X142.836 Y104.37
G1 F2700 E58.29382
G1 F1125 X122.393 Y83.927 E59.67849
G0 F9000 X124.75 Y84.021
G1 F1125 X140.092 Y99.363 E60.71765
G1 F2700 E55.71765
G0 F9000 X141.377 Y98.658
G0 X138.633 Y93.65
G0 X137.347 Y94.355
G1 F2700 E60.71765
G1 F1125 X127.628 Y84.636 E61.37595
G1 F2700 E56.37595
G0 F9000 X127.635 Y83.098
G0 X125.608 Y82.646
G0 X124.282 Y82.499
G0 X101.085 Y82.479
G0 X99.017 Y82.708
G0 X97.702 Y83.004
G0 X95.736 Y83.675
G0 X94.518 Y84.247
G0 X92.752 Y85.326
G0 X91.672 Y86.157
G0 X90.167 Y87.611
G0 X89.309 Y88.644
G0 X88.985 Y89.136
G0 X88.07 Y90.545
G0 X89.229 Y91.492
G1 F2700 E61.37595
G1 F1125 X137.252 Y139.515 E64.6287
G0 F9000 X136.724 Y141.25
G1 F1125 X88.517 Y93.042 E67.89395
G0 F9000 X87.988 Y94.776
G1 F1125 X136.09 Y142.878 E71.15205
G0 F9000 X135.291 Y144.342
G1 F1125 X87.657 Y96.708 E74.37845
G0 F9000 X87.575 Y98.888
G1 F1125 X134.36 Y145.674 E77.54738
G0 F9000 X133.295 Y146.871
G1 F1125 X87.575 Y101.151 E80.64414
G0 F9000 X87.575 Y103.414
G1 F1125 X132.105 Y147.945 E83.66034
G0 F9000 X130.784 Y148.886
G1 F1125 X87.575 Y105.677 E86.58702
G0 F9000 X87.575 Y107.939
G1 F1125 X129.322 Y149.686 E89.41468
G0 F9000 X127.714 Y150.341
G1 F1125 X87.575 Y110.202 E92.13342
G0 F9000 X87.575 Y112.465
G1 F1125 X125.915 Y150.805 E94.73031
G0 F9000 X123.896 Y151.049
G1 F1125 X87.575 Y114.728 E97.19045
G0 F9000 X87.575 Y116.99
G1 F1125 X121.658 Y151.074 E99.49903
G0 F9000 X119.395 Y151.074
G1 F1125 X87.575 Y119.253 E101.65433
G0 F9000 X87.575 Y121.516
G1 F1125 X117.132 Y151.074 E103.65636
G0 F9000 X114.87 Y151.074
G1 F1125 X87.575 Y123.779 E105.50513
G0 F9000 X87.575 Y126.041
G1 F1125 X112.607 Y151.074 E107.20066
G0 F9000 X110.344 Y151.073
G1 F1125 X87.575 Y128.304 E108.74288
G0 F9000 X87.575 Y130.567
G1 F1125 X108.081 Y151.073 E110.13182
G0 F9000 X105.818 Y151.073
G1 F1125 X87.575 Y132.83 E111.36747
G0 F9000 X87.575 Y135.092
G1 F1125 X103.555 Y151.073 E112.44989
G0 F9000 X101.271 Y151.052
G1 F1125 X87.587 Y137.367 E113.37678
G0 F9000 X87.931 Y139.974
G1 F1125 X98.683 Y150.726 E114.10505
G0 F9000 X95.083 Y149.389
G1 F1125 X89.268 Y143.574 E114.49892
G1 F2700 E109.49892
G0 F300 X89.268 Y143.574 Z0.324
G0 F9000 X87.988 Y144.293
G0 X88.976 Y145.898
G0 X89.807 Y146.978
G0 X91.261 Y148.483
G0 X92.294 Y149.341
G0 X94.032 Y150.488
G0 X95.237 Y151.106
G0 X97.155 Y151.839
G0 X98.459 Y152.181
G0 X100.544 Y152.488
G0 X101.788 Y152.539
G0 X123.915 Y152.521
G0 X125.983 Y152.292
G0 X127.298 Y151.996
G0 X129.264 Y151.325
G0 X130.482 Y150.753
G0 X131.912 Y149.88
G0 X133.169 Y148.974
G0 X132.367 Y147.737
;TIME_ELAPSED:140.965433
;LAYER:-5
;TYPE:SUPPORT
G1 F2700 E114.49892
G1 F1125 X133.148 Y147.027 E114.56211
G1 X133.743 Y146.409 E114.61347
G1 X134.442 Y145.572 E114.67875
G1 X131.956 Y148.058 E114.88923
G1 X131.5 Y148.413 E114.92383
G1 X130.695 Y148.947 E114.98166
G1 X129.726 Y149.497 E115.04837
G1 X128.863 Y149.903 E115.10547
G1 X128.59 Y150.009 E115.123
G1 X136.364 Y142.235 E115.7812
G1 X136.488 Y141.943 E115.80019
G1 X136.83 Y140.936 E115.86386
G1 X137.035 Y140.149 E115.91255
G1 X126.503 Y150.682 E116.8043
G1 X125.872 Y150.823 E116.84301
G1 X124.783 Y150.988 E116.90895
G1 X146.262 Y129.509 E118.7275
G1 X146.513 Y128.909 E118.76644
G1 X146.829 Y127.977 E118.82535
G1 X146.984 Y127.373 E118.86268
G1 X123.284 Y151.072 E120.86924
G1 X121.869 Y151.074 E120.95395
G1 X147.308 Y125.635 E123.10778
G1 X147.387 Y124.877 E123.15341
G1 X147.415 Y124.113 E123.19918
G1 X120.454 Y151.074 E125.48187
G1 X119.04 Y151.074 E125.56652
G1 X147.423 Y122.69 E127.96966
G1 X147.423 Y121.276 E128.05431
G1 X117.626 Y151.074 E130.57716
G1 X116.212 Y151.074 E130.66181
G1 X147.423 Y119.862 E133.30438
G1 X147.423 Y118.448 E133.38903
G1 X114.798 Y151.074 E136.15132
G1 X113.383 Y151.074 E136.23603
G1 X147.423 Y117.033 E139.11812
G1 X147.423 Y116.417 E139.155
G1 X147.399 Y115.643 E139.20136
G1 X111.969 Y151.074 E142.20114
G1 X110.555 Y151.074 E142.28579
G1 X147.274 Y114.354 E145.3947
G1 X147.059 Y113.155 E145.46763
G1 X109.141 Y151.074 E148.67806
G1 X107.727 Y151.074 E148.76271
G1 X146.74 Y112.06 E152.06585
G1 X146.506 Y111.362 E152.10992
G1 X146.364 Y111.022 E152.13198
G1 X106.312 Y151.074 E155.52304
G1 X104.898 Y151.074 E155.60769
G1 X145.924 Y110.047 E159.08126
G1 X145.65 Y109.503 E159.11773
G1 X145.439 Y109.119 E159.14396
G1 X103.484 Y151.074 E162.69614
G1 X102.07 Y151.074 E162.7808
G1 X144.938 Y108.205 E166.41032
G1 X144.437 Y107.292 E166.47267
G1 X100.699 Y151.03 E170.17581
G1 X99.43 Y150.885 E170.25228
G1 X143.937 Y106.378 E174.02053
G1 X143.436 Y105.464 E174.08293
G1 X98.277 Y150.624 E177.90643
G1 X97.694 Y150.474 E177.94247
G1 X97.185 Y150.301 E177.97465
G1 X142.935 Y104.551 E181.84814
G1 X142.435 Y103.637 E181.91052
G1 X96.166 Y149.906 E185.82795
G1 X95.754 Y149.734 E185.85468
G1 X95.206 Y149.452 E185.89158
G1 X141.934 Y102.724 E189.84787
G1 X141.434 Y101.81 E189.91024
G1 X94.306 Y148.938 E193.9004
G1 X93.944 Y148.72 E193.9257
G1 X93.46 Y148.37 E193.96146
G1 X140.933 Y100.897 E197.98083
G1 X140.432 Y99.984 E198.04318
G1 X92.664 Y147.751 E202.08749
G1 X92.237 Y147.39 E202.12096
G1 X91.918 Y147.083 E202.14747
G1 X139.931 Y99.07 E206.21256
G1 X139.43 Y98.157 E206.27491
G1 X91.226 Y146.361 E210.35617
G1 X90.912 Y146.015 E210.38415
G1 X90.581 Y145.591 E210.41635
G1 X138.93 Y97.243 E214.50985
G1 X138.429 Y96.329 E214.57225
G1 X89.988 Y144.77 E218.67358
G1 X89.695 Y144.335 E218.70498
G1 X89.448 Y143.896 E218.73513
G1 X137.928 Y95.416 E222.83976
G1 X137.428 Y94.502 E222.90214
G1 X88.961 Y142.969 E227.00567
G1 X88.729 Y142.477 E227.03823
G1 X88.537 Y141.979 E227.07018
G1 X136.927 Y93.589 E231.1672
G1 X136.427 Y92.675 E231.22957
G1 X88.179 Y140.923 E235.31456
G1 X88.017 Y140.378 E235.3486
G1 X87.888 Y139.799 E235.38411
G1 X135.915 Y91.773 E239.45034
G1 X135.801 Y91.542 E239.46577
G1 X135.413 Y90.86 E239.51274
G1 X87.672 Y138.601 E243.5548
G1 X87.582 Y137.277 E243.63425
G1 X134.87 Y89.989 E247.63796
G1 X134.252 Y89.193 E247.69829
G1 X87.575 Y135.87 E251.65027
G1 X87.575 Y134.456 E251.73492
G1 X133.592 Y88.439 E255.63102
G1 X133.377 Y88.201 E255.65022
G1 X132.887 Y87.729 E255.69095
G1 X87.575 Y133.042 E259.5274
G1 X87.575 Y131.627 E259.61212
G1 X132.138 Y87.064 E263.38511
G1 X131.318 Y86.469 E263.44576
G1 X87.575 Y130.213 E267.14937
G1 X87.575 Y128.799 E267.23403
G1 X130.456 Y85.917 E270.86465
G1 X130.118 Y85.713 E270.88829
G1 X129.542 Y85.417 E270.92706
G1 X87.575 Y127.385 E274.4803
G1 X87.575 Y125.971 E274.56495
G1 X128.566 Y84.98 E278.03552
G1 X128.219 Y84.835 E278.05803
G1 X127.53 Y84.601 E278.10159
G1 X87.575 Y124.556 E281.48444
G1 X87.575 Y123.142 E281.5691
G1 X126.431 Y84.286 E284.8589
G1 X125.238 Y84.065 E284.93154
G1 X87.575 Y121.728 E288.12033
G1 X87.575 Y120.314 E288.20498
G1 X123.934 Y83.954 E291.28341
G1 X123.211 Y83.925 E291.32673
G1 X122.55 Y83.925 E291.36631
G1 X87.575 Y118.9 E294.32752
G1 X87.575 Y117.485 E294.41223
G1 X121.135 Y83.925 E297.25364
G1 X119.721 Y83.925 E297.33829
G1 X87.575 Y116.071 E300.05998
G1 X87.575 Y114.657 E300.14463
G1 X118.307 Y83.925 E302.7466
G1 X116.893 Y83.925 E302.83126
G1 X87.575 Y113.243 E305.31351
G1 X87.575 Y111.828 E305.39822
G1 X115.479 Y83.925 E307.76071
G1 X114.064 Y83.925 E307.84543
G1 X87.575 Y110.414 E310.08816
G1 X87.575 Y109 E310.17281
G1 X112.65 Y83.925 E312.29582
G1 X111.236 Y83.925 E312.38048
G1 X87.575 Y107.586 E314.38377
G1 X87.575 Y106.172 E314.46843
G1 X109.822 Y83.925 E316.352
G1 X108.407 Y83.925 E316.43671
G1 X87.575 Y104.757 E318.20049
G1 X87.575 Y103.343 E318.28514
G1 X106.993 Y83.925 E319.92919
G1 X105.579 Y83.925 E320.01385
G1 X87.575 Y101.929 E321.53818
G1 X87.575 Y100.515 E321.62284
G1 X104.165 Y83.925 E323.02745
G1 X102.751 Y83.925 E323.11211
G1 X87.575 Y99.101 E324.39701
G1 X87.575 Y98.152 E324.45382
G1 X87.592 Y97.669 E324.48275
G1 X101.327 Y83.934 E325.64565
G1 X100.214 Y84.012 E325.71245
G1 X99.767 Y84.079 E325.73951
G1 X87.712 Y96.134 E326.76016
G1 X87.901 Y95.109 E326.82256
G1 X88.099 Y94.333 E326.87051
G1 X97.98 Y84.452 E327.7071
G1 X97.195 Y84.683 E327.75608
G1 X96.136 Y85.095 E327.82411
G1 X95.735 Y85.283 E327.85063
G1 X88.916 Y92.102 E328.42797
G1 X89.365 Y91.225 E328.48695
G1 X89.929 Y90.294 E328.55212
G1 X90.59 Y89.381 E328.6196
G1 X91.257 Y88.588 E328.68164
G1 X91.851 Y87.971 E328.73291
G1 X92.633 Y87.26 E328.79619
G1 X93.498 Y86.585 E328.86188
G1 X94.304 Y86.05 E328.91979
G1 X95.278 Y85.499 E328.98679
G1 F2700 E323.98679
G0 F9000 X94.689 Y84.159
G0 X96.616 Y83.338
G0 X97.897 Y82.952
G0 X99.955 Y82.57
G0 X101.828 Y82.46
G0 X124.282 Y82.499
G0 X125.608 Y82.646
G0 X127.635 Y83.098
G0 X128.925 Y83.538
G0 X130.805 Y84.42
G0 X131.964 Y85.129
G0 X133.608 Y86.4
G0 X134.565 Y87.323
G0 X135.898 Y88.923
G0 X136.64 Y90.043
G0 X147.423 Y109.764
G0 X147.947 Y111.036
G0 X148.522 Y113.018
G0 X148.754 Y114.342
G0 X148.89 Y116.411
G0 X148.851 Y124.971
G0 X148.704 Y126.297
G0 X148.252 Y128.324
G0 X147.812 Y129.614
G0 X146.93 Y131.494
G0 X146.221 Y132.653
G0 X145.078 Y134.132
G0 X143.816 Y135.442
G0 X142.834 Y134.35
G1 F2700 E328.98679
G1 F1125 X143.78 Y133.405 E329.06684
G1 X143.147 Y134.066 E329.12163
G1 X142.366 Y134.777 E329.18486
G1 X141.499 Y135.453 E329.25068
G1 X140.702 Y135.98 E329.30789
G1 X139.804 Y136.493 E329.3698
G1 X139.211 Y136.876 E329.41206
G1 X138.652 Y137.351 E329.45598
G1 X138.154 Y137.89 E329.49991
G1 X137.732 Y138.487 E329.54368
G1 X137.382 Y139.143 E329.5882
G1 X137.065 Y140.038 E329.64504
G1 F2700 E324.64504
G0 F300 X137.065 Y140.038 Z0.444
G0 F9000 X138.468 Y140.464
G0 X137.9 Y142.343
G0 X137.357 Y143.624
G0 X136.351 Y145.418
G0 X135.563 Y146.523
G0 X134.17 Y148.078
G0 X133.169 Y148.974
G0 X131.465 Y150.194
G0 X130.311 Y150.841
G0 X128.384 Y151.662
G0 X127.103 Y152.048
G0 X125.045 Y152.43
G0 X123.172 Y152.54
G0 X100.718 Y152.501
G0 X99.392 Y152.354
G0 X97.365 Y151.902
G0 X96.075 Y151.462
G0 X94.553 Y150.749
G0 X93.036 Y149.871
G0 X93.595 Y148.466
;TIME_ELAPSED:337.307537
;LAYER:-4
;TYPE:SUPPORT-INTERFACE
G1 F2700 E329.64504
G1 F1500 X90.168 Y145.04 E329.74174
G1 X90.279 Y145.204 E329.7457
G1 X90.912 Y146.015 E329.76623
G1 X91.621 Y146.797 E329.78729
G1 X92.237 Y147.39 E329.80436
G1 X93.031 Y148.058 E329.82506
G1 X93.944 Y148.72 E329.84757
G1 X94.881 Y149.285 E329.8694
G1 X95.083 Y149.389 E329.87394
G1 X89.222 Y143.528 E330.03935
G1 X88.723 Y142.463 E330.06282
G1 X96.165 Y149.905 E330.27285
G1 X96.779 Y150.163 E330.28614
G1 X97.096 Y150.27 E330.29281
G1 X88.358 Y141.533 E330.53941
G1 X88.12 Y140.729 E330.55614
G1 X97.924 Y150.533 E330.83283
G1 X98.685 Y150.729 E330.84851
G1 X87.925 Y139.968 E331.15219
G1 X87.828 Y139.53 E331.16115
G1 X87.788 Y139.265 E331.1665
G1 X99.404 Y150.882 E331.49434
G1 X100.044 Y150.955 E331.50719
G1 X87.672 Y138.583 E331.85636
