;FLAVOR:Marlin
;TIME:2508
;Filament used: 1.07417m
;Layer height: 0.12
;MINX:95.15
;MINY:87.736
;MINZ:0.144
;MAXX:140.915
;MAXY:145.788
;MAXZ:8.754
;Generated with Cura_SteamEngine 5.2.1
M140 S60
M105
M190 S60
M104 S200
M105
M109 S200
M82 ;absolute extrusion mode
; Ender 3 Custom Start G-code
G92 E0 ; Reset Extruder
G28 ; Home all axes
G1 Z2.0 F3000 ; Move Z Axis up little to prevent scratching of Heat Bed
G1 X0.1 Y20 Z0.3 F5000.0 ; Move to start position
G1 X0.1 Y200.0 Z0.3 F1500.0 E15 ; Draw the first line
G1 X0.4 Y200.0 Z0.3 F5000.0 ; Move to side a little
G1 X0.4 Y20 Z0.3 F1500.0 E30 ; Draw the second line
G92 E0 ; Reset Extruder
G1 Z2.0 F3000 ; Move Z Axis up little to prevent scratching of Heat Bed
G1 X5 Y20 Z0.3 F5000.0 ; Move over to prevent blob squish
G92 E0
G92 E0
G1 F2700 E-5
;LAYER_COUNT:67
;LAYER:-6
M107
G0 F9000 X98.196 Y94.477 Z0.144
;TYPE:SUPPORT-INTERFACE
G1 F2700 E0
G1 F1125 X97.567 Y95.355 E0.05173
G1 X97.058 Y96.191 E0.09861
G1 X96.536 Y97.194 E0.15276
G1 X96.114 Y98.185 E0.20435
G1 X95.772 Y99.187 E0.25506
G1 X95.486 Y100.303 E0.31024
G1 X95.308 Y101.269 E0.35728
G1 X95.187 Y102.407 E0.41209
G1 X95.151 Y103.408 E0.46007
G1 X95.157 Y120.212 E1.26489
G1 X95.15 Y120.658 E1.28625
G1 X95.151 Y123.651 E1.4296
G1 X95.158 Y124.048 E1.44862
G1 X95.239 Y125.203 E1.50407
G1 X95.383 Y126.178 E1.55127
G1 X95.629 Y127.303 E1.60643
G1 X95.931 Y128.311 E1.65683
G1 X96.343 Y129.372 E1.71134
G1 X96.736 Y130.209 E1.75563
G1 X97.251 Y131.139 E1.80654
G1 X97.874 Y132.087 E1.86087
G1 X98.483 Y132.878 E1.90868
G1 X98.639 Y133.063 E1.92027
G1 X99.108 Y133.676 E1.95724
G1 X99.449 Y134.272 E1.99013
G1 X99.677 Y134.827 E2.01887
G1 X100.1 Y135.911 E2.0746
G1 X100.486 Y136.732 E2.11805
G1 X101.001 Y137.662 E2.16896
G1 X101.623 Y138.61 E2.22327
G1 X102.288 Y139.474 E2.27549
G1 X103.056 Y140.319 E2.33017
G1 X103.705 Y140.946 E2.37339
G1 X104.576 Y141.678 E2.42789
G1 X105.453 Y142.305 E2.47952
G1 X106.43 Y142.893 E2.53413
G1 X107.31 Y143.345 E2.58152
G1 X108.295 Y143.763 E2.63276
G1 X109.299 Y144.103 E2.68353
G1 X110.403 Y144.387 E2.73813
G1 X111.285 Y144.55 E2.78109
G1 X112.359 Y144.675 E2.83287
G1 X113.492 Y144.722 E2.88719
G1 X121.55 Y144.722 E3.27312
G1 X121.946 Y144.715 E3.29209
G1 X123.105 Y144.634 E3.34774
G1 X124.077 Y144.49 E3.3948
G1 X125.197 Y144.245 E3.44971
G1 X126.301 Y143.907 E3.50501
G1 X127.288 Y143.523 E3.55573
G1 X128.109 Y143.137 E3.59918
G1 X129.111 Y142.581 E3.65406
G1 X129.996 Y141.995 E3.7049
G1 X130.847 Y141.339 E3.75636
G1 X131.696 Y140.568 E3.81129
G1 X132.323 Y139.917 E3.85458
G1 X133.054 Y139.046 E3.90904
G1 X133.684 Y138.168 E3.9608
G1 X134.27 Y137.193 E4.01528
G1 X134.717 Y136.324 E4.06208
G1 X135.098 Y135.429 E4.10867
G1 X135.282 Y134.91 E4.13504
G1 X135.512 Y134.341 E4.16444
G1 X135.843 Y133.745 E4.19709
G1 X136.24 Y133.199 E4.22942
G1 X136.807 Y132.52 E4.27179
G1 X137.434 Y131.645 E4.32335
G1 X137.942 Y130.809 E4.3702
G1 X138.465 Y129.805 E4.42442
G1 X138.89 Y128.809 E4.47628
G1 X139.228 Y127.812 E4.5267
G1 X139.514 Y126.697 E4.58183
G1 X139.692 Y125.731 E4.62888
G1 X139.813 Y124.593 E4.68369
G1 X139.85 Y123.592 E4.73167
G1 X139.85 Y120.658 E4.87219
G1 X139.843 Y120.187 E4.89475
G1 X139.85 Y119.737 E4.91631
G1 X139.849 Y103.348 E5.70125
G1 X139.842 Y102.952 E5.72022
G1 X139.761 Y101.792 E5.77591
G1 X139.617 Y100.823 E5.82283
G1 X139.371 Y99.697 E5.87803
G1 X139.066 Y98.679 E5.92893
G1 X138.65 Y97.612 E5.98378
G1 X138.264 Y96.791 E6.02723
G1 X137.749 Y95.861 E6.07815
G1 X137.128 Y94.915 E6.13235
G1 X136.458 Y94.044 E6.18498
G1 X135.694 Y93.204 E6.23936
G1 X135.045 Y92.577 E6.28258
G1 X134.176 Y91.847 E6.33694
G1 X133.298 Y91.218 E6.38866
G1 X132.32 Y90.63 E6.44332
G1 X131.44 Y90.178 E6.4907
G1 X130.455 Y89.76 E6.54195
G1 X129.451 Y89.42 E6.59272
G1 X128.347 Y89.136 E6.64732
G1 X127.465 Y88.973 E6.69027
G1 X126.391 Y88.848 E6.74206
G1 X125.259 Y88.801 E6.79632
G1 X109.7 Y88.801 E7.54152
G1 X109.304 Y88.808 E7.56048
G1 X108.144 Y88.889 E7.61618
G1 X107.175 Y89.033 E7.6631
G1 X106.13 Y89.261 E7.71432
G1 X105.035 Y89.582 E7.76898
G1 X103.962 Y90 E7.82413
G1 X103.141 Y90.386 E7.86758
G1 X102.143 Y90.939 E7.92223
G1 X101.251 Y91.529 E7.97345
G1 X100.409 Y92.179 E8.02439
G1 X99.554 Y92.956 E8.07973
G1 X98.927 Y93.607 E8.12302
G1 X98.196 Y94.477 E8.17744
G0 F9000 X98.847 Y94.322
G1 F1125 X136.619 Y132.093 E10.73582
G0 F9000 X135.625 Y133.363
G1 F1125 X97.876 Y95.613 E13.29272
G0 F9000 X97.056 Y97.056
G1 F1125 X134.872 Y134.872 E15.85412
G0 F9000 X134.196 Y136.459
G1 F1125 X96.379 Y98.642 E18.41558
G0 F9000 X95.874 Y100.399
G1 F1125 X133.376 Y137.902 E20.95575
G0 F9000 X132.406 Y139.194
G1 F1125 X95.591 Y102.379 E23.44934
G0 F9000 X95.55 Y104.601
G1 F1125 X131.318 Y140.369 E25.87202
G0 F9000 X130.097 Y141.41
G1 F1125 X95.55 Y106.864 E28.21197
G0 F9000 X95.55 Y109.127
G1 F1125 X128.747 Y142.324 E30.46051
G0 F9000 X127.255 Y143.095
G1 F1125 X95.55 Y111.389 E32.60802
G0 F9000 X95.549 Y113.651
G1 F1125 X125.6 Y143.702 E34.64347
G0 F9000 X123.766 Y144.13
G1 F1125 X95.549 Y115.914 E36.55466
G0 F9000 X95.549 Y118.177
G1 F1125 X121.69 Y144.317 E38.32524
G0 F9000 X119.431 Y144.321
G1 F1125 X95.552 Y120.442 E39.94264
G0 F9000 X95.549 Y122.702
G1 F1125 X117.168 Y144.321 E41.40697
G0 F9000 X114.905 Y144.321
G1 F1125 X95.629 Y125.044 E42.71263
G0 F9000 X96.227 Y127.905
G1 F1125 X112.605 Y144.283 E43.82196
G0 F9000 X109.904 Y143.845
G1 F1125 X99.203 Y133.144 E44.54677
G1 F2700 E39.54677
G0 F9000 X98.227 Y134.278
G0 X99.356 Y136.789
G0 X100.085 Y138.205
G0 X101.52 Y137.724
G1 F2700 E44.54677
G1 F1125 X105.904 Y142.107 E44.84368
G1 F2700 E39.84368
G0 F9000 X105.142 Y143.362
G0 X106.962 Y144.354
G0 X108.88 Y145.087
G0 X110.184 Y145.429
G0 X112.269 Y145.736
G0 X113.513 Y145.787
G0 X122.19 Y145.769
G0 X124.258 Y145.54
G0 X125.573 Y145.244
G0 X127.539 Y144.573
G0 X128.757 Y144.001
G0 X130.523 Y142.922
G0 X131.603 Y142.091
G0 X133.108 Y140.637
G0 X133.966 Y139.604
G0 X134.894 Y138.197
G0 X138.772 Y131.492
G0 X137.52 Y130.732
G1 F2700 E44.84368
G1 F1125 X99.936 Y93.148 E47.38937
G0 F9000 X101.157 Y92.107
G1 F1125 X138.276 Y129.225 E49.90352
G0 F9000 X138.877 Y127.564
G1 F1125 X102.507 Y91.194 E52.36698
G0 F9000 X104 Y90.424
G1 F1125 X139.288 Y125.712 E54.75715
G0 F9000 X139.448 Y123.609
G1 F1125 X105.656 Y89.817 E57.04598
G0 F9000 X107.492 Y89.391
G1 F1125 X139.449 Y121.347 E59.2105
G0 F9000 X139.449 Y119.084
G1 F1125 X109.568 Y89.203 E61.23444
G0 F9000 X111.828 Y89.2
G1 F1125 X139.449 Y116.821 E63.10529
G0 F9000 X139.449 Y114.559
G1 F1125 X114.09 Y89.2 E64.82294
G0 F9000 X116.353 Y89.2
G1 F1125 X139.449 Y112.296 E66.38731
G0 F9000 X139.449 Y110.033
G1 F1125 X118.616 Y89.2 E67.79839
G0 F9000 X120.879 Y89.2
G1 F1125 X139.449 Y107.77 E69.0562
G0 F9000 X139.449 Y105.508
G1 F1125 X123.141 Y89.2 E70.16079
G0 F9000 X125.411 Y89.207
G1 F1125 X139.446 Y103.242 E71.11142
G0 F9000 X139.183 Y100.716
G1 F1125 X127.933 Y89.466 E71.87342
G0 F9000 X131.269 Y90.54
G1 F1125 X138.088 Y97.359 E72.3353
G1 F2700 E67.3353
G0 F300 X138.088 Y97.359 Z0.324
G0 F9000 X139.414 Y96.735
G0 X138.569 Y95.16
G0 X137.349 Y93.456
G0 X136.453 Y92.455
G0 X134.898 Y91.062
G0 X133.793 Y90.274
G0 X131.999 Y89.268
G0 X130.735 Y88.731
G0 X128.738 Y88.132
G0 X127.422 Y87.891
G0 X125.237 Y87.736
G0 X109.06 Y87.754
G0 X106.992 Y87.983
G0 X105.677 Y88.279
G0 X103.711 Y88.95
G0 X102.493 Y89.522
G0 X100.727 Y90.601
G0 X99.647 Y91.432
G0 X98.142 Y92.886
G0 X97.37 Y93.815
G0 X96.23 Y95.503
G0 X97.483 Y96.264
;TIME_ELAPSED:92.232850
;LAYER:-5
;TYPE:SUPPORT
G1 F2700 E72.3353
G1 F1125 X102.606 Y91.14 E72.76908
G1 X102.279 Y91.326 E72.79161
G1 X101.473 Y91.86 E72.84949
G1 X100.608 Y92.536 E72.91521
G1 X99.825 Y93.246 E72.97849
G1 X99.232 Y93.862 E73.02968
G1 X98.565 Y94.656 E73.09177
G1 X97.903 Y95.569 E73.15928
G1 X97.339 Y96.5 E73.22445
G1 X96.889 Y97.381 E73.28367
G1 X96.463 Y98.398 E73.34969
G1 X96.309 Y98.852 E73.37839
G1 X105.216 Y89.944 E74.13255
G1 X106.242 Y89.643 E74.19657
G1 X107.128 Y89.447 E74.25089
G1 X95.805 Y100.77 E75.20957
G1 X95.704 Y101.313 E75.24264
G1 X95.59 Y102.399 E75.30801
G1 X108.741 Y89.248 E76.42146
G1 X109.32 Y89.207 E76.45621
G1 X110.204 Y89.2 E76.50914
G1 X95.549 Y103.854 E77.74988
G1 X95.549 Y105.268 E77.83454
G1 X111.618 Y89.2 E79.195
G1 X113.032 Y89.2 E79.27965
G1 X95.549 Y106.682 E80.75983
G1 X95.549 Y108.096 E80.84449
G1 X114.446 Y89.2 E82.44439
G1 X115.86 Y89.2 E82.52904
G1 X95.549 Y109.511 E84.2487
G1 X95.549 Y110.925 E84.33336
G1 X117.275 Y89.2 E86.17278
G1 X118.689 Y89.2 E86.25743
G1 X95.549 Y112.339 E88.21657
G1 X95.549 Y113.753 E88.30123
G1 X120.103 Y89.2 E90.38008
G1 X121.517 Y89.2 E90.46474
G1 X95.549 Y115.167 E92.66331
G1 X95.549 Y116.582 E92.74803
G1 X122.931 Y89.2 E95.06637
G1 X124.346 Y89.2 E95.15108
G1 X95.549 Y117.996 E97.58918
G1 X95.549 Y119.41 E97.67383
G1 X125.739 Y89.22 E100.22991
G1 X126.354 Y89.245 E100.26676
G1 X127.049 Y89.325 E100.30865
G1 X95.549 Y120.824 E102.9756
G1 X95.549 Y122.238 E103.06025
G1 X128.263 Y89.525 E105.82999
G1 X129.384 Y89.818 E105.89935
G1 X95.552 Y123.651 E108.76383
G1 X95.557 Y124.028 E108.78641
G1 X95.624 Y124.992 E108.84426
G1 X130.429 Y90.187 E111.79107
G1 X131.425 Y90.606 E111.85576
G1 X95.799 Y126.231 E114.87205
G1 X95.991 Y127.103 E114.92551
G1 X96.072 Y127.373 E114.94238
G1 X132.339 Y91.106 E118.01298
G1 X133.22 Y91.639 E118.07463
G1 X96.413 Y128.446 E121.19095
G1 X96.703 Y129.202 E121.23942
G1 X96.822 Y129.452 E121.256
G1 X134.028 Y92.245 E124.40614
G1 X134.796 Y92.891 E124.46622
G1 X97.293 Y130.394 E127.64147
G1 X97.67 Y131.06 E127.68729
G1 X97.82 Y131.282 E127.70333
G1 X135.508 Y93.594 E130.89424
G1 X136.182 Y94.334 E130.95416
G1 X98.4 Y132.116 E134.15303
G1 X98.798 Y132.633 E134.19209
G1 X99.023 Y132.907 E134.21332
G1 X136.795 Y95.135 E137.41134
G1 X137.359 Y95.985 E137.47241
G1 X99.605 Y133.739 E140.66891
G1 X99.851 Y134.172 E140.69873
G1 X99.857 Y134.172 E140.69908
G1 X100.059 Y134.699 E140.73287
G1 X137.867 Y96.892 E143.9339
G1 X138.321 Y97.851 E143.99742
G1 X100.453 Y135.72 E147.20362
G1 X100.905 Y136.682 E147.26725
G1 X138.707 Y98.88 E150.46781
G1 X139.03 Y99.971 E150.53593
G1 X101.42 Y137.581 E153.72024
G1 X101.988 Y138.428 E153.78129
G1 X139.259 Y101.157 E156.9369
G1 X139.361 Y101.826 E156.97741
G1 X139.402 Y102.427 E157.01348
G1 X102.606 Y139.223 E160.12886
G1 X103.277 Y139.967 E160.18884
G1 X139.449 Y103.795 E163.2514
G1 X139.449 Y105.209 E163.33605
G1 X103.993 Y140.665 E166.33799
G1 X104.762 Y141.311 E166.39812
G1 X139.449 Y106.623 E169.33499
G1 X139.449 Y108.038 E169.4197
G1 X105.575 Y141.911 E172.28765
G1 X106.457 Y142.444 E172.34935
G1 X139.449 Y109.452 E175.14266
G1 X139.449 Y110.866 E175.22732
G1 X107.376 Y142.939 E177.94282
G1 X108.373 Y143.356 E178.00752
G1 X139.449 Y112.28 E180.63862
G1 X139.449 Y113.694 E180.72327
G1 X109.421 Y143.722 E183.26564
G1 X110.549 Y144.008 E183.33531
G1 X139.449 Y115.109 E185.78212
G1 X139.449 Y116.523 E185.86678
G1 X111.768 Y144.203 E188.21039
G1 X112.395 Y144.275 E188.24817
G1 X113.082 Y144.304 E188.28934
G1 X139.449 Y117.937 E190.52174
G1 X139.449 Y119.351 E190.60639
G1 X114.479 Y144.321 E192.72052
G1 X115.893 Y144.321 E192.80517
G1 X139.449 Y120.766 E194.79953
G1 X139.449 Y122.18 E194.88418
G1 X117.307 Y144.321 E196.75883
G1 X118.721 Y144.321 E196.84348
G1 X139.447 Y123.595 E198.59828
G1 X139.413 Y124.563 E198.65627
G1 X139.355 Y125.102 E198.68872
G1 X120.136 Y144.321 E200.31593
G1 X121.551 Y144.32 E200.40064
G1 X139.076 Y126.795 E201.88442
G1 X138.854 Y127.663 E201.93806
G1 X138.459 Y128.826 E202.01159
G1 X123.048 Y144.237 E203.31639
G1 X124.148 Y144.071 E203.38299
G1 X124.767 Y143.932 E203.42097
G1 X136.635 Y132.064 E204.42579
G1 X136.428 Y132.351 E204.44698
G1 X135.916 Y132.965 E204.49484
G1 X135.499 Y133.537 E204.53722
G1 X135.145 Y134.177 E204.581
G1 X134.908 Y134.763 E204.61885
G1 X134.664 Y135.449 E204.66244
G1 X126.85 Y143.264 E205.32406
G1 X127.137 Y143.152 E205.34251
G1 X128.001 Y142.745 E205.39969
G1 X128.969 Y142.195 E205.46634
G1 X129.776 Y141.661 E205.52427
G1 X130.192 Y141.336 E205.55588
G1 X132.738 Y138.79 E205.77144
G1 X132.683 Y138.866 E205.77705
G1 X132.018 Y139.657 E205.83892
G1 X131.422 Y140.275 E205.89032
G1 X130.642 Y140.985 E205.95347
G1 F2700 E200.95347
G0 F300 X130.642 Y140.985 Z0.444
G0 F9000 X131.444 Y142.222
G0 X129.74 Y143.442
G0 X128.586 Y144.089
G0 X126.659 Y144.91
G0 X125.378 Y145.296
G0 X123.32 Y145.678
G0 X121.447 Y145.788
G0 X112.443 Y145.749
G0 X111.117 Y145.602
G0 X109.09 Y145.15
G0 X107.8 Y144.71
G0 X105.92 Y143.828
G0 X104.761 Y143.119
G0 X103.117 Y141.848
G0 X102.16 Y140.925
G0 X100.845 Y139.347
G0 X102.003 Y138.452
;TIME_ELAPSED:213.785912
;LAYER:-4
;TYPE:SUPPORT-INTERFACE
G1 F2700 E205.95347
G1 F1500 X102.636 Y139.263 E205.974
G1 X103.346 Y140.045 E205.99508
G1 X103.963 Y140.639 E206.01217
G1 X104.755 Y141.306 E206.03283
G1 X105.67 Y141.968 E206.05537
G1 X105.909 Y142.112 E206.06094
G1 X101.476 Y137.68 E206.18603
G1 X100.873 Y136.615 E206.21046
G1 X100.78 Y136.418 E206.2148
G1 X107.2 Y142.839 E206.39601
G1 X107.48 Y142.982 E206.40228
G1 X108.218 Y143.29 E206.41824
G1 X100.327 Y135.399 E206.64094
G1 X99.976 Y134.483 E206.66052
G1 X109.109 Y143.616 E206.91827
G1 X109.42 Y143.722 E206.92483
G1 X109.905 Y143.846 E206.93482
G1 X99.208 Y133.149 E207.23671
G1 X98.938 Y132.797 E207.24556
G1 X98.798 Y132.633 E207.24986
G1 X98.252 Y131.926 E207.26769
G1 X97.651 Y131.026 E207.28929
G1 X110.65 Y144.026 E207.65616
G1 X111.344 Y144.154 E207.67024
G1 X96.978 Y129.788 E208.07568
G1 X96.703 Y129.202 E208.0886
G1 X96.544 Y128.788 E208.09745
G1 X111.984 Y144.228 E208.5332
G1 X112.623 Y144.301 E208.54604
G1 X96.229 Y127.907 E209.00871
G1 X95.991 Y127.104 E209.02542
G1 X113.195 Y144.307 E209.51094
G1 X113.512 Y144.321 E209.51728
G1 X113.774 Y144.321 E209.52251
G1 X95.819 Y126.366 E210.02923
G1 X95.717 Y125.698 E210.04272
G1 X114.339 Y144.321 E210.56829
G1 X114.905 Y144.321 E210.57958
G1 X95.627 Y125.043 E211.12365
G1 X95.585 Y124.435 E211.13581
G1 X115.471 Y144.321 E211.69704
G1 X116.036 Y144.321 E211.70831
G1 X95.554 Y123.838 E212.28637
G1 X95.549 Y123.268 E212.29775
G1 X116.602 Y144.321 E212.89191
G1 X117.168 Y144.321 E212.9032
G1 X95.549 Y122.702 E213.51334
G1 X95.549 Y122.137 E213.52461
G1 X117.733 Y144.321 E214.15069
G1 X118.299 Y144.321 E214.16199
G1 X95.549 Y121.571 E214.80404
G1 X95.549 Y121.005 E214.81534
G1 X118.865 Y144.321 E215.47337
G1 X119.431 Y144.321 E215.48466
G1 X95.552 Y120.442 E216.15858
G1 X95.551 Y119.875 E216.16989
G1 X119.996 Y144.321 E216.8598
G1 X120.562 Y144.321 E216.87109
G1 X95.549 Y119.308 E217.57701
G1 X95.549 Y118.743 E217.58829
G1 X121.128 Y144.321 E218.31017
G1 X121.69 Y144.317 E218.32139
G1 X95.549 Y118.177 E219.05913
G1 X95.549 Y117.611 E219.07042
G1 X122.231 Y144.292 E219.82343
G1 X122.76 Y144.256 E219.83401
G1 X95.549 Y117.045 E220.60197
G1 X95.549 Y116.48 E220.61324
G1 X123.274 Y144.204 E221.39569
G1 X123.764 Y144.129 E221.40558
G1 X95.549 Y115.914 E222.20187
G1 X95.549 Y115.348 E222.21316
G1 X124.249 Y144.048 E223.02314
G1 X124.711 Y143.945 E223.03259
G1 X95.549 Y114.783 E223.8556
G1 X95.549 Y114.217 E223.86689
G1 X125.164 Y143.831 E224.70268
G1 X125.601 Y143.703 E224.71177
G1 X95.549 Y113.651 E225.5599
G1 X95.549 Y113.086 E225.57117
G1 X126.038 Y143.574 E226.43163
G1 X126.449 Y143.419 E226.44039
G1 X95.549 Y112.52 E227.31244
G1 X95.549 Y111.954 E227.32374
G1 X126.856 Y143.261 E228.20729
G1 X127.264 Y143.103 E228.21602
G1 X95.549 Y111.389 E229.11107
G1 X95.549 Y110.823 E229.12237
G1 X127.641 Y142.914 E230.02806
G1 X128.024 Y142.732 E230.03652
G1 X95.549 Y110.257 E230.95304
G1 X95.549 Y109.692 E230.96431
G1 X128.385 Y142.527 E231.891
G1 X128.745 Y142.322 E231.89927
G1 X95.549 Y109.126 E232.83613
G1 X95.549 Y108.56 E232.84742
G1 X129.098 Y142.109 E233.79425
G1 X129.438 Y141.883 E233.8024
G1 X95.549 Y107.995 E234.7588
G1 X95.549 Y107.429 E234.7701
G1 X129.778 Y141.658 E235.73612
G1 X130.097 Y141.41 E235.74418
G1 X95.549 Y106.863 E236.71918
G1 X95.549 Y106.297 E236.73048
G1 X130.414 Y141.162 E237.71444
G1 X130.733 Y140.915 E237.7225
G1 X95.549 Y105.732 E238.71545
G1 X95.549 Y105.166 E238.72675
G1 X131.022 Y140.639 E239.72787
