;FLAVOR:Marlin
;TIME:2998
;Filament used: 1.1146m
;Layer height: 0.12
;MINX:94.086
;MINY:89.336
;MINZ:0.144
;MAXX:140.915
;MAXY:145.573
;MAXZ:16.794
;Generated with Cura_SteamEngine 5.2.1
M140 S60
M105
M190 S60
M104 S200
M105
M109 S200
M82 ;absolute extrusion mode
; Ender 3 Custom Start G-code
G92 E0 ; Reset Extruder
G28 ; Home all axes
G1 Z2.0 F3000 ; Move Z Axis up little to prevent scratching of Heat Bed
G1 X0.1 Y20 Z0.3 F5000.0 ; Move to start position
G1 X0.1 Y200.0 Z0.3 F1500.0 E15 ; Draw the first line
G1 X0.4 Y200.0 Z0.3 F5000.0 ; Move to side a little
G1 X0.4 Y20 Z0.3 F1500.0 E30 ; Draw the second line
G92 E0 ; Reset Extruder
G1 Z2.0 F3000 ; Move Z Axis up little to prevent scratching of Heat Bed
G1 X5 Y20 Z0.3 F5000.0 ; Move over to prevent blob squish
G92 E0
G92 E0
G1 F2700 E-5
;LAYER_COUNT:135
;LAYER:-6
M107
G0 F9000 X98.197 Y96.074 Z0.144
;TYPE:SUPPORT-INTERFACE
G1 F2700 E0
G1 F1125 X97.559 Y96.966 E0.05253
G1 X96.98 Y97.93 E0.10638
G1 X96.528 Y98.81 E0.15377
G1 X96.11 Y99.795 E0.20501
G1 X95.77 Y100.799 E0.25578
G1 X95.486 Y101.903 E0.31038
G1 X95.323 Y102.785 E0.35334
G1 X95.198 Y103.859 E0.40512
G1 X95.151 Y105.009 E0.46025
G1 X95.151 Y129.957 E1.65512
G1 X95.158 Y130.354 E1.67414
G1 X95.239 Y131.513 E1.72979
G1 X95.383 Y132.485 E1.77685
G1 X95.628 Y133.605 E1.83176
G1 X95.966 Y134.709 E1.88706
G1 X96.343 Y135.68 E1.93694
G1 X96.736 Y136.517 E1.98123
G1 X97.289 Y137.515 E2.03588
G1 X97.88 Y138.407 E2.08712
G1 X98.539 Y139.262 E2.13883
G1 X99.304 Y140.104 E2.19331
G1 X99.955 Y140.731 E2.2366
G1 X100.827 Y141.464 E2.29116
G1 X101.709 Y142.093 E2.34305
G1 X102.681 Y142.678 E2.39738
G1 X103.548 Y143.125 E2.4441
G1 X104.456 Y143.511 E2.49135
G1 X105.541 Y143.886 E2.54634
G1 X106.653 Y144.172 E2.60133
G1 X107.618 Y144.351 E2.64833
G1 X108.61 Y144.46 E2.69613
G1 X109.74 Y144.507 E2.7503
G1 X125.3 Y144.507 E3.49554
G1 X125.696 Y144.5 E3.51451
G1 X126.856 Y144.419 E3.5702
G1 X127.825 Y144.275 E3.61712
G1 X128.87 Y144.047 E3.66835
G1 X129.965 Y143.726 E3.723
G1 X131.038 Y143.308 E3.77815
G1 X131.859 Y142.922 E3.8216
G1 X132.857 Y142.369 E3.87625
G1 X133.749 Y141.779 E3.92747
G1 X134.591 Y141.129 E3.97842
G1 X135.446 Y140.352 E4.03375
G1 X136.073 Y139.701 E4.07704
G1 X136.804 Y138.831 E4.13146
G1 X137.433 Y137.953 E4.18319
G1 X137.942 Y137.117 E4.23007
G1 X138.465 Y136.113 E4.28429
G1 X138.89 Y135.117 E4.33615
G1 X139.228 Y134.12 E4.38657
G1 X139.514 Y133.005 E4.44171
G1 X139.692 Y132.039 E4.48875
G1 X139.813 Y130.901 E4.54356
G1 X139.85 Y129.9 E4.59154
G1 X139.849 Y104.948 E5.7866
G1 X139.842 Y104.552 E5.80557
G1 X139.761 Y103.392 E5.86127
G1 X139.617 Y102.423 E5.90819
G1 X139.371 Y101.297 E5.96339
G1 X139.066 Y100.279 E6.01428
G1 X138.65 Y99.212 E6.06913
G1 X138.264 Y98.391 E6.11259
G1 X137.749 Y97.461 E6.1635
G1 X137.128 Y96.515 E6.2177
G1 X136.458 Y95.644 E6.27033
G1 X135.694 Y94.804 E6.32471
G1 X135.045 Y94.177 E6.36793
G1 X134.176 Y93.447 E6.42229
G1 X133.298 Y92.818 E6.47402
G1 X132.32 Y92.23 E6.52867
G1 X131.44 Y91.778 E6.57606
G1 X130.455 Y91.36 E6.6273
G1 X129.451 Y91.02 E6.67807
G1 X128.347 Y90.736 E6.73267
G1 X127.465 Y90.573 E6.77563
G1 X126.391 Y90.448 E6.82741
G1 X125.259 Y90.401 E6.88168
G1 X109.698 Y90.401 E7.62696
G1 X109.304 Y90.408 E7.64584
G1 X108.147 Y90.489 E7.70139
G1 X107.172 Y90.633 E7.74859
G1 X106.047 Y90.879 E7.80375
G1 X105.039 Y91.182 E7.85416
G1 X103.962 Y91.6 E7.90949
G1 X103.141 Y91.986 E7.95294
G1 X102.211 Y92.501 E8.00386
G1 X101.263 Y93.124 E8.05819
G1 X100.394 Y93.792 E8.11068
G1 X99.554 Y94.556 E8.16507
G1 X98.927 Y95.205 E8.20829
G1 X98.197 Y96.074 E8.26264
G0 F9000 X98.543 Y96.281
G1 F1125 X138.134 Y135.871 E10.94423
G0 F9000 X137.338 Y137.338
G1 F1125 X97.627 Y97.627 E13.63399
G0 F9000 X96.838 Y99.101
G1 F1125 X136.412 Y138.675 E16.31446
G0 F9000 X135.349 Y139.874
G1 F1125 X96.212 Y100.737 E18.96533
G0 F9000 X95.771 Y102.559
G1 F1125 X134.163 Y140.951 E21.56575
G0 F9000 X132.844 Y141.895
G1 F1125 X95.566 Y104.617 E24.0907
G0 F9000 X95.549 Y106.863
G1 F1125 X131.386 Y142.7 E26.51806
G0 F9000 X129.784 Y143.36
G1 F1125 X95.549 Y109.126 E28.83687
G0 F9000 X95.549 Y111.389
G1 F1125 X127.989 Y143.828 E31.0341
G0 F9000 X125.976 Y144.077
G1 F1125 X95.549 Y113.651 E33.09498
G0 F9000 X95.549 Y115.914
G1 F1125 X123.741 Y144.106 E35.00452
G0 F9000 X121.478 Y144.106
G1 F1125 X95.549 Y118.177 E36.76077
G0 F9000 X95.549 Y120.44
G1 F1125 X119.216 Y144.106 E38.36378
G0 F9000 X116.953 Y144.106
G1 F1125 X95.549 Y122.702 E39.81354
G0 F9000 X95.549 Y124.965
G1 F1125 X114.69 Y144.106 E41.11002
G0 F9000 X112.427 Y144.106
G1 F1125 X95.549 Y127.228 E42.25322
G0 F9000 X95.549 Y129.491
G1 F1125 X110.165 Y144.106 E43.24318
G0 F9000 X107.758 Y143.962
G1 F1125 X95.701 Y131.905 E44.05983
G0 F9000 X96.491 Y134.958
G1 F1125 X104.706 Y143.172 E44.61623
G1 F2700 E39.61623
G0 F9000 X104.265 Y144.577
G0 X106.262 Y145.176
G0 X107.578 Y145.417
G0 X109.763 Y145.572
G0 X125.94 Y145.554
G0 X128.008 Y145.325
G0 X129.323 Y145.029
G0 X131.289 Y144.358
G0 X132.507 Y143.786
G0 X134.273 Y142.707
G0 X135.353 Y141.876
G0 X136.858 Y140.422
G0 X137.716 Y139.389
G0 X138.863 Y137.651
G0 X139.419 Y136.567
G0 X140.152 Y134.71
G0 X138.764 Y134.239
G1 F2700 E44.61623
G1 F1125 X99.603 Y95.078 E47.26873
G0 F9000 X100.784 Y93.996
G1 F1125 X139.213 Y132.425 E49.87165
G0 F9000 X139.431 Y130.38
G1 F1125 X102.102 Y93.051 E52.40006
G0 F9000 X103.55 Y92.236
G1 F1125 X139.449 Y128.135 E54.83161
G0 F9000 X139.449 Y125.872
G1 F1125 X105.146 Y91.57 E57.15503
G0 F9000 X106.933 Y91.094
G1 F1125 X139.449 Y123.61 E59.35744
G0 F9000 X139.449 Y121.347
G1 F1125 X108.936 Y90.834 E61.42418
G0 F9000 X111.165 Y90.8
G1 F1125 X139.449 Y119.084 E63.33995
G0 F9000 X139.449 Y116.821
G1 F1125 X113.428 Y90.8 E65.10244
G0 F9000 X115.691 Y90.8
G1 F1125 X139.449 Y114.559 E66.71167
G0 F9000 X139.449 Y112.296
G1 F1125 X117.953 Y90.8 E68.16767
G0 F9000 X120.216 Y90.8
G1 F1125 X139.449 Y110.033 E69.47038
G0 F9000 X139.449 Y107.77
G1 F1125 X122.479 Y90.8 E70.61981
G0 F9000 X124.742 Y90.8
G1 F1125 X139.449 Y105.508 E71.616
G0 F9000 X139.314 Y103.11
G1 F1125 X127.142 Y90.938 E72.44045
G0 F9000 X130.143 Y91.677
G1 F1125 X138.565 Y100.098 E73.01086
G1 F2700 E68.01086
G0 F300 X138.565 Y100.098 Z0.324
G0 F9000 X139.934 Y99.573
G0 X139.128 Y97.743
G0 X138.046 Y95.972
G0 X137.218 Y94.897
G0 X135.764 Y93.392
G0 X134.731 Y92.534
G0 X132.993 Y91.387
G0 X131.788 Y90.769
G0 X129.87 Y90.036
G0 X128.566 Y89.694
G0 X126.481 Y89.387
G0 X125.237 Y89.336
G0 X109.06 Y89.354
G0 X106.992 Y89.583
G0 X105.677 Y89.879
G0 X103.711 Y90.55
G0 X102.493 Y91.122
G0 X100.727 Y92.201
G0 X101.473 Y93.46
;TIME_ELAPSED:92.351059
;LAYER:-5
;TYPE:SUPPORT
G1 F2700 E73.01086
G1 F1125 X100.608 Y94.135 E73.07655
G1 X99.826 Y94.847 E73.13986
G1 X99.231 Y95.462 E73.19109
G1 X98.565 Y96.255 E73.25309
G1 X97.903 Y97.169 E73.32066
G1 X97.77 Y97.391 E73.33615
G1 X102.18 Y92.981 E73.70953
G1 X103.253 Y92.373 E73.78336
G1 X104.11 Y91.969 E73.84009
G1 X104.919 Y91.655 E73.89204
G1 X96.404 Y100.171 E74.61302
G1 X96.145 Y100.935 E74.66131
G1 X95.83 Y102.158 E74.73692
G1 X106.908 Y91.081 E75.67481
G1 X108.189 Y90.886 E75.75239
G1 X108.542 Y90.861 E75.77357
G1 X95.593 Y103.81 E76.86992
G1 X95.541 Y105.276 E76.95774
G1 X110.018 Y90.799 E78.18346
G1 X111.432 Y90.799 E78.26811
G1 X95.55 Y106.681 E79.61279
G1 X95.55 Y108.096 E79.6975
G1 X112.847 Y90.799 E81.16198
G1 X114.261 Y90.799 E81.24663
G1 X95.55 Y109.51 E82.83082
G1 X95.55 Y110.924 E82.91548
G1 X115.675 Y90.799 E84.61939
G1 X117.089 Y90.799 E84.70404
G1 X95.55 Y112.338 E86.52768
G1 X95.55 Y113.752 E86.61233
G1 X118.503 Y90.8 E88.55564
G1 X119.917 Y90.8 E88.64029
G1 X95.55 Y115.167 E90.70336
G1 X95.55 Y116.581 E90.78801
G1 X121.331 Y90.8 E92.9708
G1 X122.745 Y90.8 E93.05545
G1 X95.55 Y117.995 E95.35796
G1 X95.55 Y119.409 E95.44261
G1 X124.16 Y90.8 E97.86488
G1 X125.235 Y90.8 E97.92924
G1 X125.56 Y90.813 E97.94871
G1 X95.55 Y120.824 E100.48959
G1 X95.55 Y122.238 E100.57425
G1 X126.881 Y90.907 E103.22693
G1 X127.407 Y90.967 E103.25863
G1 X128.105 Y91.097 E103.30113
G1 X95.55 Y123.652 E106.05745
G1 X95.55 Y125.066 E106.1421
G1 X129.246 Y91.37 E108.99503
G1 X130.298 Y91.732 E109.06163
G1 X95.55 Y126.48 E112.00362
G1 X95.55 Y127.895 E112.08834
G1 X131.294 Y92.151 E115.11465
G1 X132.228 Y92.631 E115.17752
G1 X95.55 Y129.309 E118.28292
G1 X95.557 Y130.336 E118.34441
G1 X95.582 Y130.691 E118.36571
G1 X133.102 Y93.171 E121.5424
G1 X133.923 Y93.764 E121.60303
G1 X95.713 Y131.975 E124.83818
G1 X95.799 Y132.549 E124.87293
G1 X95.938 Y133.164 E124.91068
G1 X134.702 Y94.4 E128.19269
G1 X135.419 Y95.097 E128.25255
G1 X96.231 Y134.285 E131.57046
G1 X96.625 Y135.305 E131.63593
G1 X136.093 Y95.837 E134.97754
G1 X136.714 Y96.631 E135.03789
G1 X97.058 Y136.286 E138.39538
G1 X97.57 Y137.189 E138.45753
G1 X137.288 Y97.47 E141.82035
G1 X137.8 Y98.373 E141.8825
G1 X98.114 Y138.059 E145.24257
G1 X98.735 Y138.852 E145.30287
G1 X138.262 Y99.325 E148.64949
G1 X138.659 Y100.342 E148.71485
G1 X99.395 Y139.606 E152.03919
G1 X99.597 Y139.83 E152.05725
G1 X100.1 Y140.316 E152.09912
G1 X138.991 Y101.424 E155.39193
G1 X139.196 Y102.343 E155.4483
G1 X139.234 Y102.596 E155.46362
G1 X100.851 Y140.979 E158.71337
G1 X101.671 Y141.573 E158.77399
G1 X139.39 Y103.854 E161.96752
G1 X139.441 Y104.571 E162.01056
G1 X139.449 Y105.209 E162.04876
G1 X102.534 Y142.124 E165.17422
G1 X102.855 Y142.319 E165.19671
G1 X103.449 Y142.624 E165.23668
G1 X139.449 Y106.623 E168.28472
G1 X139.449 Y108.038 E168.36943
G1 X104.427 Y143.059 E171.33458
G1 X104.755 Y143.196 E171.35586
G1 X105.463 Y143.438 E171.40065
G1 X139.449 Y109.452 E174.27813
G1 X139.449 Y110.866 E174.36278
G1 X106.566 Y143.748 E177.14683
G1 X107.759 Y143.97 E177.21948
G1 X139.449 Y112.28 E179.90256
G1 X139.449 Y113.694 E179.98721
G1 X109.065 Y144.078 E182.55972
G1 X109.763 Y144.106 E182.60154
G1 X110.451 Y144.106 E182.64273
G1 X139.449 Y115.109 E185.09785
G1 X139.449 Y116.523 E185.1825
G1 X111.865 Y144.106 E187.5179
G1 X113.279 Y144.106 E187.60255
G1 X139.449 Y117.937 E189.81823
G1 X139.449 Y119.351 E189.90288
G1 X114.694 Y144.106 E191.9988
G1 X116.108 Y144.106 E192.08346
G1 X139.449 Y120.766 E194.05961
G1 X139.449 Y122.18 E194.14427
G1 X117.521 Y144.107 E196.00079
G1 X118.936 Y144.107 E196.08551
G1 X139.449 Y123.594 E197.82227
G1 X139.449 Y125.008 E197.90692
G1 X120.35 Y144.107 E199.52397
G1 X121.764 Y144.107 E199.60862
G1 X139.449 Y126.422 E201.10595
G1 X139.449 Y127.837 E201.19066
G1 X123.178 Y144.107 E202.56823
G1 X124.592 Y144.107 E202.65288
G1 X139.449 Y129.251 E203.91073
G1 X139.449 Y129.879 E203.94833
G1 X139.42 Y130.694 E203.99715
G1 X126.04 Y144.074 E205.12999
G1 X126.821 Y144.019 E205.17686
G1 X127.632 Y143.896 E205.22597
G1 X139.239 Y132.289 E206.20869
G1 X139.123 Y132.923 E206.24728
G1 X138.812 Y134.131 E206.32196
G1 X129.496 Y143.447 E207.11071
G1 X129.829 Y143.348 E207.13151
G1 X130.888 Y142.937 E207.19952
G1 X131.896 Y142.461 E207.26626
G1 X137.772 Y136.584 E207.7638
G1 X137.661 Y136.801 E207.77839
G1 X137.095 Y137.736 E207.84382
G1 X136.434 Y138.651 E207.9114
G1 X135.769 Y139.442 E207.97327
G1 X135.172 Y140.06 E208.02471
G1 X134.392 Y140.77 E208.08786
G1 X133.526 Y141.446 E208.15363
G1 X132.719 Y141.979 E208.21153
G1 F2700 E203.21153
G0 F300 X132.719 Y141.979 Z0.444
G0 F9000 X133.332 Y143.323
G0 X131.467 Y144.283
G0 X130.208 Y144.764
G0 X128.184 Y145.293
G0 X126.871 Y145.484
G0 X125.197 Y145.573
G0 X108.693 Y145.534
G0 X107.367 Y145.387
G0 X105.34 Y144.935
G0 X104.05 Y144.495
G0 X102.17 Y143.613
G0 X101.127 Y142.975
G0 X99.575 Y141.806
G0 X100.515 Y140.678
;TIME_ELAPSED:215.302956
;LAYER:-4
;TYPE:SUPPORT-INTERFACE
G1 F2700 E208.21153
G1 F1500 X98.915 Y139.078 E208.25669
G0 F9000 X99.597 Y139.83
G1 F1500 X100.212 Y140.424 E208.27375
G1 X101.005 Y141.091 E208.29443
G1 X101.92 Y141.752 E208.31695
G1 X102.514 Y142.112 E208.33081
G1 X97.541 Y137.139 E208.47116
G1 X97.123 Y136.401 E208.48809
G1 X96.904 Y135.937 E208.49833
G1 X103.738 Y142.771 E208.6912
G1 X104.711 Y143.177 E208.71224
G1 X96.491 Y134.957 E208.94422
G1 X96.307 Y134.481 E208.95441
G1 X96.193 Y134.094 E208.96246
G1 X105.584 Y143.485 E209.22749
G1 X106.345 Y143.68 E209.24317
G1 X95.967 Y133.303 E209.53605
G1 X95.805 Y132.574 E209.55095
G1 X107.072 Y143.842 E209.86894
G1 X107.768 Y143.972 E209.88307
G1 X95.701 Y131.905 E210.22363
G1 X95.636 Y131.475 E210.23231
G1 X95.621 Y131.259 E210.23663
G1 X108.393 Y144.031 E210.59708
G1 X108.644 Y144.06 E210.60212
G1 X109.002 Y144.075 E210.60928
G1 X95.579 Y130.652 E210.9881
G1 X95.557 Y130.336 E210.99442
G1 X95.552 Y130.059 E210.99995
G1 X109.592 Y144.099 E211.39619
G1 X110.165 Y144.106 E211.40763
G1 X95.549 Y129.491 E211.82011
G1 X95.549 Y128.925 E211.8314
G1 X110.73 Y144.106 E212.25984
G1 X111.296 Y144.106 E212.27114
G1 X95.549 Y128.359 E212.71555
G1 X95.549 Y127.793 E212.72685
G1 X111.862 Y144.106 E213.18724
G1 X112.427 Y144.106 E213.19851
G1 X95.549 Y127.228 E213.67484
G1 X95.549 Y126.662 E213.68614
G1 X112.993 Y144.106 E214.17845
G1 X113.559 Y144.106 E214.18974
G1 X95.549 Y126.096 E214.69802
G1 X95.549 Y125.531 E214.7093
G1 X114.124 Y144.106 E215.23353
G1 X114.69 Y144.106 E215.24482
G1 X95.549 Y124.965 E215.78502
G1 X95.549 Y124.399 E215.79632
G1 X115.256 Y144.106 E216.35249
G1 X115.821 Y144.106 E216.36377
G1 X95.549 Y123.834 E216.93588
G1 X95.549 Y123.268 E216.94718
G1 X116.387 Y144.106 E217.53527
G1 X116.953 Y144.106 E217.54657
G1 X95.549 Y122.702 E218.15064
G1 X95.549 Y122.137 E218.16191
G1 X117.519 Y144.106 E218.78194
G1 X118.085 Y144.106 E218.79323
G1 X95.549 Y121.571 E219.42923
G1 X95.549 Y121.005 E219.44053
G1 X118.651 Y144.106 E220.0925
G1 X119.216 Y144.106 E220.10378
G1 X95.549 Y120.44 E220.7717
G1 X95.549 Y119.874 E220.78299
G1 X119.782 Y144.106 E221.46689
G1 X120.348 Y144.106 E221.47818
G1 X95.549 Y119.308 E222.17805
G1 X95.549 Y118.743 E222.18932
G1 X120.913 Y144.106 E222.90514
G1 X121.479 Y144.106 E222.91643
G1 X95.549 Y118.177 E223.64822
G1 X95.549 Y117.611 E223.65951
G1 X122.045 Y144.106 E224.40727
G1 X122.61 Y144.106 E224.41855
G1 X95.549 Y117.045 E225.18227
G1 X95.549 Y116.48 E225.19354
G1 X123.176 Y144.106 E225.97322
G1 X123.742 Y144.106 E225.98452
G1 X95.549 Y115.914 E226.78017
G1 X95.549 Y115.348 E226.79147
G1 X124.307 Y144.106 E227.60308
G1 X124.873 Y144.106 E227.61437
G1 X95.549 Y114.783 E228.44195
G1 X95.549 Y114.217 E228.45324
G1 X125.449 Y144.116 E229.29707
G1 X125.976 Y144.077 E229.30762
G1 X95.549 Y113.651 E230.16632
G1 X95.549 Y113.086 E230.17759
G1 X126.504 Y144.041 E231.05121
G1 X127.034 Y144.004 E231.06181
G1 X95.549 Y112.52 E231.95037
G1 X95.549 Y111.954 E231.96167
G1 X127.509 Y143.914 E232.86365
G1 X127.994 Y143.834 E232.87346
G1 X95.549 Y111.389 E233.78913
G1 X95.549 Y110.823 E233.80042
G1 X128.457 Y143.73 E234.72914
G1 X128.92 Y143.628 E234.7386
G1 X95.549 Y110.257 E235.68041
G1 X95.549 Y109.692 E235.69168
G1 X129.348 Y143.49 E236.64555
G1 X129.785 Y143.361 E236.65464
G1 X95.549 Y109.126 E237.62084
G1 X95.549 Y108.56 E237.63213
G1 X130.195 Y143.206 E238.60992
G1 X130.602 Y143.047 E238.61864
G1 X95.549 Y107.995 E239.6079
G1 X95.549 Y107.429 E239.61919
G1 X131.003 Y142.882 E240.61977
G1 X131.387 Y142.701 E240.62824
G1 X95.549 Y106.863 E241.63966
G1 X95.549 Y106.297 E241.65096
G1 X131.77 Y142.518 E242.67319
G1 X132.131 Y142.313 E242.68148
G1 X95.549 Y105.732 E243.71389
G1 X95.549 Y105.166 E243.72518
G1 X132.492 Y142.108 E244.76778
G1 X132.852 Y141.903 E244.77605
G1 X95.564 Y104.615 E245.8284
G1 X95.584 Y104.069 E245.8393
G1 X133.185 Y141.67 E246.90048
G1 X133.526 Y141.446 E246.90862
G1 X95.636 Y103.555 E247.97797
G1 X95.69 Y103.044 E247.98823
G1 X133.843 Y141.197 E249.06499
G1 X134.161 Y140.949 E249.07304
G1 X95.769 Y102.558 E250.15653
G1 X95.857 Y102.08 E250.16623
G1 X134.473 Y140.695 E251.25604
G1 X134.769 Y140.426 E251.26402
G1 X95.967 Y101.624 E252.3591
G1 X96.083 Y101.174 E252.36837
G1 X135.072 Y140.164 E253.46874
G1 X135.35 Y139.876 E253.47673
G1 X96.211 Y100.737 E254.58131
G1 X96.355 Y100.315 E254.59021
G1 X135.628 Y139.588 E255.69858
G1 X135.896 Y139.29 E255.70658
G1 X96.504 Y99.898 E256.81831
G1 X96.671 Y99.499 E256.82694
G1 X136.155 Y138.983 E257.94126
