;FLAVOR:Marlin
;TIME:2758
;Filament used: 1.21112m
;Layer height: 0.12
;MINX:85.784
;MINY:95.151
;MINZ:0.144
;MAXX:147.929
;MAXY:140.91
;MAXZ:8.754
;Generated with Cura_SteamEngine 5.2.1
M140 S60
M105
M190 S60
M104 S200
M105
M109 S200
M82 ;absolute extrusion mode
; Ender 3 Custom Start G-code
G92 E0 ; Reset Extruder
G28 ; Home all axes
G1 Z2.0 F3000 ; Move Z Axis up little to prevent scratching of Heat Bed
G1 X0.1 Y20 Z0.3 F5000.0 ; Move to start position
G1 X0.1 Y200.0 Z0.3 F1500.0 E15 ; Draw the first line
G1 X0.4 Y200.0 Z0.3 F5000.0 ; Move to side a little
G1 X0.4 Y20 Z0.3 F1500.0 E30 ; Draw the second line
G92 E0 ; Reset Extruder
G1 Z2.0 F3000 ; Move Z Axis up little to prevent scratching of Heat Bed
G1 X5 Y20 Z0.3 F5000.0 ; Move over to prevent blob squish
G92 E0
G92 E0
G1 F2700 E-5
;LAYER_COUNT:67
;LAYER:-6
M107
G0 F9000 X90.626 Y99.955 Z0.144
;TYPE:SUPPORT-INTERFACE
G1 F2700 E0
G1 F1125 X89.896 Y100.824 E0.05436
G1 X89.258 Y101.716 E0.10688
G1 X88.679 Y102.68 E0.16074
G1 X88.227 Y103.56 E0.20812
G1 X87.809 Y104.545 E0.25937
G1 X87.469 Y105.549 E0.31014
G1 X87.185 Y106.653 E0.36474
G1 X87.022 Y107.535 E0.40769
G1 X86.897 Y108.609 E0.45948
G1 X86.849 Y109.759 E0.51461
G1 X86.85 Y125.299 E1.25889
G1 X86.857 Y125.696 E1.27791
G1 X86.938 Y126.855 E1.33355
G1 X87.082 Y127.827 E1.38061
G1 X87.327 Y128.947 E1.43552
G1 X87.665 Y130.051 E1.49082
G1 X88.049 Y131.038 E1.54155
G1 X88.435 Y131.859 E1.585
G1 X88.988 Y132.857 E1.63964
G1 X89.579 Y133.749 E1.69089
G1 X90.238 Y134.604 E1.74259
G1 X91.003 Y135.446 E1.79708
G1 X91.654 Y136.073 E1.84037
G1 X92.526 Y136.806 E1.89493
G1 X93.408 Y137.435 E1.94681
G1 X94.38 Y138.02 E2.00115
G1 X95.247 Y138.467 E2.04787
G1 X96.155 Y138.853 E2.09512
G1 X97.24 Y139.228 E2.1501
G1 X98.352 Y139.514 E2.20509
G1 X99.317 Y139.693 E2.2521
G1 X100.309 Y139.802 E2.2999
G1 X101.44 Y139.849 E2.35411
G1 X116.29 Y139.85 E3.06535
G1 X116.761 Y139.843 E3.08791
G1 X117.212 Y139.85 E3.10951
G1 X120.059 Y139.85 E3.24587
G1 X121.573 Y139.78 E3.31846
G1 X122.636 Y139.636 E3.36984
G1 X123.748 Y139.395 E3.42433
G1 X124.619 Y139.146 E3.46772
G1 X124.807 Y139.085 E3.47718
G1 X125.743 Y138.831 E3.52363
G1 X126.457 Y138.754 E3.55803
G1 X127.147 Y138.771 E3.59109
G1 X127.648 Y138.809 E3.61515
G1 X128.7 Y138.815 E3.66554
G1 X129.622 Y138.759 E3.70978
G1 X130.757 Y138.612 E3.76459
G1 X131.884 Y138.368 E3.81982
G1 X132.847 Y138.091 E3.86781
G1 X133.906 Y137.69 E3.92205
G1 X134.788 Y137.289 E3.96845
G1 X135.651 Y136.819 E4.01552
G1 X136.625 Y136.199 E4.07081
G1 X137.537 Y135.504 E4.12573
G1 X138.274 Y134.86 E4.17261
G1 X139.024 Y134.102 E4.22368
G1 X139.722 Y133.282 E4.27525
G1 X140.402 Y132.344 E4.33074
G1 X140.937 Y131.486 E4.37917
G1 X144.914 Y124.599 E4.76007
G1 X145.223 Y124.03 E4.79108
G1 X145.662 Y123.117 E4.8396
G1 X146.068 Y122.06 E4.89383
G1 X146.381 Y121.035 E4.94516
G1 X146.604 Y120.076 E4.99232
G1 X146.768 Y119.031 E5.04298
G1 X146.856 Y117.953 E5.09478
G1 X146.864 Y116.979 E5.14143
G1 X146.799 Y115.839 E5.19612
G1 X146.635 Y114.699 E5.25128
G1 X146.43 Y113.739 E5.2983
G1 X146.134 Y112.713 E5.34944
G1 X145.787 Y111.784 E5.39694
G1 X145.357 Y110.828 E5.44714
G1 X144.841 Y109.873 E5.49913
G1 X144.209 Y108.892 E5.55502
G1 X143.971 Y108.49 E5.5774
G1 X143.694 Y107.887 E5.60918
G1 X143.491 Y107.252 E5.64111
G1 X143.194 Y105.962 E5.70451
G1 X142.914 Y105.029 E5.75116
G1 X142.498 Y103.962 E5.80601
G1 X142.112 Y103.141 E5.84947
G1 X141.597 Y102.211 E5.90038
G1 X140.976 Y101.265 E5.95458
G1 X140.306 Y100.394 E6.00721
G1 X139.542 Y99.554 E6.06159
G1 X138.893 Y98.927 E6.10481
G1 X138.024 Y98.197 E6.15917
G1 X137.146 Y97.568 E6.2109
G1 X136.168 Y96.98 E6.26555
G1 X135.288 Y96.528 E6.31294
G1 X134.303 Y96.11 E6.36418
G1 X133.299 Y95.77 E6.41495
G1 X132.195 Y95.486 E6.46955
G1 X131.313 Y95.323 E6.51251
G1 X130.239 Y95.198 E6.56429
G1 X129.107 Y95.151 E6.61856
G1 X116.737 Y95.157 E7.21101
G1 X116.286 Y95.151 E7.23262
G1 X101.397 Y95.151 E7.94572
G1 X101.003 Y95.158 E7.96459
G1 X99.846 Y95.239 E8.02014
G1 X98.871 Y95.383 E8.06735
G1 X97.746 Y95.629 E8.1225
G1 X96.738 Y95.932 E8.17291
G1 X95.661 Y96.35 E8.22824
G1 X94.84 Y96.736 E8.27169
G1 X93.91 Y97.251 E8.32261
G1 X92.962 Y97.874 E8.37694
G1 X92.093 Y98.542 E8.42944
G1 X91.253 Y99.306 E8.48382
G1 X90.626 Y99.955 E8.52704
G0 F9000 X91.044 Y100.095
G1 F1125 X129.324 Y138.375 E11.11987
G0 F9000 X131.296 Y138.084
G1 F1125 X92.198 Y98.987 E13.76806
G0 F9000 X93.483 Y98.009
G1 F1125 X133.056 Y137.582 E16.44847
G0 F9000 X134.646 Y136.909
G1 F1125 X94.897 Y97.16 E19.1408
G0 F9000 X96.467 Y96.467
G1 F1125 X136.074 Y136.074 E21.8235
G0 F9000 X137.375 Y135.113
G1 F1125 X98.201 Y95.938 E24.47692
G0 F9000 X100.144 Y95.619
G1 F1125 X138.544 Y134.018 E27.07784
G0 F9000 X139.581 Y132.793
G1 F1125 X102.338 Y95.55 E29.60043
G0 F9000 X104.601 Y95.55
G1 F1125 X140.492 Y131.441 E32.03144
G0 F9000 X141.325 Y130.012
G1 F1125 X106.864 Y95.55 E34.36562
G0 F9000 X109.127 Y95.551
G1 F1125 X142.153 Y128.577 E36.60258
G0 F9000 X142.982 Y127.143
G1 F1125 X111.39 Y95.551 E38.74241
G0 F9000 X113.653 Y95.551
G1 F1125 X143.81 Y125.708 E40.78504
G0 F9000 X144.636 Y124.271
G1 F1125 X115.916 Y95.551 E42.73033
G0 F9000 X118.183 Y95.556
G1 F1125 X145.374 Y122.747 E44.57207
G0 F9000 X145.953 Y121.063
G1 F1125 X120.445 Y95.555 E46.2998
G0 F9000 X122.707 Y95.554
G1 F1125 X146.338 Y119.185 E47.90041
G0 F9000 X146.463 Y117.047
G1 F1125 X124.969 Y95.553 E49.35626
G0 F9000 X127.23 Y95.552
G1 F1125 X146.184 Y114.506 E50.64008
G0 F9000 X145.038 Y111.097
G1 F1125 X129.509 Y95.568 E51.69191
G0 F9000 X132.075 Y95.871
G1 F1125 X142.967 Y106.763 E52.42966
G0 F9000 X141.714 Y103.247
G1 F1125 X135.611 Y97.144 E52.84303
G1 F2700 E47.84303
G0 F9000 X136.281 Y95.84
G0 X137.837 Y96.754
G0 X139.481 Y98.025
G0 X140.438 Y98.948
G0 X141.771 Y100.548
G0 X142.513 Y101.668
G0 X143.473 Y103.533
G0 X147.108 Y112.279
G0 X147.488 Y113.588
G0 X147.845 Y115.628
G0 X147.929 Y116.964
G0 X147.835 Y119.044
G0 X147.626 Y120.383
G0 X147.078 Y122.398
G0 X146.597 Y123.628
G0 X145.839 Y125.126
G0 X141.291 Y132.931
G0 X140.488 Y134.025
G0 X139.085 Y135.554
G0 X138.07 Y136.443
G0 X136.353 Y137.641
G0 X135.161 Y138.29
G0 X133.257 Y139.071
G0 X131.938 Y139.451
G0 X129.898 Y139.802
G0 X128.83 Y139.867
G0 X127.062 Y139.833
G0 X127.052 Y138.366
G1 F2700 E52.84303
G1 F1125 X90.021 Y101.334 E55.3513
G0 F9000 X89.129 Y102.705
G1 F1125 X125.033 Y138.609 E57.78319
G0 F9000 X123.252 Y139.092
G1 F1125 X88.38 Y104.219 E60.14521
G0 F9000 X87.792 Y105.894
G1 F1125 X121.289 Y139.391 E62.41407
G0 F9000 X119.084 Y139.449
G1 F1125 X87.398 Y107.763 E64.56027
G0 F9000 X87.249 Y109.876
G1 F1125 X116.815 Y139.442 E66.56286
G0 F9000 X114.558 Y139.448
G1 F1125 X87.249 Y112.139 E68.41259
G0 F9000 X87.249 Y114.402
G1 F1125 X112.295 Y139.448 E70.10904
G0 F9000 X110.032 Y139.448
G1 F1125 X87.249 Y116.664 E71.65223
G0 F9000 X87.249 Y118.927
G1 F1125 X107.769 Y139.447 E73.04212
G0 F9000 X105.506 Y139.447
G1 F1125 X87.249 Y121.19 E74.27872
G0 F9000 X87.249 Y123.453
G1 F1125 X103.243 Y139.447 E75.36205
G0 F9000 X100.96 Y139.427
G1 F1125 X87.259 Y125.726 E76.29006
G0 F9000 X87.602 Y128.331
G1 F1125 X98.376 Y139.105 E77.01982
G0 F9000 X94.786 Y137.779
G1 F1125 X88.924 Y131.916 E77.4169
G1 F2700 E72.4169
G0 F300 X88.924 Y131.916 Z0.324
G0 F9000 X87.483 Y132.336
G0 X86.662 Y130.409
G0 X86.276 Y129.128
G0 X85.894 Y127.07
G0 X85.784 Y125.197
G0 X85.823 Y108.693
G0 X85.97 Y107.367
G0 X86.422 Y105.34
G0 X86.862 Y104.05
G0 X87.744 Y102.17
G0 X88.453 Y101.011
G0 X89.724 Y99.367
G0 X90.647 Y98.41
G0 X92.248 Y97.077
G0 X92.565 Y96.867
G0 X94.192 Y95.872
G0 X94.952 Y97.123
;TIME_ELAPSED:97.681220
;LAYER:-5
;TYPE:SUPPORT
G1 F2700 E77.4169
G1 F1125 X93.978 Y97.675 E77.48393
G1 X93.172 Y98.21 E77.54185
G1 X92.307 Y98.885 E77.60753
G1 X91.525 Y99.596 E77.67081
G1 X90.931 Y100.211 E77.722
G1 X90.265 Y101.005 E77.78404
G1 X89.603 Y101.919 E77.85161
G1 X89.04 Y102.85 E77.91674
G1 X88.577 Y103.755 E77.9776
G1 X95.439 Y96.893 E78.55858
G1 X95.81 Y96.718 E78.58314
G1 X96.869 Y96.309 E78.65111
G1 X97.676 Y96.07 E78.70149
G1 X87.768 Y105.978 E79.54037
G1 X87.574 Y106.734 E79.5871
G1 X87.383 Y107.778 E79.65064
G1 X99.46 Y95.701 E80.67315
G1 X99.888 Y95.636 E80.69907
G1 X101.017 Y95.557 E80.76683
G1 X87.266 Y109.308 E81.93108
G1 X87.249 Y109.777 E81.95917
G1 X87.249 Y110.74 E82.01682
G1 X102.439 Y95.549 E83.30295
G1 X103.854 Y95.549 E83.38766
G1 X87.249 Y112.154 E84.79355
G1 X87.249 Y113.569 E84.87827
G1 X105.268 Y95.549 E86.40391
G1 X106.682 Y95.549 E86.48857
G1 X87.249 Y114.983 E88.13393
G1 X87.249 Y116.397 E88.21859
G1 X108.096 Y95.549 E89.98367
G1 X109.511 Y95.549 E90.06838
G1 X87.249 Y117.811 E91.95323
G1 X87.249 Y119.225 E92.03788
G1 X110.925 Y95.549 E94.04245
G1 X112.339 Y95.549 E94.1271
G1 X87.249 Y120.64 E96.25142
G1 X87.249 Y122.054 E96.33608
G1 X113.753 Y95.549 E98.58012
G1 X115.167 Y95.549 E98.66477
G1 X87.249 Y123.468 E101.02854
G1 X87.249 Y124.882 E101.11319
G1 X116.577 Y95.554 E103.59629
G1 X117.996 Y95.549 E103.68124
G1 X87.297 Y126.248 E106.28042
G1 X87.336 Y126.818 E106.31462
G1 X87.442 Y127.518 E106.35701
G1 X119.41 Y95.549 E109.06367
G1 X120.824 Y95.549 E109.14832
G1 X87.679 Y128.695 E111.95464
G1 X87.999 Y129.789 E112.02288
G1 X122.238 Y95.549 E114.92181
G1 X123.653 Y95.549 E115.00653
G1 X88.386 Y130.816 E117.99246
G1 X88.84 Y131.776 E118.05604
G1 X125.067 Y95.549 E121.12325
G1 X126.481 Y95.549 E121.2079
G1 X89.352 Y132.678 E124.35148
G1 X89.918 Y133.527 E124.41257
G1 X127.895 Y95.549 E127.62799
G1 X129.309 Y95.55 E127.71265
G1 X90.531 Y134.328 E130.99584
G1 X91.204 Y135.07 E131.05582
G1 X130.628 Y95.645 E134.39375
G1 X131.255 Y95.718 E134.43154
G1 X131.859 Y95.829 E134.46831
G1 X91.916 Y135.771 E137.8501
G1 X92.684 Y136.417 E137.91018
G1 X133.009 Y96.093 E141.32431
G1 X134.065 Y96.451 E141.39107
G1 X93.496 Y137.02 E144.8259
G1 X94.376 Y137.554 E144.88753
G1 X135.063 Y96.867 E148.33235
G1 X136.001 Y97.343 E148.39533
G1 X95.292 Y138.052 E151.84201
G1 X96.289 Y138.469 E151.90671
G1 X136.883 Y97.876 E155.34362
G1 X137.706 Y98.467 E155.40428
G1 X97.335 Y138.838 E158.82235
G1 X98.46 Y139.127 E158.89189
G1 X138.491 Y99.096 E162.28118
G1 X139.212 Y99.789 E162.34105
G1 X99.675 Y139.326 E165.6885
G1 X100.344 Y139.403 E165.72882
G1 X100.986 Y139.429 E165.76729
G1 X139.893 Y100.522 E169.06141
G1 X140.512 Y101.317 E169.12173
G1 X102.381 Y139.448 E172.35015
G1 X103.796 Y139.448 E172.43486
G1 X141.096 Y102.148 E175.59292
G1 X141.608 Y103.05 E175.65501
G1 X105.21 Y139.448 E178.7367
G1 X106.624 Y139.448 E178.82136
G1 X142.081 Y103.992 E181.82333
G1 X142.476 Y105.011 E181.88876
G1 X108.038 Y139.448 E184.80447
G1 X109.452 Y139.449 E184.88912
G1 X142.818 Y106.083 E187.7141
G1 X143.078 Y107.237 E187.78492
G1 X110.866 Y139.449 E190.5122
G1 X112.28 Y139.449 E190.59685
G1 X143.438 Y108.291 E193.23489
G1 X143.464 Y108.346 E193.23853
G1 X143.401 Y108.378 E193.24276
G1 X143.935 Y109.208 E193.30185
G1 X113.694 Y139.449 E195.86225
G1 X115.109 Y139.449 E195.94696
G1 X144.49 Y110.068 E198.43455
G1 X144.987 Y110.985 E198.49699
G1 X116.526 Y139.445 E200.90664
G1 X117.937 Y139.449 E200.99112
G1 X145.425 Y111.961 E203.31843
G1 X145.809 Y112.991 E203.38424
G1 X119.351 Y139.449 E205.62434
G1 X120.039 Y139.449 E205.66553
G1 X120.801 Y139.413 E205.7112
G1 X146.101 Y114.113 E207.85327
G1 X146.241 Y114.762 E207.89301
G1 X146.318 Y115.31 E207.92614
G1 X122.357 Y139.271 E209.95484
G1 X122.549 Y139.245 E209.96644
G1 X123.58 Y139.029 E210.0295
G1 X124.191 Y138.851 E210.0676
G1 X146.441 Y116.601 E211.95143
G1 X146.463 Y116.966 E211.97332
G1 X146.454 Y118.003 E212.03541
G1 X126.065 Y138.392 E213.76167
G1 X126.432 Y138.354 E213.78376
G1 X127.14 Y138.368 E213.82616
G1 X127.477 Y138.394 E213.84639
G1 X146.272 Y119.599 E215.4377
G1 X146.221 Y119.928 E215.45763
G1 X145.993 Y120.939 E215.51968
G1 X145.832 Y121.453 E215.55192
G1 X128.882 Y138.404 E216.98706
G1 X129.577 Y138.36 E217.02876
G1 X130.452 Y138.248 E217.08157
G1 X144.873 Y123.827 E218.30254
G1 X144.81 Y123.957 E218.31119
G1 X144.57 Y124.394 E218.34104
G1 X143 Y127.114 E218.52906
G1 X132.275 Y137.839 E219.43711
G1 X132.698 Y137.716 E219.46348
G1 X133.673 Y137.356 E219.52571
G1 X134.589 Y136.939 E219.58596
G1 X141.069 Y130.459 E220.1346
G1 X140.6 Y131.272 E220.19079
G1 X140.075 Y132.111 E220.25004
G1 X139.397 Y133.047 E220.31924
G1 X138.743 Y133.816 E220.37967
G1 X137.994 Y134.573 E220.44343
G1 X137.292 Y135.186 E220.49922
G1 X136.39 Y135.874 E220.56714
G1 X135.458 Y136.469 E220.63334
G1 X134.616 Y136.926 E220.69069
G1 F2700 E215.69069
G0 F300 X134.616 Y136.926 Z0.444
G0 F9000 X135.368 Y138.186
G0 X137.149 Y137.128
G0 X138.219 Y136.321
G0 X139.736 Y134.895
G0 X140.616 Y133.863
G0 X141.854 Y132.029
G0 X146.175 Y124.508
G0 X147.017 Y122.575
G0 X147.413 Y121.3
G0 X147.81 Y119.256
G0 X147.921 Y117.902
G0 X147.865 Y115.829
G0 X147.683 Y114.502
G0 X147.176 Y112.483
G0 X146.707 Y111.221
G0 X143.064 Y102.664
G0 X142.417 Y101.51
G0 X141.197 Y99.806
G0 X140.301 Y98.805
G0 X139.042 Y97.678
G0 X137.837 Y96.754
G0 X136.958 Y97.926
;TIME_ELAPSED:228.005419
;LAYER:-4
;TYPE:SUPPORT-INTERFACE
G1 F2700 E220.69069
G1 F1500 X140.892 Y101.86 E220.80172
G1 X140.642 Y101.482 E220.81076
G1 X139.961 Y100.609 E220.83286
G1 X139.249 Y99.827 E220.85396
G1 X138.634 Y99.233 E220.87103
G1 X137.841 Y98.565 E220.89172
G1 X136.927 Y97.903 E220.91424
G1 X135.991 Y97.338 E220.93606
G1 X135.608 Y97.141 E220.94465
G1 X141.726 Y103.259 E221.11732
G1 X142.127 Y104.111 E221.13611
G1 X142.199 Y104.298 E221.14011
G1 X134.556 Y96.655 E221.35581
G1 X134.092 Y96.461 E221.36585
G1 X133.644 Y96.309 E221.37529
G1 X142.552 Y105.217 E221.62669
G1 X142.788 Y106.019 E221.64337
G1 X132.83 Y96.061 E221.92441
G1 X132.074 Y95.87 E221.93997
G1 X142.973 Y106.769 E222.24756
G1 X143.137 Y107.499 E222.26249
G1 X131.369 Y95.731 E222.59461
G1 X130.73 Y95.658 E222.60745
G1 X143.433 Y108.361 E222.96595
G1 X143.401 Y108.378 E222.96668
G1 X144.34 Y109.833 E223.00123
G1 X130.099 Y95.592 E223.40315
G1 X129.509 Y95.568 E223.41493
G1 X145.039 Y111.098 E223.85322
G1 X145.41 Y111.92 E223.87122
G1 X145.479 Y112.104 E223.87514
G1 X128.926 Y95.55 E224.34231
G1 X128.36 Y95.55 E224.35361
G1 X145.796 Y112.987 E224.84571
G1 X146.027 Y113.783 E224.86225
G1 X127.794 Y95.55 E225.37682
G1 X127.229 Y95.55 E225.3881
G1 X146.187 Y114.508 E225.92313
G1 X146.241 Y114.762 E225.92831
G1 X146.302 Y115.189 E225.93692
G1 X126.663 Y95.55 E226.49118
G1 X126.097 Y95.55 E226.50247
G1 X146.395 Y115.848 E227.07532
G1 X146.434 Y116.452 E227.0874
G1 X125.531 Y95.55 E227.67732
G1 X124.966 Y95.55 E227.68859
G1 X146.463 Y117.047 E228.29528
G1 X146.458 Y117.608 E228.30648
G1 X124.4 Y95.55 E228.929
G1 X123.834 Y95.55 E228.9403
G1 X146.436 Y118.152 E229.57818
G1 X146.391 Y118.673 E229.58861
G1 X123.269 Y95.55 E230.24118
G1 X122.703 Y95.55 E230.25247
G1 X146.338 Y119.185 E230.91951
G1 X146.262 Y119.674 E230.92938
G1 X122.137 Y95.55 E231.61023
G1 X121.572 Y95.55 E231.6215
G1 X146.172 Y120.15 E232.31577
G1 X146.067 Y120.611 E232.3252
G1 X121.006 Y95.55 E233.03248
G1 X120.44 Y95.55 E233.04377
G1 X145.954 Y121.064 E233.76383
G1 X145.82 Y121.495 E233.77284
G1 X119.875 Y95.55 E234.50506
G1 X119.309 Y95.55 E234.51636
G1 X145.693 Y121.935 E235.26099
G1 X145.533 Y122.34 E235.26968
G1 X118.743 Y95.55 E236.02575
G1 X118.178 Y95.55 E236.03702
G1 X145.372 Y122.745 E236.80451
G1 X145.211 Y123.149 E236.81319
G1 X117.612 Y95.55 E237.59209
G1 X117.048 Y95.552 E237.60335
G1 X145.02 Y123.524 E238.39278
G1 X144.835 Y123.905 E238.40123
G1 X116.483 Y95.553 E239.20139
G1 X115.914 Y95.549 E239.21274
G1 X144.637 Y124.273 E240.02338
G1 X144.432 Y124.633 E240.03165
G1 X115.348 Y95.549 E240.85246
G1 X114.783 Y95.549 E240.86374
G1 X144.225 Y124.992 E241.69467
G1 X144.018 Y125.35 E241.70292
G1 X114.217 Y95.549 E242.54397
G1 X113.651 Y95.549 E242.55526
G1 X143.811 Y125.709 E243.40644
G1 X143.604 Y126.068 E243.41471
G1 X113.086 Y95.549 E244.27601
G1 X112.52 Y95.549 E244.28731
G1 X143.397 Y126.427 E245.15874
G1 X143.19 Y126.785 E245.16699
G1 X111.954 Y95.549 E246.04854
G1 X111.389 Y95.549 E246.05981
G1 X142.983 Y127.144 E246.95148
G1 X142.776 Y127.503 E246.95975
G1 X110.823 Y95.549 E247.86154
