;FLAVOR:Marlin
;TIME:5130
;Filament used: 2.03408m
;Layer height: 0.12
;MINX:90.286
;MINY:83.586
;MINZ:0.144
;MAXX:143.549
;MAXY:151.415
;MAXZ:16.194
;Generated with Cura_SteamEngine 5.2.1
M140 S60
M105
M190 S60
M104 S200
M105
M109 S200
M82 ;absolute extrusion mode
; Ender 3 Custom Start G-code
G92 E0 ; Reset Extruder
G28 ; Home all axes
G1 Z2.0 F3000 ; Move Z Axis up little to prevent scratching of Heat Bed
G1 X0.1 Y20 Z0.3 F5000.0 ; Move to start position
G1 X0.1 Y200.0 Z0.3 F1500.0 E15 ; Draw the first line
G1 X0.4 Y200.0 Z0.3 F5000.0 ; Move to side a little
G1 X0.4 Y20 Z0.3 F1500.0 E30 ; Draw the second line
G92 E0 ; Reset Extruder
G1 Z2.0 F3000 ; Move Z Axis up little to prevent scratching of Heat Bed
G1 X5 Y20 Z0.3 F5000.0 ; Move over to prevent blob squish
G92 E0
G92 E0
G1 F2700 E-5
;LAYER_COUNT:129
;LAYER:-6
M107
G0 F9000 X94.289 Y118.338 Z0.144
;TYPE:SUPPORT-INTERFACE
G1 F2700 E0
G1 F1125 X93.71 Y118.949 E0.04032
G1 X93.179 Y119.616 E0.08115
G1 X92.704 Y120.336 E0.12246
G1 X92.294 Y121.1 E0.16399
G1 X91.966 Y121.87 E0.20407
G1 X91.698 Y122.699 E0.2458
G1 X91.506 Y123.534 E0.28684
G1 X91.388 Y124.393 E0.32837
G1 X91.35 Y125.326 E0.37309
G1 X91.351 Y140.744 E1.11153
G1 X91.37 Y141.298 E1.13808
G1 X91.445 Y142.091 E1.17623
G1 X91.606 Y142.945 E1.21785
G1 X91.836 Y143.764 E1.25859
G1 X92.141 Y144.56 E1.29942
G1 X92.52 Y145.339 E1.34091
G1 X92.953 Y146.061 E1.38123
G1 X93.471 Y146.767 E1.42317
G1 X94.037 Y147.41 E1.4642
G1 X94.649 Y147.99 E1.50458
G1 X95.316 Y148.521 E1.54541
G1 X96.037 Y148.997 E1.58679
G1 X96.801 Y149.407 E1.62832
G1 X97.506 Y149.707 E1.66502
G1 X98.392 Y150.001 E1.70973
G1 X99.232 Y150.194 E1.75101
G1 X100.094 Y150.312 E1.79268
G1 X101.026 Y150.35 E1.83735
G1 X133.958 Y150.35 E3.41462
G1 X134.498 Y150.33 E3.4405
G1 X135.293 Y150.255 E3.47874
G1 X136.146 Y150.094 E3.52032
G1 X136.955 Y149.867 E3.56056
G1 X137.756 Y149.561 E3.60163
G1 X138.532 Y149.184 E3.64295
G1 X139.269 Y148.741 E3.68413
G1 X139.966 Y148.229 E3.72555
G1 X140.611 Y147.662 E3.76668
G1 X141.19 Y147.051 E3.807
G1 X141.727 Y146.377 E3.84827
G1 X142.196 Y145.663 E3.88919
G1 X142.607 Y144.899 E3.93074
G1 X142.905 Y144.2 E3.96713
G1 X143.201 Y143.308 E4.01215
G1 X143.394 Y142.469 E4.05338
G1 X143.511 Y141.61 E4.0949
G1 X143.547 Y140.808 E4.13335
G1 X143.549 Y94.256 E6.36294
G1 X143.53 Y93.701 E6.38954
G1 X143.455 Y92.909 E6.42764
G1 X143.295 Y92.057 E6.46916
G1 X143.067 Y91.245 E6.50955
G1 X142.765 Y90.453 E6.55015
G1 X142.383 Y89.668 E6.59196
G1 X141.941 Y88.931 E6.63312
G1 X141.429 Y88.234 E6.67454
G1 X140.862 Y87.589 E6.71567
G1 X140.251 Y87.01 E6.75599
G1 X139.583 Y86.478 E6.79689
G1 X138.863 Y86.004 E6.83818
G1 X138.102 Y85.594 E6.87958
G1 X137.394 Y85.293 E6.91642
G1 X136.508 Y84.999 E6.96113
G1 X135.668 Y84.806 E7.00241
G1 X134.806 Y84.688 E7.04408
G1 X133.874 Y84.651 E7.08876
G1 X130.942 Y84.65 E7.22918
G1 X130.402 Y84.67 E7.25506
G1 X129.607 Y84.745 E7.29331
G1 X128.754 Y84.906 E7.33488
G1 X127.945 Y85.133 E7.37513
G1 X127.144 Y85.439 E7.4162
G1 X126.368 Y85.816 E7.45752
G1 X125.632 Y86.259 E7.49866
G1 X124.94 Y86.766 E7.53975
G1 X124.298 Y87.33 E7.58067
G1 X123.709 Y87.948 E7.62156
G1 X123.176 Y88.619 E7.66261
G1 X122.712 Y89.324 E7.70303
G1 X122.295 Y90.1 E7.74522
G1 X121.962 Y90.873 E7.78553
G1 X121.702 Y91.684 E7.82632
G1 X121.506 Y92.533 E7.86805
G1 X121.389 Y93.393 E7.90962
G1 X121.35 Y94.328 E7.95444
G1 X121.35 Y116.289 E9.00626
G1 X121.319 Y116.844 E9.03288
G1 X121.209 Y117.496 E9.06455
G1 X121.004 Y118.17 E9.09829
G1 X120.724 Y118.792 E9.13096
G1 X120.368 Y119.373 E9.16359
G1 X119.94 Y119.905 E9.1963
G1 X119.448 Y120.379 E9.22902
G1 X118.909 Y120.784 E9.26131
G1 X118.313 Y121.123 E9.29415
G1 X117.653 Y121.39 E9.32825
G1 X117.007 Y121.563 E9.36028
G1 X116.362 Y121.65 E9.39145
G1 X115.656 Y121.659 E9.42526
G1 X115.001 Y121.582 E9.45685
G1 X114.299 Y121.41 E9.49147
G1 X113.697 Y121.173 E9.52245
G1 X113.102 Y120.854 E9.55479
G1 X112.523 Y120.441 E9.58885
G1 X112.007 Y119.955 E9.6228
G1 X111.594 Y119.458 E9.65375
G1 X111.361 Y119.156 E9.67202
G1 X110.862 Y118.589 E9.70819
G1 X110.251 Y118.01 E9.74851
G1 X109.583 Y117.478 E9.78941
G1 X108.863 Y117.004 E9.8307
G1 X108.102 Y116.594 E9.8721
G1 X107.394 Y116.293 E9.90894
G1 X106.508 Y115.999 E9.95365
G1 X105.668 Y115.806 E9.99493
G1 X104.806 Y115.688 E10.0366
G1 X103.874 Y115.651 E10.08128
G1 X100.942 Y115.65 E10.2217
G1 X100.402 Y115.67 E10.24758
G1 X99.607 Y115.745 E10.28583
G1 X98.754 Y115.906 E10.32741
G1 X97.945 Y116.133 E10.36765
G1 X97.144 Y116.439 E10.40872
G1 X96.368 Y116.816 E10.45004
G1 X95.631 Y117.259 E10.49122
G1 X94.934 Y117.77 E10.53261
G1 X94.289 Y118.338 E10.57378
G0 F9000 X94.162 Y119.052
G1 F1125 X125.058 Y149.949 E12.66649
G0 F9000 X122.796 Y149.949
G1 F1125 X93.182 Y120.335 E14.67235
G0 F9000 X92.416 Y121.831
G1 F1125 X120.533 Y149.949 E16.57683
G0 F9000 X118.27 Y149.949
G1 F1125 X91.904 Y123.583 E18.36269
G0 F9000 X91.749 Y125.691
G1 F1125 X116.007 Y149.949 E20.00576
G0 F9000 X113.745 Y149.949
G1 F1125 X91.749 Y127.953 E21.49562
G0 F9000 X91.749 Y130.216
G1 F1125 X111.482 Y149.949 E22.8322
G0 F9000 X109.219 Y149.949
G1 F1125 X91.749 Y132.479 E24.01549
G0 F9000 X91.749 Y134.742
G1 F1125 X106.956 Y149.949 E25.04551
G0 F9000 X104.694 Y149.949
G1 F1125 X91.749 Y137.004 E25.92232
G0 F9000 X91.749 Y139.267
G1 F1125 X102.431 Y149.949 E26.64585
G0 F9000 X100.131 Y149.912
G1 F1125 X91.798 Y141.578 E27.2103
G0 F9000 X92.651 Y144.694
G1 F1125 X97.022 Y149.065 E27.50636
G1 F2700 E22.50636
G0 F9000 X97.099 Y150.691
G0 X98.249 Y151.061
G0 X99.877 Y151.356
G0 X100.518 Y151.388
G0 X127.321 Y151.415
G0 X127.321 Y149.949
G1 F2700 E27.50636
G1 F1125 X95.34 Y117.968 E29.67254
G0 F9000 X96.723 Y117.087
G1 F1125 X129.584 Y149.949 E31.89835
G0 F9000 X131.847 Y149.949
G1 F1125 X98.335 Y116.437 E34.16822
G0 F9000 X100.246 Y116.085
G1 F1125 X134.104 Y149.944 E36.46157
G0 F9000 X136.11 Y149.686
G1 F1125 X102.473 Y116.05 E38.73988
G0 F9000 X104.773 Y116.087
G1 F1125 X137.786 Y149.1 E40.97595
G0 F9000 X139.225 Y148.276
G1 F1125 X107.886 Y116.937 E43.09864
G1 F2700 E38.09864
G0 F9000 X108.667 Y115.691
G0 X109.937 Y116.446
G0 X115.163 Y120.528
G0 X115.22 Y122.009
G1 F2700 E43.09864
G1 F1125 X140.456 Y147.244 E44.80792
G0 F9000 X141.487 Y146.013
G1 F1125 X117.356 Y121.881 E46.44243
G0 F9000 X118.953 Y121.215
G1 F1125 X142.31 Y144.573 E48.0245
G0 F9000 X142.887 Y142.887
G1 F1125 X120.204 Y120.204 E49.5609
G0 F9000 X121.127 Y118.864
G1 F1125 X143.143 Y140.88 E51.05211
G0 F9000 X143.147 Y138.621
G1 F1125 X121.671 Y117.145 E52.50675
G0 F9000 X121.748 Y114.96
G1 F1125 X143.147 Y136.359 E53.95617
G0 F9000 X143.147 Y134.096
G1 F1125 X121.748 Y112.697 E55.40559
G0 F9000 X121.748 Y110.434
G1 F1125 X143.147 Y131.833 E56.85501
G0 F9000 X143.147 Y129.57
G1 F1125 X121.748 Y108.171 E58.30444
G0 F9000 X121.748 Y105.909
G1 F1125 X143.147 Y127.308 E59.75386
G0 F9000 X143.147 Y125.045
G1 F1125 X121.748 Y103.646 E61.20328
G0 F9000 X121.748 Y101.383
G1 F1125 X143.147 Y122.782 E62.6527
G0 F9000 X143.147 Y120.519
G1 F1125 X121.748 Y99.12 E64.10213
G0 F9000 X121.748 Y96.858
G1 F1125 X143.147 Y118.257 E65.55155
G0 F9000 X143.148 Y115.995
G1 F1125 X121.748 Y94.595 E67.00104
G0 F9000 X121.921 Y92.505
G1 F1125 X143.148 Y113.732 E68.43881
G0 F9000 X143.148 Y111.469
G1 F1125 X122.443 Y90.764 E69.84123
G0 F9000 X123.219 Y89.278
G1 F1125 X143.148 Y109.206 E71.19105
G0 F9000 X143.148 Y106.944
G1 F1125 X124.206 Y88.002 E72.47405
G0 F9000 X125.394 Y86.928
G1 F1125 X143.148 Y104.681 E73.67655
G0 F9000 X143.148 Y102.418
G1 F1125 X126.786 Y86.057 E74.78477
G0 F9000 X128.409 Y85.417
G1 F1125 X143.148 Y100.156 E75.78309
G0 F9000 X143.148 Y97.893
G1 F1125 X130.333 Y85.078 E76.65109
G0 F9000 X132.568 Y85.05
G1 F1125 X143.148 Y95.63 E77.36771
G0 F9000 X143.09 Y93.31
G1 F1125 X134.883 Y85.103 E77.92359
G0 F9000 X138.08 Y86.037
G1 F1125 X142.152 Y90.109 E78.1994
G1 F2700 E73.1994
G0 F300 X142.152 Y90.109 Z0.324
G0 F9000 X143.375 Y89.269
G0 X142.752 Y88.238
G0 X141.729 Y86.96
G0 X140.845 Y86.121
G0 X139.507 Y85.153
G0 X138.447 Y84.585
G0 X136.899 Y84.006
G0 X135.726 Y83.74
G0 X133.89 Y83.586
G0 X130.324 Y83.608
G0 X128.669 Y83.837
G0 X127.489 Y84.168
G0 X125.969 Y84.825
G0 X124.938 Y85.448
G0 X123.66 Y86.471
G0 X122.821 Y87.355
G0 X121.853 Y88.693
G0 X121.532 Y89.292
G0 X120.921 Y90.637
G0 X122.245 Y91.3
;TIME_ELAPSED:100.141111
;LAYER:-5
;TYPE:SUPPORT
G1 F2700 E78.1994
G1 F1125 X128.009 Y85.536 E78.68742
G1 X127.318 Y85.798 E78.73166
G1 X126.569 Y86.16 E78.78147
G1 X125.85 Y86.595 E78.83178
G1 X125.192 Y87.073 E78.88047
G1 X124.576 Y87.614 E78.92955
G1 X123.996 Y88.226 E78.98003
G1 X123.574 Y88.758 E79.02068
G1 X123.426 Y88.964 E79.03587
G1 X123.042 Y89.547 E79.07766
G1 X122.648 Y90.285 E79.12775
G1 X122.337 Y91.013 E79.17514
G1 X122.078 Y91.818 E79.22577
G1 X121.898 Y92.608 E79.27428
G1 X121.826 Y93.134 E79.30606
G1 X129.836 Y85.123 E79.98428
G1 X130.427 Y85.067 E80.01982
G1 X130.956 Y85.05 E80.05151
G1 X131.324 Y85.05 E80.07354
G1 X121.749 Y94.625 E80.88422
G1 X121.749 Y96.039 E80.96887
G1 X132.738 Y85.05 E81.89927
G1 X133.856 Y85.05 E81.96621
G1 X134.141 Y85.061 E81.98328
G1 X121.749 Y97.453 E83.03247
G1 X121.749 Y98.867 E83.11712
G1 X135.45 Y85.166 E84.27714
G1 X136.6 Y85.43 E84.34778
G1 X121.749 Y100.281 E85.60516
G1 X121.749 Y101.696 E85.68987
G1 X137.621 Y85.824 E87.0337
G1 X137.913 Y85.949 E87.05272
G1 X138.563 Y86.296 E87.09683
G1 X121.749 Y103.11 E88.52041
G1 X121.749 Y104.524 E88.60506
G1 X139.416 Y86.857 E90.10087
G1 X139.988 Y87.31 E90.14455
G1 X140.188 Y87.499 E90.16102
G1 X121.749 Y105.938 E91.72219
G1 X121.749 Y107.352 E91.80684
G1 X140.883 Y88.218 E93.42685
G1 X141.125 Y88.492 E93.44874
G1 X141.504 Y89.012 E93.48726
G1 X121.749 Y108.767 E95.15985
G1 X121.749 Y110.181 E95.2445
G1 X142.045 Y89.885 E96.96289
G1 X142.398 Y90.612 E97.01128
G1 X142.489 Y90.855 E97.02681
G1 X121.749 Y111.595 E98.78279
G1 X121.749 Y113.009 E98.86745
G1 X142.84 Y91.918 E100.65315
G1 X142.931 Y92.285 E100.67578
G1 X143.082 Y93.09 E100.72482
G1 X121.749 Y114.424 E102.53105
G1 X121.749 Y115.838 E102.6157
G1 X143.149 Y94.438 E104.42757
G1 X143.149 Y95.852 E104.51222
G1 X121.635 Y117.366 E106.33374
G1 X121.593 Y117.609 E106.3485
G1 X121.378 Y118.31 E106.3924
G1 X121.076 Y118.979 E106.43634
G1 X120.694 Y119.605 E106.48024
G1 X120.234 Y120.176 E106.52414
G1 X119.708 Y120.685 E106.56796
G1 X119.119 Y121.125 E106.61198
G1 X118.481 Y121.486 E106.65586
G1 X117.801 Y121.763 E106.69982
G1 X117.094 Y121.953 E106.74365
G1 X116.367 Y122.052 E106.78758
G1 X115.529 Y122.058 E106.83775
G1 X92.73 Y144.857 E108.76806
G1 X92.5 Y144.383 E108.7996
G1 X92.305 Y143.868 E108.83257
G1 X114.327 Y121.845 E110.69714
G1 X113.511 Y121.529 E110.74953
G1 X113.329 Y121.43 E110.76193
G1 X91.982 Y142.776 E112.56926
G1 X91.839 Y142.026 E112.61497
G1 X91.794 Y141.55 E112.6436
G1 X112.459 Y120.885 E114.39323
G1 X112.27 Y120.749 E114.40717
G1 X111.71 Y120.22 E114.45329
G1 X91.749 Y140.181 E116.14332
G1 X91.749 Y138.766 E116.22803
G1 X111.075 Y119.44 E117.86429
G1 X110.416 Y118.685 E117.92429
G1 X91.749 Y137.352 E119.50476
G1 X91.749 Y135.938 E119.58941
G1 X109.649 Y118.038 E121.10494
G1 X109.442 Y117.875 E121.12072
G1 X109.235 Y117.726 E121.13599
G1 X108.82 Y117.453 E121.16573
G1 X91.749 Y134.524 E122.61107
G1 X91.749 Y133.11 E122.69572
G1 X107.912 Y116.947 E124.06419
G1 X107.181 Y116.637 E124.11172
G1 X106.9 Y116.545 E124.12942
G1 X91.749 Y131.695 E125.41216
G1 X91.749 Y130.281 E125.49682
G1 X105.803 Y116.227 E126.68672
G1 X104.56 Y116.056 E126.76184
G1 X91.749 Y128.867 E127.8465
G1 X91.749 Y127.453 E127.93115
G1 X103.154 Y116.048 E128.89677
G1 X101.739 Y116.048 E128.98149
G1 X91.749 Y126.038 E129.82731
G1 X91.749 Y125.341 E129.86903
G1 X91.78 Y124.594 E129.91379
G1 X100.295 Y116.079 E130.63473
G1 X99.665 Y116.139 E130.67262
G1 X98.985 Y116.266 E130.71403
G1 X98.596 Y116.363 E130.73803
G1 X92.049 Y122.911 E131.29239
G1 X92.338 Y122.011 E131.34898
G1 X92.648 Y121.285 E131.39624
G1 X93.043 Y120.546 E131.44641
G1 X93.426 Y119.964 E131.48812
G1 X93.574 Y119.757 E131.50335
G1 X93.997 Y119.225 E131.54404
G1 X94.576 Y118.614 E131.59444
G1 X95.192 Y118.073 E131.64352
G1 X95.851 Y117.594 E131.69229
G1 X96.105 Y117.44 E131.71008
G1 X93.128 Y120.418 E131.96217
G1 F2700 E126.96217
G0 F9000 X91.905 Y119.613
G0 X92.821 Y118.355
G0 X93.66 Y117.471
G0 X94.938 Y116.448
G0 X95.969 Y115.825
G0 X97.489 Y115.168
G0 X98.669 Y114.837
G0 X100.502 Y114.597
G0 X104.777 Y114.622
G0 X105.967 Y114.782
G0 X107.563 Y115.221
G0 X108.667 Y115.691
G0 X109.467 Y116.166
G0 X116.265 Y120.589
G0 X117.041 Y121.96
G1 F2700 E131.96217
G1 F1125 X93.235 Y145.766 E133.97774
G1 X93.831 Y146.585 E134.03838
G1 X143.149 Y97.266 E138.21401
G1 X143.149 Y98.68 E138.29866
G1 X94.516 Y147.314 E142.41629
G1 X94.912 Y147.689 E142.44894
G1 X95.269 Y147.974 E142.47629
G1 X143.149 Y100.095 E146.53007
G1 X143.149 Y101.509 E146.61473
G1 X96.088 Y148.57 E150.59922
G1 X97.012 Y149.06 E150.66183
G1 X143.149 Y102.923 E154.56809
G1 X143.149 Y104.337 E154.65274
G1 X98.026 Y149.461 E158.47319
G1 X98.511 Y149.618 E158.50371
G1 X99.139 Y149.761 E158.54227
G1 X143.149 Y105.752 E162.2684
G1 X143.149 Y107.166 E162.35305
G1 X100.392 Y149.922 E165.9731
G1 X101.042 Y149.949 E166.01204
G1 X101.78 Y149.949 E166.05623
G1 X143.149 Y108.58 E169.5588
G1 X143.149 Y109.994 E169.64345
G1 X103.195 Y149.949 E173.02626
G1 X104.609 Y149.949 E173.11091
G1 X143.149 Y111.408 E176.374
G1 X143.149 Y112.823 E176.45871
G1 X106.023 Y149.949 E179.60204
G1 X107.437 Y149.949 E179.68669
G1 X143.149 Y114.237 E182.7103
G1 X143.149 Y115.651 E182.79496
G1 X108.852 Y149.949 E185.6988
G1 X110.266 Y149.949 E185.78346
G1 X143.149 Y117.065 E188.56759
G1 X143.149 Y118.479 E188.65224
G1 X111.68 Y149.949 E191.31665
G1 X113.094 Y149.949 E191.40131
G1 X143.149 Y119.894 E193.94596
G1 X143.149 Y121.308 E194.03061
G1 X114.508 Y149.949 E196.45555
G1 X115.923 Y149.949 E196.54026
G1 X143.149 Y122.722 E198.84543
G1 X143.149 Y124.136 E198.93008
G1 X117.337 Y149.949 E201.11554
G1 X118.751 Y149.949 E201.20019
G1 X143.149 Y125.551 E203.26588
G1 X143.149 Y126.965 E203.35054
G1 X120.165 Y149.949 E205.29651
G1 X121.579 Y149.949 E205.38117
G1 X143.149 Y128.379 E207.20742
G1 X143.149 Y129.793 E207.29208
G1 X122.994 Y149.949 E208.99857
G1 X124.408 Y149.949 E209.08323
G1 X143.149 Y131.207 E210.67
G1 X143.149 Y132.622 E210.75472
G1 X125.822 Y149.949 E212.22173
G1 X127.236 Y149.949 E212.30639
G1 X143.149 Y134.036 E213.65368
G1 X143.149 Y135.45 E213.73834
G1 X128.651 Y149.949 E214.96587
G1 X130.065 Y149.949 E215.05053
G1 X143.149 Y136.864 E216.15835
G1 X143.149 Y138.278 E216.243
G1 X131.479 Y149.949 E217.2311
G1 X132.893 Y149.949 E217.31575
G1 X143.149 Y139.693 E218.18409
G1 X143.149 Y140.649 E218.24133
G1 X143.129 Y141.127 E218.26997
G1 X134.311 Y149.945 E219.01656
G1 X135.234 Y149.859 E219.07206
G1 X135.946 Y149.724 E219.11544
G1 X142.917 Y142.753 E219.70565
G1 X142.822 Y143.178 E219.73172
G1 X142.561 Y143.985 E219.7825
G1 X142.252 Y144.707 E219.82952
G1 X141.849 Y145.463 E219.88081
G1 X141.412 Y146.129 E219.9285
G1 X140.897 Y146.78 E219.97819
G1 X140.323 Y147.383 E220.02803
G1 X139.709 Y147.923 E220.07699
G1 X139.049 Y148.404 E220.12588
G1 X138.329 Y148.839 E220.17624
G1 X138.167 Y148.917 E220.18701
G1 X142.11 Y144.975 E220.5208
G1 F2700 E215.5208
G0 F300 X142.11 Y144.975 Z0.444
G0 F9000 X143.403 Y145.666
G0 X142.503 Y147.111
G0 X141.433 Y148.343
G0 X140.515 Y149.148
G0 X139.139 Y150.061
G0 X138.053 Y150.589
G0 X136.51 Y151.098
G0 X135.308 Y151.323
G0 X133.976 Y151.414
G0 X100.123 Y151.378
G0 X98.933 Y151.218
G0 X97.337 Y150.779
G0 X96.225 Y150.305
G0 X94.821 Y149.47
G0 X93.864 Y148.714
G0 X92.722 Y147.527
G0 X92.002 Y146.543
G0 X91.222 Y145.106
G0 X90.785 Y143.96
G0 X90.412 Y142.361
G0 X90.286 Y140.758
G0 X90.322 Y124.423
G0 X90.482 Y123.233
G0 X90.921 Y121.637
G0 X91.395 Y120.525
G0 X92.23 Y119.121
G0 X92.986 Y118.164
G0 X94.173 Y117.022
G0 X95.157 Y116.302
G0 X96.594 Y115.522
G0 X97.74 Y115.085
G0 X99.339 Y114.712
G0 X100.924 Y114.586
G0 X104.777 Y114.622
G0 X105.967 Y114.782
G0 X107.563 Y115.221
G0 X108.667 Y115.691
G0 X110.079 Y116.53
G0 X111.035 Y117.285
G0 X111.735 Y118.02
