;FLAVOR:Marlin
;TIME:7239
;Filament used: 4.84004m
;Layer height: 0.16
;MINX:83.586
;MINY:91.115
;MINZ:0.24
;MAXX:151.415
;MAXY:142.953
;MAXZ:16.15
;Generated with Cura_SteamEngine 5.2.1
M140 S50
M105
M190 S50
M104 S200
M105
M109 S200
M82 ;absolute extrusion mode
; Ender 3 Custom Start G-code
G92 E0 ; Reset Extruder
G28 ; Home all axes
G1 Z2.0 F3000 ; Move Z Axis up little to prevent scratching of Heat Bed
G1 X0.1 Y20 Z0.3 F5000.0 ; Move to start position
G1 X0.1 Y200.0 Z0.3 F1500.0 E15 ; Draw the first line
G1 X0.4 Y200.0 Z0.3 F5000.0 ; Move to side a little
G1 X0.4 Y20 Z0.3 F1500.0 E30 ; Draw the second line
G92 E0 ; Reset Extruder
G1 Z2.0 F3000 ; Move Z Axis up little to prevent scratching of Heat Bed
G1 X5 Y20 Z0.3 F5000.0 ; Move over to prevent blob squish
G92 E0
G92 E0
G1 F2700 E-5
;LAYER_COUNT:93
;LAYER:-6
M107
G0 F9000 X87.589 Y104.863 Z0.24
;TYPE:SUPPORT-INTERFACE
G1 F2700 E0
G1 F1237.5 X87.01 Y105.474 E0.06719
G1 X86.479 Y106.141 E0.13525
G1 X86.004 Y106.861 E0.2041
G1 X85.594 Y107.625 E0.27331
G1 X85.266 Y108.395 E0.34012
G1 X84.998 Y109.224 E0.40967
G1 X84.806 Y110.059 E0.47806
G1 X84.688 Y110.918 E0.54728
G1 X84.65 Y111.851 E0.62181
G1 X84.651 Y133.219 E2.3275
G1 X84.67 Y133.773 E2.37175
G1 X84.745 Y134.566 E2.43533
G1 X84.906 Y135.42 E2.5047
G1 X85.136 Y136.239 E2.57261
G1 X85.441 Y137.035 E2.64065
G1 X85.82 Y137.814 E2.7098
G1 X86.253 Y138.536 E2.77701
G1 X86.771 Y139.242 E2.84691
G1 X87.337 Y139.885 E2.91528
G1 X87.949 Y140.465 E2.98259
G1 X88.616 Y140.996 E3.05065
G1 X89.337 Y141.472 E3.11961
G1 X90.101 Y141.882 E3.18882
G1 X90.806 Y142.182 E3.24998
G1 X91.692 Y142.476 E3.3245
G1 X92.532 Y142.669 E3.3933
G1 X93.394 Y142.787 E3.46275
G1 X94.326 Y142.825 E3.53721
G1 X140.758 Y142.825 E7.24361
G1 X141.298 Y142.805 E7.28674
G1 X142.093 Y142.73 E7.35049
G1 X142.946 Y142.569 E7.41978
G1 X143.755 Y142.342 E7.48685
G1 X144.556 Y142.036 E7.5553
G1 X145.332 Y141.659 E7.62416
G1 X146.069 Y141.216 E7.6928
G1 X146.766 Y140.704 E7.76184
G1 X147.411 Y140.137 E7.83039
G1 X147.99 Y139.526 E7.89758
G1 X148.527 Y138.852 E7.96637
G1 X148.996 Y138.138 E8.03456
G1 X149.407 Y137.374 E8.10382
G1 X149.705 Y136.675 E8.16447
G1 X150.001 Y135.783 E8.23949
G1 X150.194 Y134.944 E8.30821
G1 X150.311 Y134.085 E8.37742
G1 X150.347 Y133.283 E8.4415
G1 X150.349 Y111.781 E10.15788
G1 X150.33 Y111.226 E10.20221
G1 X150.255 Y110.434 E10.26572
G1 X150.095 Y109.582 E10.33491
G1 X149.867 Y108.77 E10.40224
G1 X149.565 Y107.978 E10.4699
G1 X149.183 Y107.193 E10.53959
G1 X148.741 Y106.456 E10.60819
G1 X148.229 Y105.759 E10.67722
G1 X147.662 Y105.114 E10.74577
G1 X147.051 Y104.535 E10.81297
G1 X146.383 Y104.003 E10.88113
G1 X145.663 Y103.529 E10.94994
G1 X144.902 Y103.119 E11.01895
G1 X144.194 Y102.818 E11.08036
G1 X143.307 Y102.524 E11.15495
G1 X142.466 Y102.331 E11.22383
G1 X141.707 Y102.228 E11.28497
G1 X141.482 Y102.208 E11.303
G1 X140.919 Y102.126 E11.34841
G1 X140.262 Y101.952 E11.40267
G1 X139.623 Y101.693 E11.45771
G1 X139.035 Y101.362 E11.51157
G1 X138.485 Y100.953 E11.56628
G1 X138.004 Y100.493 E11.61941
G1 X137.581 Y99.972 E11.67298
G1 X137.206 Y99.37 E11.72959
G1 X136.934 Y98.773 E11.78196
G1 X136.63 Y97.978 E11.8499
G1 X136.248 Y97.193 E11.91959
G1 X135.806 Y96.456 E11.98819
G1 X135.294 Y95.759 E12.05722
G1 X134.727 Y95.114 E12.12578
G1 X134.116 Y94.535 E12.19297
G1 X133.448 Y94.003 E12.26114
G1 X132.728 Y93.529 E12.32995
G1 X131.964 Y93.118 E12.3992
G1 X131.259 Y92.818 E12.46036
G1 X130.373 Y92.524 E12.53487
G1 X129.533 Y92.331 E12.60367
G1 X128.671 Y92.213 E12.67312
G1 X127.741 Y92.175 E12.74742
G1 X120.362 Y92.175 E13.33644
G1 X119.326 Y92.223 E13.41923
G1 X118.488 Y92.344 E13.48682
G1 X117.649 Y92.543 E13.55565
G1 X116.772 Y92.835 E13.62943
G1 X92.839 Y102.037 E15.67622
G1 X92.079 Y102.369 E15.74242
G1 X91.148 Y102.695 E15.82116
G1 X90.445 Y102.963 E15.88121
G1 X89.668 Y103.341 E15.95019
G1 X88.931 Y103.784 E16.01883
G1 X88.234 Y104.296 E16.08786
G1 X87.589 Y104.863 E16.15642
G0 F9000 X87.468 Y105.57
G1 F1237.5 X124.322 Y142.424 E20.31681
G0 F9000 X126.584 Y142.424
G1 F1237.5 X88.648 Y104.487 E24.59941
G0 F9000 X90.031 Y103.608
G1 F1237.5 X128.847 Y142.424 E28.9813
G0 F9000 X131.11 Y142.424
G1 F1237.5 X91.634 Y102.948 E33.43769
G0 F9000 X93.254 Y102.305
G1 F1237.5 X133.373 Y142.424 E37.96667
G0 F9000 X135.635 Y142.424
G1 F1237.5 X94.889 Y101.677 E42.56649
G0 F9000 X96.523 Y101.049
G1 F1237.5 X137.898 Y142.424 E47.23726
G0 F9000 X140.161 Y142.424
G1 F1237.5 X98.157 Y100.42 E51.97903
G0 F9000 X99.792 Y99.792
G1 F1237.5 X142.286 Y142.286 E56.77612
G0 F9000 X144.06 Y141.797
G1 F1237.5 X101.426 Y99.163 E61.58901
G0 F9000 X103.06 Y98.535
G1 F1237.5 X145.572 Y141.046 E66.38808
G0 F9000 X146.868 Y140.079
G1 F1237.5 X104.695 Y97.907 E71.14888
G0 F9000 X106.329 Y97.278
G1 F1237.5 X147.964 Y138.913 E75.849
G0 F9000 X148.86 Y137.546
G1 F1237.5 X107.963 Y96.65 E80.46575
G0 F9000 X109.598 Y96.022
G1 F1237.5 X149.524 Y135.948 E84.97294
G0 F9000 X149.908 Y134.069
G1 F1237.5 X111.232 Y95.393 E89.33902
G0 F9000 X112.867 Y94.765
G1 F1237.5 X149.946 Y131.845 E93.52487
G0 F9000 X149.946 Y129.582
G1 F1237.5 X114.501 Y94.137 E97.52621
G0 F9000 X116.135 Y93.508
G1 F1237.5 X149.946 Y127.319 E101.34309
G0 F9000 X149.947 Y125.057
G1 F1237.5 X117.806 Y92.916 E104.97144
G0 F9000 X119.757 Y92.604
G1 F1237.5 X149.947 Y122.794 E108.37955
G0 F9000 X149.947 Y120.532
G1 F1237.5 X121.99 Y92.575 E111.53558
G0 F9000 X124.253 Y92.575
G1 F1237.5 X149.948 Y118.269 E114.4362
G0 F9000 X149.948 Y116.007
G1 F1237.5 X126.516 Y92.575 E117.0814
G0 F9000 X128.844 Y92.64
G1 F1237.5 X149.948 Y113.744 E119.4638
G0 F9000 X149.938 Y111.471
G1 F1237.5 X141.006 Y102.54 E120.47207
G0 F9000 X143.858 Y103.128
G1 F1237.5 X149.401 Y108.671 E121.09781
G1 F2700 E116.09781
G0 F9000 X150.589 Y107.672
G0 X150.061 Y106.586
G0 X149.148 Y105.21
G0 X148.343 Y104.292
G0 X147.111 Y103.221
G0 X146.825 Y103.032
G0 X137.543 Y97.419
G0 X135.938 Y97.471
G1 F2700 E121.09781
G1 F1237.5 X132.127 Y93.66 E121.52803
G1 F2700 E116.52803
G0 F9000 X132.54 Y92.22
G0 X131.428 Y91.746
G0 X129.832 Y91.307
G0 X128.642 Y91.147
G0 X120.173 Y91.115
G0 X118.414 Y91.278
G0 X117.226 Y91.56
G0 X89.894 Y102.047
G0 X88.457 Y102.827
G0 X87.473 Y103.547
G0 X86.512 Y104.471
G0 X85.53 Y105.646
G0 X86.487 Y106.852
G1 F2700 E121.52803
G1 F1237.5 X122.059 Y142.424 E125.5437
G0 F9000 X119.796 Y142.424
G1 F1237.5 X85.72 Y108.347 E129.39055
G0 F9000 X85.207 Y110.097
G1 F1237.5 X117.533 Y142.424 E133.03985
G0 F9000 X115.271 Y142.424
G1 F1237.5 X85.05 Y112.202 E136.45151
G0 F9000 X85.05 Y114.465
G1 F1237.5 X113.008 Y142.424 E139.60771
G0 F9000 X110.745 Y142.424
G1 F1237.5 X85.05 Y116.728 E142.50844
G0 F9000 X85.05 Y118.991
G1 F1237.5 X108.482 Y142.424 E145.1537
G0 F9000 X106.22 Y142.424
G1 F1237.5 X85.05 Y121.253 E147.54361
G0 F9000 X85.05 Y123.517
G1 F1237.5 X103.957 Y142.424 E149.678
G0 F9000 X101.694 Y142.424
G1 F1237.5 X85.05 Y125.78 E151.55692
G0 F9000 X85.05 Y128.042
G1 F1237.5 X99.431 Y142.424 E153.18042
G0 F9000 X97.169 Y142.424
G1 F1237.5 X85.05 Y130.305 E154.54852
G0 F9000 X85.05 Y132.568
G1 F1237.5 X94.906 Y142.424 E155.66115
G0 F9000 X92.46 Y142.24
G1 F1237.5 X85.237 Y135.017 E156.47655
G1 F2700 E151.47655
G0 F300 X85.237 Y135.017 Z0.48
G0 F9000 X83.712 Y134.836
G0 X83.586 Y133.233
G0 X83.622 Y110.948
G0 X83.782 Y109.758
G0 X84.137 Y108.466
G0 X84.585 Y107.277
G0 X85.964 Y107.782
;TIME_ELAPSED:107.751400
;LAYER:-5
;TYPE:SUPPORT
G1 F2700 E156.47655
G1 F1237.5 X90.241 Y103.505 E156.95937
G1 X89.871 Y103.683 E156.99215
G1 X89.151 Y104.119 E157.05934
G1 X88.492 Y104.598 E157.12437
G1 X87.877 Y105.139 E157.18975
G1 X87.297 Y105.749 E157.25694
G1 X86.875 Y106.282 E157.31121
G1 X86.727 Y106.489 E157.33152
G1 X86.344 Y107.07 E157.38707
G1 X85.949 Y107.81 E157.45403
G1 X85.638 Y108.537 E157.51715
G1 X85.378 Y109.342 E157.58467
G1 X85.248 Y109.912 E157.63134
G1 X92.573 Y102.587 E158.45825
G1 X92.981 Y102.409 E158.49378
G1 X94.906 Y101.669 E158.65841
G1 X85.064 Y111.51 E159.7694
G1 X85.05 Y111.867 E159.79792
G1 X85.05 Y112.939 E159.88349
G1 X97.203 Y100.786 E161.25543
G1 X99.5 Y99.903 E161.45187
G1 X85.05 Y114.354 E163.08316
G1 X85.05 Y115.768 E163.19604
G1 X101.797 Y99.021 E165.08658
G1 X104.094 Y98.137 E165.28305
G1 X85.05 Y117.182 E167.43296
G1 X85.05 Y118.596 E167.54583
G1 X106.391 Y97.254 E169.95504
G1 X108.688 Y96.372 E170.15145
G1 X85.05 Y120.01 E172.81991
G1 X85.05 Y121.425 E172.93286
G1 X110.986 Y95.489 E175.86074
G1 X113.282 Y94.606 E176.05711
G1 X85.05 Y122.839 E179.24423
G1 X85.05 Y124.253 E179.35711
G1 X115.58 Y93.723 E182.8036
G1 X116.999 Y93.178 E182.92493
G1 X117.803 Y92.914 E182.99248
G1 X85.05 Y125.667 E186.68993
G1 X85.05 Y127.081 E186.8028
G1 X119.517 Y92.614 E190.69373
G1 X120.379 Y92.574 E190.76261
G1 X120.971 Y92.574 E190.80987
G1 X85.05 Y128.496 E194.865
G1 X85.05 Y129.91 E194.97787
G1 X122.386 Y92.574 E199.19268
G1 X123.8 Y92.574 E199.30555
G1 X85.05 Y131.324 E203.67999
G1 X85.05 Y132.738 E203.79286
G1 X125.214 Y92.574 E208.32692
G1 X126.628 Y92.574 E208.43979
G1 X85.102 Y134.1 E213.1276
G1 X85.139 Y134.502 E213.15983
G1 X85.292 Y135.325 E213.22665
G1 X128.03 Y92.587 E218.05128
G1 X128.65 Y92.613 E218.10082
G1 X129.326 Y92.705 E218.15528
G1 X85.627 Y136.403 E223.08834
G1 X85.799 Y136.858 E223.12717
G1 X86.057 Y137.388 E223.17422
G1 X130.47 Y92.975 E228.18795
G1 X131.043 Y93.162 E228.23606
G1 X131.503 Y93.356 E228.27591
G1 X86.572 Y138.287 E233.34811
G1 X87.166 Y139.107 E233.42894
G1 X132.45 Y93.823 E238.54098
G1 X133.302 Y94.386 E238.6225
G1 X87.859 Y139.828 E243.75244
G1 X88.211 Y140.164 E243.79129
G1 X88.616 Y140.486 E243.83259
G1 X134.066 Y95.036 E248.96338
G1 X134.437 Y95.389 E249.00426
G1 X134.759 Y95.757 E249.04329
G1 X89.443 Y141.073 E254.15895
G1 X90.364 Y141.566 E254.24234
G1 X135.39 Y96.54 E259.32526
G1 X135.917 Y97.427 E259.40762
G1 X91.388 Y141.956 E264.43444
G1 X91.81 Y142.093 E264.46986
G1 X92.506 Y142.252 E264.52685
G1 X136.361 Y98.398 E269.47752
G1 X136.559 Y98.914 E269.52164
G1 X136.777 Y99.396 E269.56387
G1 X93.772 Y142.401 E274.41864
G1 X94.342 Y142.424 E274.46418
G1 X95.163 Y142.424 E274.52972
G1 X137.311 Y100.276 E279.28775
G1 X137.698 Y100.753 E279.33678
G1 X137.979 Y101.022 E279.36783
G1 X96.577 Y142.424 E284.04165
G1 X97.991 Y142.424 E284.15452
G1 X138.753 Y101.662 E288.75608
G1 X139.455 Y102.056 E288.82034
G1 X139.681 Y102.148 E288.83982
G1 X99.405 Y142.424 E293.38652
G1 X100.819 Y142.424 E293.4994
G1 X140.739 Y102.505 E298.00585
G1 X141.428 Y102.602 E298.06139
G1 X141.661 Y102.623 E298.08007
G1 X141.99 Y102.668 E298.10658
G1 X102.234 Y142.424 E302.59458
G1 X103.648 Y142.424 E302.70745
G1 X143.171 Y102.901 E307.16915
G1 X143.981 Y103.162 E307.23708
G1 X144.222 Y103.265 E307.258
G1 X105.062 Y142.424 E311.67866
G1 X106.476 Y142.424 E311.79153
G1 X145.178 Y103.723 E316.16049
G1 X145.458 Y103.873 E316.18585
G1 X146.052 Y104.263 E316.24257
G1 X107.891 Y142.424 E320.55051
G1 X109.305 Y142.424 E320.66339
G1 X146.842 Y104.887 E324.90089
G1 X147.379 Y105.397 E324.96
G1 X147.551 Y105.592 E324.98076
G1 X110.719 Y142.424 E329.13867
G1 X112.133 Y142.424 E329.25155
G1 X148.184 Y106.374 E333.32124
G1 X148.411 Y106.684 E333.35191
G1 X148.74 Y107.232 E333.40293
G1 X113.547 Y142.424 E337.37576
G1 X114.962 Y142.424 E337.48871
G1 X149.211 Y108.175 E341.35504
G1 X149.484 Y108.892 E341.41628
G1 X149.577 Y109.223 E341.44372
G1 X116.376 Y142.424 E345.19174
G1 X117.79 Y142.424 E345.30461
G1 X149.847 Y110.367 E348.92348
G1 X149.929 Y111.237 E348.99324
G1 X149.945 Y111.683 E349.02886
G1 X119.204 Y142.424 E352.49917
G1 X120.618 Y142.424 E352.61204
G1 X149.949 Y113.094 E355.92312
G1 X149.949 Y114.508 E356.036
G1 X122.033 Y142.424 E359.1874
G1 X123.447 Y142.424 E359.30027
G1 X149.949 Y115.923 E362.29199
G1 X149.949 Y117.337 E362.40486
G1 X124.861 Y142.424 E365.23695
G1 X126.275 Y142.424 E365.34982
G1 X149.949 Y118.751 E368.02229
G1 X149.949 Y120.165 E368.13516
G1 X127.69 Y142.424 E370.64795
G1 X129.104 Y142.424 E370.76082
G1 X149.949 Y121.579 E373.11399
G1 X149.949 Y122.994 E373.22694
G1 X130.518 Y142.424 E375.42042
G1 X131.932 Y142.424 E375.53329
G1 X149.949 Y124.408 E377.56715
G1 X149.949 Y125.822 E377.68002
G1 X133.346 Y142.424 E379.55426
G1 X134.761 Y142.424 E379.66721
G1 X149.949 Y127.236 E381.38176
G1 X149.949 Y128.651 E381.49471
G1 X136.175 Y142.424 E383.04958
G1 X137.589 Y142.424 E383.16246
G1 X149.949 Y130.065 E384.5577
G1 X149.949 Y131.479 E384.67057
G1 X139.003 Y142.424 E385.9062
G1 X140.417 Y142.424 E386.01907
G1 X149.959 Y132.883 E387.09619
G1 X149.911 Y134.061 E387.19031
G1 X149.865 Y134.391 E387.2169
G1 X141.896 Y142.36 E388.11651
G1 X142.714 Y142.206 E388.18296
G1 X142.958 Y142.151 E388.20292
G1 X143.742 Y141.929 E388.26796
G1 X149.431 Y136.239 E388.91024
G1 X149.36 Y136.461 E388.92885
G1 X149.052 Y137.184 E388.99158
G1 X148.648 Y137.94 E389.06
G1 X148.21 Y138.605 E389.12357
G1 X147.696 Y139.256 E389.18978
G1 X147.123 Y139.858 E389.25612
G1 X146.508 Y140.398 E389.32145
G1 X145.848 Y140.88 E389.38669
G1 X145.128 Y141.315 E389.45384
G1 X144.378 Y141.677 E389.52031
G1 F2700 E384.52031
G0 F300 X144.378 Y141.677 Z0.64
G0 F9000 X145.106 Y142.953
G0 X146.543 Y142.173
G0 X147.527 Y141.453
G0 X148.714 Y140.311
G0 X149.476 Y139.346
G0 X150.305 Y137.95
G0 X150.779 Y136.838
G0 X151.218 Y135.242
G0 X151.378 Y134.052
G0 X151.392 Y111.149
G0 X151.163 Y109.494
G0 X150.832 Y108.314
G0 X150.175 Y106.794
G0 X149.999 Y106.503
G0 X149.148 Y105.21
G0 X147.925 Y106.017
;TIME_ELAPSED:252.463807
;LAYER:-4
;TYPE:SUPPORT-INTERFACE
G1 F2700 E389.52031
G1 F1650 X147.379 Y105.397 E389.5423
G1 X146.788 Y104.835 E389.564
G1 X146.338 Y104.477 E389.5793
G1 X148.051 Y106.19 E389.64376
G1 X148.411 Y106.684 E389.66002
G1 X148.833 Y107.385 E389.68179
G1 X148.977 Y107.682 E389.69058
G1 X144.813 Y103.518 E389.84726
G1 X143.981 Y103.162 E389.87134
G1 X143.849 Y103.12 E389.87503
G1 X149.429 Y108.699 E390.08498
G1 X149.654 Y109.49 E390.10687
G1 X143.034 Y102.871 E390.35595
G1 X142.301 Y102.703 E390.37596
G1 X149.806 Y110.208 E390.65837
G1 X149.859 Y110.49 E390.66601
G1 X149.894 Y110.862 E390.67595
G1 X141.669 Y102.636 E390.98547
G1 X141.01 Y102.543 E391.00318
G1 X149.938 Y111.471 E391.33914
G1 X149.949 Y111.775 E391.34723
G1 X149.949 Y112.048 E391.3545
G1 X140.27 Y102.369 E391.71871
G1 X140.135 Y102.333 E391.72243
G1 X139.347 Y102.012 E391.74507
G1 X149.949 Y112.613 E392.144
G1 X149.949 Y113.179 E392.15906
G1 X129.504 Y92.734 E392.9284
G1 X128.844 Y92.64 E392.94613
G1 X149.949 Y113.745 E393.74031
G1 X149.949 Y114.31 E393.75534
G1 X128.234 Y92.596 E394.57245
G1 X127.647 Y92.575 E394.58808
G1 X149.949 Y114.876 E395.42727
G1 X149.949 Y115.442 E395.44233
G1 X127.081 Y92.575 E396.30282
G1 X126.516 Y92.575 E396.31786
G1 X149.949 Y116.007 E397.19961
G1 X149.949 Y116.573 E397.21467
G1 X125.95 Y92.575 E398.11773
G1 X125.384 Y92.575 E398.13279
G1 X149.949 Y117.139 E399.05714
G1 X149.949 Y117.704 E399.07217
G1 X124.819 Y92.575 E400.01778
G1 X124.253 Y92.575 E400.03284
G1 X149.949 Y118.27 E400.99975
G1 X149.949 Y118.836 E401.01481
G1 X123.687 Y92.575 E402.00302
G1 X123.122 Y92.575 E402.01805
G1 X149.949 Y119.402 E403.02754
G1 X149.949 Y119.967 E403.04258
G1 X122.556 Y92.575 E404.07334
G1 X121.99 Y92.575 E404.0884
G1 X149.949 Y120.533 E405.14047
G1 X149.949 Y121.099 E405.15553
G1 X121.425 Y92.575 E406.22887
G1 X120.859 Y92.575 E406.24393
G1 X149.949 Y121.664 E407.33856
G1 X149.949 Y122.23 E407.35362
G1 X120.297 Y92.578 E408.46941
G1 X119.757 Y92.604 E408.4838
G1 X149.949 Y122.796 E409.61991
G1 X149.949 Y123.361 E409.63494
G1 X119.228 Y92.641 E410.79094
G1 X118.733 Y92.712 E410.80424
G1 X149.949 Y123.927 E411.97887
G1 X149.949 Y124.493 E411.99393
G1 X118.262 Y92.806 E413.1863
G1 X117.804 Y92.914 E413.19882
G1 X149.949 Y125.058 E414.4084
G1 X149.949 Y125.624 E414.42346
G1 X117.376 Y93.052 E415.64915
G1 X116.954 Y93.195 E415.66101
G1 X149.949 Y126.19 E416.90259
G1 X149.949 Y126.755 E416.91763
G1 X116.546 Y93.352 E418.17457
G1 X116.137 Y93.509 E418.18622
G1 X149.949 Y127.321 E419.45855
G1 X149.949 Y127.887 E419.47361
G1 X115.728 Y93.666 E420.76133
G1 X115.319 Y93.823 E420.77299
G1 X149.949 Y128.453 E422.0761
