;FLAVOR:Marlin
;TIME:14448
;Filament used: 9.32401m
;Layer height: 0.16
;MINX:81.086
;MINY:72.836
;MINZ:0.24
;MAXX:152.85
;MAXY:162.13
;MAXZ:76.35
;Generated with Cura_SteamEngine 5.2.1
M140 S50
M105
M190 S50
M104 S200
M105
M109 S200
M82 ;absolute extrusion mode
; Ender 3 Custom Start G-code
G92 E0 ; Reset Extruder
G28 ; Home all axes
G1 Z2.0 F3000 ; Move Z Axis up little to prevent scratching of Heat Bed
G1 X0.1 Y20 Z0.3 F5000.0 ; Move to start position
G1 X0.1 Y200.0 Z0.3 F1500.0 E15 ; Draw the first line
G1 X0.4 Y200.0 Z0.3 F5000.0 ; Move to side a little
G1 X0.4 Y20 Z0.3 F1500.0 E30 ; Draw the second line
G92 E0 ; Reset Extruder
G1 Z2.0 F3000 ; Move Z Axis up little to prevent scratching of Heat Bed
G1 X5 Y20 Z0.3 F5000.0 ; Move over to prevent blob squish
G92 E0
G92 E0
G1 F2700 E-5
;LAYER_COUNT:422
;LAYER:-6
M107
G0 F9000 X87.527 Y94.45 Z0.24
;TYPE:SUPPORT-INTERFACE
G1 F2700 E0
G1 F1237.5 X86.769 Y95.302 E0.09103
G1 X85.995 Y96.282 E0.19071
G1 X85.282 Y97.312 E0.29071
G1 X84.648 Y98.367 E0.38896
G1 X84.078 Y99.465 E0.48772
G1 X83.525 Y100.725 E0.59755
G1 X83.144 Y101.779 E0.68702
G1 X82.761 Y103.095 E0.79642
G1 X82.492 Y104.305 E0.89537
G1 X82.298 Y105.561 E0.99682
G1 X82.187 Y106.79 E1.09532
G1 X82.15 Y107.985 E1.19076
G1 X82.15 Y115.473 E1.78848
G1 X82.182 Y116.544 E1.87401
G1 X82.289 Y117.78 E1.97304
G1 X82.475 Y119.018 E2.07298
G1 X82.731 Y120.207 E2.17006
G1 X83.025 Y121.262 E2.25749
G1 X83.443 Y122.479 E2.3602
G1 X92.648 Y146.428 E4.40826
G1 X93.045 Y147.378 E4.49045
G1 X93.444 Y148.497 E4.58528
G1 X93.93 Y149.658 E4.68575
G1 X94.538 Y150.867 E4.79377
G1 X95.093 Y151.824 E4.88208
G1 X95.882 Y152.998 E4.99499
G1 X96.573 Y153.901 E5.08576
G1 X97.335 Y154.775 E5.17832
G1 X98.264 Y155.722 E5.28421
G1 X99.116 Y156.48 E5.37524
G1 X100.097 Y157.255 E5.47504
G1 X101.126 Y157.967 E5.57492
G1 X102.18 Y158.601 E5.67311
G1 X103.28 Y159.172 E5.77204
G1 X104.538 Y159.724 E5.8817
G1 X105.594 Y160.106 E5.97134
G1 X106.91 Y160.489 E6.08075
G1 X108.12 Y160.758 E6.17969
G1 X109.376 Y160.952 E6.28114
G1 X110.606 Y161.063 E6.37972
G1 X111.799 Y161.1 E6.475
G1 X133.254 Y161.099 E8.18763
G1 X134.344 Y161.067 E8.27468
G1 X135.587 Y160.957 E8.37429
G1 X136.818 Y160.77 E8.47368
G1 X138.015 Y160.508 E8.57149
G1 X139.204 Y160.172 E8.67012
G1 X140.257 Y159.802 E8.75921
G1 X141.408 Y159.32 E8.85882
G1 X142.625 Y158.708 E8.96756
G1 X143.582 Y158.152 E9.05591
G1 X144.683 Y157.418 E9.16153
G1 X145.721 Y156.614 E9.26634
G1 X146.525 Y155.915 E9.35138
G1 X147.473 Y154.986 E9.45733
G1 X148.234 Y154.13 E9.54876
G1 X149.005 Y153.153 E9.64811
G1 X149.718 Y152.123 E9.7481
G1 X150.353 Y151.068 E9.8464
G1 X150.991 Y149.825 E9.95792
G1 X151.475 Y148.708 E10.0551
G1 X151.856 Y147.655 E10.14449
G1 X152.203 Y146.477 E10.24251
G1 X152.508 Y145.132 E10.3526
G1 X152.702 Y143.873 E10.45429
G1 X152.81 Y142.735 E10.54554
G1 X152.85 Y141.453 E10.64792
G1 X152.85 Y93.507 E14.47518
G1 X152.824 Y92.532 E14.55304
G1 X152.707 Y91.163 E14.66271
G1 X152.52 Y89.932 E14.7621
G1 X152.257 Y88.735 E14.85993
G1 X151.926 Y87.561 E14.9573
G1 X151.552 Y86.493 E15.04763
G1 X151.07 Y85.342 E15.14724
G1 X150.457 Y84.125 E15.25601
G1 X149.907 Y83.175 E15.34364
G1 X149.227 Y82.155 E15.44149
G1 X148.429 Y81.101 E15.54702
G1 X147.665 Y80.225 E15.63981
G1 X146.735 Y79.277 E15.74581
G1 X145.883 Y78.519 E15.83684
G1 X144.902 Y77.745 E15.93659
G1 X143.873 Y77.032 E16.03652
G1 X142.82 Y76.399 E16.13459
G1 X141.574 Y75.759 E16.24641
G1 X140.458 Y75.275 E16.34351
G1 X139.408 Y74.896 E16.43262
G1 X138.227 Y74.547 E16.53092
G1 X136.882 Y74.242 E16.64101
G1 X135.623 Y74.048 E16.74269
G1 X134.487 Y73.94 E16.83378
G1 X133.203 Y73.9 E16.93633
G1 X116.823 Y73.9 E18.24385
G1 X114.95 Y73.983 E18.39351
G1 X113.666 Y74.148 E18.49685
G1 X112.454 Y74.38 E18.59535
G1 X111.219 Y74.7 E18.69719
G1 X110.207 Y75.027 E18.78208
G1 X109.044 Y75.482 E18.88177
G1 X107.917 Y76.007 E18.98101
G1 X106.702 Y76.675 E19.09169
G1 X105.669 Y77.336 E19.18959
G1 X104.776 Y77.984 E19.27766
G1 X103.708 Y78.875 E19.38869
G1 X102.81 Y79.727 E19.4875
G1 X101.997 Y80.598 E19.58261
G1 X96.994 Y86.305 E20.18843
G1 X95.94 Y87.619 E20.32289
G1 X95.338 Y88.496 E20.4078
G1 X94.943 Y88.999 E20.45886
G1 X94.454 Y89.486 E20.51395
G1 X93.897 Y89.912 E20.56992
G1 X93.33 Y90.244 E20.62237
G1 X92.375 Y90.727 E20.7078
G1 X91.425 Y91.278 E20.79546
G1 X90.405 Y91.958 E20.89332
G1 X89.351 Y92.756 E20.99885
G1 X88.475 Y93.52 E21.09163
G1 X87.527 Y94.45 E21.19764
G0 F9000 X87.877 Y94.666
G1 F1237.5 X147.53 Y154.318 E27.93173
G0 F9000 X146.412 Y155.463
G1 F1237.5 X86.824 Y95.875 E34.65854
G0 F9000 X85.861 Y97.175
G1 F1237.5 X145.198 Y156.511 E41.35695
G0 F9000 X143.888 Y157.464
G1 F1237.5 X84.992 Y98.568 E48.00564
G0 F9000 X84.243 Y100.082
G1 F1237.5 X142.485 Y158.324 E54.5805
G0 F9000 X140.967 Y159.069
G1 F1237.5 X83.597 Y101.699 E61.05693
G0 F9000 X83.09 Y103.455
G1 F1237.5 X139.335 Y159.7 E67.40635
G0 F9000 X137.567 Y160.195
G1 F1237.5 X82.732 Y105.36 E73.5966
G0 F9000 X82.566 Y107.456
G1 F1237.5 X135.651 Y160.541 E79.58929
G0 F9000 X133.536 Y160.689
G1 F1237.5 X82.549 Y109.702 E85.34514
G0 F9000 X82.549 Y111.965
G1 F1237.5 X131.282 Y160.697 E90.84649
G0 F9000 X129.019 Y160.697
G1 F1237.5 X82.549 Y114.228 E96.09237
G0 F9000 X82.58 Y116.522
G1 F1237.5 X126.756 Y160.697 E101.07928
G0 F9000 X124.493 Y160.697
G1 F1237.5 X82.903 Y119.107 E105.77432
G0 F9000 X83.79 Y122.256
G1 F1237.5 X122.231 Y160.698 E110.11393
G0 F9000 X119.969 Y160.698
G1 F1237.5 X85.196 Y125.925 E114.0394
G0 F9000 X86.609 Y129.601
G1 F1237.5 X117.706 Y160.698 E117.5499
G0 F9000 X115.443 Y160.698
G1 F1237.5 X88.022 Y133.276 E120.64548
G0 F9000 X89.434 Y136.951
G1 F1237.5 X113.18 Y160.698 E123.32619
G0 F9000 X110.89 Y160.67
G1 F1237.5 X90.846 Y140.627 E125.58887
G0 F9000 X92.259 Y144.302
G1 F1237.5 X108.343 Y160.386 E127.40457
G0 F9000 X105.247 Y159.553
G1 F1237.5 X93.689 Y147.995 E128.70934
G1 F2700 E123.70934
G0 F9000 X92.447 Y148.871
G0 X93.024 Y150.234
G0 X93.967 Y151.978
G0 X94.9 Y153.455
G0 X96.243 Y152.812
G1 F2700 E128.70934
G1 F1237.5 X100.426 Y156.995 E129.18155
G1 F2700 E124.18155
G0 F9000 X99.607 Y158.217
G0 X101.657 Y159.529
G0 X102.978 Y160.208
G0 X105.255 Y161.114
G0 X106.654 Y161.523
G0 X109.048 Y161.984
G0 X110.55 Y162.126
G0 X134.414 Y162.13
G0 X136.856 Y161.845
G0 X138.283 Y161.539
G0 X140.63 Y160.798
G0 X141.984 Y160.226
G0 X144.138 Y159.062
G0 X146.242 Y157.565
G0 X147.379 Y156.575
G0 X148.725 Y155.158
G0 X149.709 Y153.982
G0 X148.553 Y153.078
G1 F2700 E129.18155
G1 F1237.5 X89.036 Y93.561 E135.90035
G0 F9000 X90.286 Y92.548
G1 F1237.5 X149.48 Y151.742 E142.58268
G0 F9000 X150.298 Y150.298
G1 F1237.5 X91.625 Y91.625 E149.20619
G0 F9000 X93.081 Y90.818
G1 F1237.5 X151.018 Y148.755 E155.74662
G0 F9000 X151.607 Y147.082
G1 F1237.5 X94.487 Y89.962 E162.19482
G0 F9000 X95.598 Y88.809
G1 F1237.5 X152.064 Y145.276 E168.56925
G0 F9000 X152.353 Y143.302
G1 F1237.5 X96.548 Y87.497 E174.869
G0 F9000 X97.568 Y86.255
G1 F1237.5 X152.449 Y141.135 E181.06438
G0 F9000 X152.449 Y138.872
G1 F1237.5 X98.625 Y85.049 E187.14044
G0 F9000 X99.682 Y83.843
G1 F1237.5 X152.449 Y136.61 E193.09724
G0 F9000 X152.449 Y134.347
G1 F1237.5 X100.739 Y82.637 E198.93471
G0 F9000 X101.796 Y81.431
G1 F1237.5 X152.449 Y132.084 E204.65286
G0 F9000 X152.449 Y129.821
G1 F1237.5 X102.872 Y80.245 E210.24948
G0 F9000 X104.023 Y79.133
G1 F1237.5 X152.449 Y127.559 E215.71623
G0 F9000 X152.449 Y125.296
G1 F1237.5 X105.271 Y78.119 E221.04203
G0 F9000 X106.618 Y77.203
G1 F1237.5 X152.449 Y123.033 E226.21577
G0 F9000 X152.449 Y120.771
G1 F1237.5 X108.062 Y76.383 E231.22662
G0 F9000 X109.625 Y75.684
G1 F1237.5 X152.449 Y118.508 E236.06096
G0 F9000 X152.449 Y116.245
G1 F1237.5 X111.298 Y75.094 E240.70644
G0 F9000 X113.125 Y74.659
G1 F1237.5 X152.449 Y113.982 E245.14562
G0 F9000 X152.449 Y111.72
G1 F1237.5 X115.106 Y74.377 E249.36122
G0 F9000 X117.292 Y74.299
G1 F1237.5 X152.449 Y109.457 E253.3301
G0 F9000 X152.449 Y107.194
G1 F1237.5 X119.554 Y74.299 E257.04357
G0 F9000 X121.817 Y74.299
G1 F1237.5 X152.449 Y104.931 E260.50158
G0 F9000 X152.449 Y102.669
G1 F1237.5 X124.08 Y74.299 E263.70417
G0 F9000 X126.343 Y74.299
G1 F1237.5 X152.449 Y100.406 E266.6513
G0 F9000 X152.449 Y98.143
G1 F1237.5 X128.605 Y74.299 E269.34302
G0 F9000 X130.868 Y74.299
G1 F1237.5 X152.449 Y95.88 E271.77927
G0 F9000 X152.449 Y93.618
G1 F1237.5 X133.131 Y74.299 E273.96011
G0 F9000 X135.535 Y74.441
G1 F1237.5 X152.31 Y91.216 E275.85381
G0 F9000 X151.742 Y88.385
G1 F1237.5 X138.36 Y75.004 E277.36443
G0 F9000 X142.098 Y76.478
G1 F1237.5 X150.276 Y84.656 E278.28764
G1 F2700 E273.28764
G0 F300 X150.276 Y84.656 Z0.48
G0 F9000 X151.467 Y83.748
G0 X150.721 Y82.469
G0 X149.315 Y80.508
G0 X148.325 Y79.371
G0 X146.574 Y77.708
G0 X145.393 Y76.783
G0 X143.343 Y75.471
G0 X142.022 Y74.792
G0 X139.744 Y73.886
G0 X138.346 Y73.477
G0 X135.952 Y73.016
G0 X134.45 Y72.874
G0 X116.67 Y72.839
G0 X114.754 Y72.935
G0 X112.342 Y73.312
G0 X110.91 Y73.681
G0 X108.629 Y74.501
G0 X107.302 Y75.124
G0 X105.194 Y76.372
G0 X105.903 Y77.66
;TIME_ELAPSED:183.700957
;LAYER:-5
;TYPE:SUPPORT
G1 F2700 E278.28764
G1 F1237.5 X105.025 Y78.297 E278.37422
G1 X103.961 Y79.183 E278.48475
G1 X103.091 Y80.007 E278.5804
G1 X102.323 Y80.831 E278.67031
G1 X97.394 Y86.453 E279.26714
G1 X106.693 Y77.154 E280.31689
G1 X106.912 Y77.014 E280.33764
G1 X108.099 Y76.361 E280.44578
G1 X109.192 Y75.853 E280.542
G1 X109.547 Y75.714 E280.57243
G1 X83.618 Y101.643 E283.49952
G1 X83.525 Y101.899 E283.52126
G1 X83.143 Y103.207 E283.63003
G1 X83.05 Y103.625 E283.66421
G1 X111.688 Y74.987 E286.89712
G1 X112.556 Y74.765 E286.96864
G1 X113.506 Y74.584 E287.04583
G1 X82.733 Y105.356 E290.5197
G1 X82.694 Y105.609 E290.54013
G1 X82.596 Y106.628 E290.62185
G1 X82.587 Y106.917 E290.64493
G1 X115.129 Y74.375 E294.31855
G1 X116.608 Y74.309 E294.43673
G1 X82.549 Y108.369 E298.28166
G1 X82.549 Y109.783 E298.39453
G1 X118.033 Y74.299 E302.40027
G1 X119.447 Y74.299 E302.51314
G1 X82.549 Y111.197 E306.67851
G1 X82.549 Y112.611 E306.79138
G1 X120.861 Y74.299 E311.11637
G1 X122.275 Y74.299 E311.22924
G1 X82.549 Y114.025 E315.71386
G1 X82.549 Y115.44 E315.82681
G1 X123.689 Y74.299 E320.4711
G1 X125.104 Y74.299 E320.58405
G1 X82.606 Y116.797 E325.3816
G1 X82.684 Y117.721 E325.45562
G1 X82.739 Y118.079 E325.48453
G1 X126.518 Y74.299 E330.42674
G1 X127.932 Y74.299 E330.53961
G1 X82.942 Y119.29 E335.61852
G1 X83.086 Y119.976 E335.67448
G1 X83.213 Y120.433 E335.71234
G1 X129.346 Y74.299 E340.92029
G1 X130.761 Y74.299 E341.03324
G1 X83.537 Y121.523 E346.36429
G1 X83.899 Y122.575 E346.4531
G1 X132.175 Y74.299 E351.90291
G1 X133.187 Y74.299 E351.98369
G1 X133.578 Y74.311 E352.01492
G1 X84.299 Y123.59 E357.57796
G1 X84.691 Y124.612 E357.66534
G1 X134.918 Y74.384 E363.33545
G1 X135.572 Y74.444 E363.38787
G1 X136.18 Y74.537 E363.43697
G1 X85.084 Y125.633 E369.20513
G1 X85.476 Y126.655 E369.29251
G1 X137.373 Y74.758 E375.15109
G1 X137.981 Y74.894 E375.20082
G1 X138.5 Y75.045 E375.24397
G1 X85.869 Y127.676 E381.18541
G1 X86.262 Y128.698 E381.27281
G1 X139.578 Y75.381 E387.29164
G1 X140.306 Y75.646 E387.35348
G1 X140.601 Y75.773 E387.37912
G1 X86.654 Y129.72 E393.46912
G1 X87.046 Y130.741 E393.55643
G1 X141.579 Y76.209 E399.71253
G1 X142.513 Y76.689 E399.79635
G1 X87.439 Y131.763 E406.01358
G1 X87.832 Y132.784 E406.10091
G1 X143.411 Y77.206 E412.37509
G1 X144.252 Y77.778 E412.45628
G1 X88.225 Y133.806 E418.78115
G1 X88.617 Y134.828 E418.86852
G1 X145.062 Y78.383 E425.24052
G1 X145.619 Y78.82 E425.29704
G1 X145.841 Y79.018 E425.32078
G1 X89.009 Y135.85 E431.73647
G1 X89.402 Y136.871 E431.8238
G1 X146.582 Y79.691 E438.27877
G1 X147.282 Y80.405 E438.35859
G1 X89.795 Y137.892 E444.84822
G1 X90.187 Y138.914 E444.93559
G1 X147.943 Y81.159 E451.45553
G1 X148.172 Y81.424 E451.48349
G1 X148.571 Y81.945 E451.53587
G1 X90.58 Y139.936 E458.0824
G1 X90.972 Y140.958 E458.16977
G1 X149.156 Y82.774 E464.73809
G1 X149.559 Y83.372 E464.79565
G1 X149.71 Y83.635 E464.81986
G1 X91.365 Y141.979 E471.40629
G1 X91.758 Y143.001 E471.49369
G1 X150.222 Y84.537 E478.09361
G1 X150.692 Y85.48 E478.17772
G1 X92.15 Y144.022 E484.78645
G1 X92.543 Y145.044 E484.87385
G1 X151.119 Y86.468 E491.48642
G1 X151.487 Y87.515 E491.575
G1 X92.93 Y146.071 E498.18537
G1 X93.348 Y147.067 E498.27159
G1 X151.819 Y88.596 E504.8723
G1 X152.071 Y89.758 E504.96721
G1 X93.729 Y148.1 E511.55336
G1 X93.858 Y148.464 E511.58419
G1 X94.132 Y149.111 E511.64028
G1 X152.287 Y90.957 E518.20526
G1 X152.402 Y92.256 E518.30936
G1 X94.585 Y150.073 E524.83624
G1 X94.889 Y150.68 E524.89043
G1 X95.074 Y150.998 E524.9198
G1 X152.448 Y93.624 E531.39667
G1 X152.448 Y95.038 E531.50954
G1 X95.61 Y151.877 E537.92596
G1 X96.178 Y152.723 E538.0073
G1 X152.448 Y96.452 E544.3596
G1 X152.448 Y97.867 E544.47255
G1 X96.79 Y153.524 E550.75565
G1 X97.442 Y154.287 E550.83577
G1 X152.448 Y99.281 E557.04532
G1 X152.448 Y100.695 E557.15819
G1 X98.129 Y155.014 E563.29019
G1 X98.476 Y155.369 E563.32982
G1 X98.852 Y155.706 E563.37012
G1 X152.448 Y102.109 E569.42056
G1 X152.448 Y103.523 E569.53343
G1 X99.611 Y156.361 E575.49818
G1 X100.404 Y156.981 E575.57853
G1 X152.448 Y104.938 E581.45365
G1 X152.448 Y106.352 E581.56653
G1 X101.232 Y157.568 E587.34823
G1 X102.117 Y158.097 E587.43053
G1 X152.448 Y107.766 E593.11233
G1 X152.448 Y109.18 E593.2252
G1 X103.036 Y158.592 E598.80326
G1 X103.588 Y158.875 E598.85277
G1 X103.992 Y159.05 E598.88792
G1 X152.448 Y110.595 E604.35799
G1 X152.448 Y112.009 E604.47087
G1 X104.995 Y159.462 E609.82777
G1 X105.706 Y159.719 E609.88812
G1 X106.049 Y159.822 E609.91671
G1 X152.448 Y113.423 E615.15463
G1 X152.448 Y114.837 E615.2675
G1 X107.154 Y160.131 E620.38068
G1 X108.309 Y160.391 E620.47518
G1 X152.448 Y116.251 E625.45803
G1 X152.448 Y117.666 E625.57098
G1 X109.548 Y160.566 E630.4139
G1 X110.845 Y160.683 E630.51786
G1 X152.448 Y119.08 E635.21436
G1 X152.448 Y120.494 E635.32723
G1 X112.243 Y160.699 E639.86592
G1 X113.657 Y160.699 E639.97879
G1 X152.448 Y121.908 E644.35786
G1 X152.448 Y123.322 E644.47073
G1 X115.071 Y160.699 E648.69017
G1 X116.485 Y160.699 E648.80304
G1 X152.448 Y124.737 E652.8628
G1 X152.448 Y126.151 E652.97567
G1 X117.9 Y160.699 E656.87574
G1 X119.314 Y160.699 E656.98862
G1 X152.448 Y127.565 E660.72907
G1 X152.448 Y128.979 E660.84194
G1 X120.728 Y160.699 E664.42277
G1 X122.142 Y160.699 E664.53564
G1 X152.448 Y130.394 E667.95679
G1 X152.448 Y131.808 E668.06966
G1 X123.557 Y160.699 E671.33112
G1 X124.971 Y160.699 E671.44399
G1 X152.448 Y133.222 E674.54584
G1 X152.448 Y134.636 E674.65871
G1 X126.385 Y160.699 E677.60092
G1 X127.799 Y160.699 E677.7138
G1 X152.448 Y136.05 E680.49639
G1 X152.448 Y137.465 E680.60934
G1 X129.213 Y160.699 E683.23225
G1 X130.628 Y160.699 E683.3452
G1 X152.448 Y138.879 E685.80843
G1 X152.448 Y140.293 E685.9213
G1 X132.042 Y160.699 E688.22491
G1 X133.456 Y160.699 E688.33778
G1 X152.439 Y141.716 E690.48075
G1 X152.402 Y142.8 E690.56733
G1 X152.363 Y143.207 E690.59996
G1 X134.959 Y160.611 E692.56468
G1 X135.538 Y160.559 E692.61108
G1 X136.583 Y160.401 E692.69545
G1 X152.148 Y144.835 E694.45261
G1 X152.112 Y145.07 E694.47159
G1 X151.856 Y146.226 E694.5661
G1 X151.724 Y146.674 E694.60339
G1 X138.418 Y159.98 E696.10548
G1 X138.98 Y159.823 E696.15206
G1 X140.12 Y159.425 E696.24845
G1 X140.58 Y159.232 E696.28827
G1 X150.987 Y148.825 E697.4631
G1 X150.625 Y149.661 E697.53582
G1 X150.008 Y150.861 E697.64353
G1 X149.456 Y151.789 E697.72972
G1 X148.792 Y152.766 E697.82402
G1 X147.929 Y153.869 E697.93581
G1 X147.127 Y154.764 E698.03174
G1 X146.26 Y155.615 E698.12871
G1 X145.328 Y156.419 E698.22697
G1 X144.519 Y157.039 E698.30833
G0 F9000 X143.499 Y157.727
G1 F1237.5 X149.483 Y151.744 E698.9838
G1 F2700 E693.9838
G0 F9000 X150.742 Y152.494
G0 X149.856 Y153.794
G0 X148.311 Y155.647
G0 X147.243 Y156.702
G0 X145.377 Y158.228
G0 X144.138 Y159.062
G0 X141.984 Y160.226
G0 X140.63 Y160.798
G0 X138.283 Y161.539
G0 X136.856 Y161.845
G0 X134.414 Y162.13
G0 X110.55 Y162.126
G0 X109.048 Y161.984
G0 X106.654 Y161.523
G0 X105.255 Y161.114
G0 X102.978 Y160.208
G0 X101.657 Y159.529
G0 X99.607 Y158.217
G0 X98.426 Y157.292
G0 X96.675 Y155.629
G0 X95.685 Y154.492
