;FLAVOR:Marlin
;TIME:11518
;Filament used: 5.56852m
;Layer height: 0.12
;MINX:89.085
;MINY:41.835
;MINZ:0.144
;MAXX:144.849
;MAXY:193.165
;MAXZ:20.754
;Generated with Cura_SteamEngine 5.2.1
M140 S50
M105
M190 S50
M104 S200
M105
M109 S200
M82 ;absolute extrusion mode
; Ender 3 Custom Start G-code
G92 E0 ; Reset Extruder
G28 ; Home all axes
G1 Z2.0 F3000 ; Move Z Axis up little to prevent scratching of Heat Bed
G1 X0.1 Y20 Z0.3 F5000.0 ; Move to start position
G1 X0.1 Y200.0 Z0.3 F1500.0 E15 ; Draw the first line
G1 X0.4 Y200.0 Z0.3 F5000.0 ; Move to side a little
G1 X0.4 Y20 Z0.3 F1500.0 E30 ; Draw the second line
G92 E0 ; Reset Extruder
G1 Z2.0 F3000 ; Move Z Axis up little to prevent scratching of Heat Bed
G1 X5 Y20 Z0.3 F5000.0 ; Move over to prevent blob squish
G92 E0
G92 E0
G1 F2700 E-5
;LAYER_COUNT:167
;LAYER:-6
M107
G0 F9000 X92.009 Y54.174 Z0.144
;TYPE:SUPPORT-INTERFACE
G1 F2700 E0
G1 F1125 X91.521 Y55.302 E0.05886
G1 X91.105 Y56.467 E0.11811
G1 X90.761 Y57.66 E0.17758
G1 X90.495 Y58.856 E0.23626
G1 X90.298 Y60.126 E0.29781
G1 X90.188 Y61.335 E0.35596
G1 X90.152 Y62.444 E0.4091
G1 X90.151 Y172.495 E5.67995
G1 X90.183 Y173.594 E5.73261
G1 X90.292 Y174.83 E5.79203
G1 X90.48 Y176.068 E5.85201
G1 X90.741 Y177.266 E5.91073
G1 X91.043 Y178.347 E5.96449
G1 X91.448 Y179.507 E6.02333
G1 X91.93 Y180.658 E6.0831
G1 X92.538 Y181.867 E6.14791
G1 X93.093 Y182.824 E6.2009
G1 X93.882 Y183.998 E6.26865
G1 X94.573 Y184.901 E6.3231
G1 X95.335 Y185.775 E6.37864
G1 X96.264 Y186.722 E6.44218
G1 X97.116 Y187.48 E6.49679
G1 X98.097 Y188.255 E6.55667
G1 X99.126 Y188.967 E6.6166
G1 X100.18 Y189.601 E6.67551
G1 X101.28 Y190.172 E6.73487
G1 X102.538 Y190.724 E6.80067
G1 X103.594 Y191.106 E6.85445
G1 X104.91 Y191.489 E6.9201
G1 X106.12 Y191.758 E6.97946
G1 X107.376 Y191.952 E7.04033
G1 X108.606 Y192.063 E7.09948
G1 X109.799 Y192.1 E7.15665
G1 X125.254 Y192.1 E7.89686
G1 X126.344 Y192.067 E7.94909
G1 X127.587 Y191.957 E8.00885
G1 X128.818 Y191.77 E8.06849
G1 X130.015 Y191.508 E8.12718
G1 X131.204 Y191.172 E8.18635
G1 X132.257 Y190.802 E8.23981
G1 X133.408 Y190.32 E8.29957
G1 X134.625 Y189.708 E8.36482
G1 X135.582 Y189.152 E8.41783
G1 X136.683 Y188.418 E8.4812
G1 X137.721 Y187.614 E8.54409
G1 X138.525 Y186.915 E8.59511
G1 X139.473 Y185.986 E8.65868
G1 X140.234 Y185.13 E8.71354
G1 X141.005 Y184.153 E8.77315
G1 X141.718 Y183.123 E8.83314
G1 X142.353 Y182.068 E8.89212
G1 X142.991 Y180.825 E8.95904
G1 X143.475 Y179.708 E9.01734
G1 X143.861 Y178.642 E9.07164
G1 X144.239 Y177.338 E9.13667
G1 X144.508 Y176.13 E9.19594
G1 X144.702 Y174.873 E9.25686
G1 X144.81 Y173.736 E9.31156
G1 X144.848 Y172.553 E9.36825
G1 X144.849 Y62.507 E14.63886
G1 X144.817 Y61.406 E14.69161
G1 X144.707 Y60.163 E14.75138
G1 X144.52 Y58.933 E14.81096
G1 X144.255 Y57.726 E14.87015
G1 X143.959 Y56.668 E14.92277
G1 X143.552 Y55.492 E14.98237
G1 X143.07 Y54.342 E15.04209
G1 X142.457 Y53.125 E15.10735
G1 X141.907 Y52.175 E15.15993
G1 X141.227 Y51.155 E15.21864
G1 X140.429 Y50.101 E15.28196
G1 X139.665 Y49.225 E15.33763
G1 X138.735 Y48.277 E15.40123
G1 X137.883 Y47.519 E15.45585
G1 X136.902 Y46.745 E15.5157
G1 X135.873 Y46.032 E15.57566
G1 X134.82 Y45.399 E15.6345
G1 X133.574 Y44.759 E15.70159
G1 X132.458 Y44.275 E15.75985
G1 X131.408 Y43.896 E15.81332
G1 X130.227 Y43.547 E15.8723
G1 X128.882 Y43.242 E15.93835
G1 X127.623 Y43.048 E15.99936
G1 X126.487 Y42.94 E16.05402
G1 X125.201 Y42.901 E16.11564
G1 X109.746 Y42.9 E16.85585
G1 X108.656 Y42.933 E16.90808
G1 X107.413 Y43.043 E16.96784
G1 X106.182 Y43.23 E17.02748
G1 X104.984 Y43.491 E17.0862
G1 X103.903 Y43.793 E17.13996
G1 X102.743 Y44.198 E17.19881
G1 X101.592 Y44.68 E17.25857
G1 X100.375 Y45.293 E17.32383
G1 X99.425 Y45.843 E17.37641
G1 X98.405 Y46.523 E17.43512
G1 X97.351 Y47.321 E17.49844
G1 X96.475 Y48.085 E17.55411
G1 X95.527 Y49.015 E17.61772
G1 X94.711 Y49.933 E17.67654
G1 X93.898 Y50.978 E17.73995
G1 X93.282 Y51.876 E17.79211
G1 X92.649 Y52.93 E17.851
G1 X92.009 Y54.174 E17.918
G0 F9000 X92.519 Y54.053
G1 F1125 X144.448 Y105.981 E21.43528
G0 F9000 X144.448 Y103.719
G1 F1125 X93.319 Y52.589 E24.89845
G0 F9000 X94.214 Y51.222
G1 F1125 X144.448 Y101.456 E28.30095
G0 F9000 X144.448 Y99.193
G1 F1125 X95.218 Y49.963 E31.63546
G0 F9000 X96.317 Y48.8
G1 F1125 X144.448 Y96.93 E34.89549
G0 F9000 X144.448 Y94.668
G1 F1125 X97.501 Y47.721 E38.07536
G0 F9000 X98.79 Y46.747
G1 F1125 X144.448 Y92.405 E41.16792
G0 F9000 X144.448 Y90.142
G1 F1125 X100.176 Y45.87 E44.16661
G0 F9000 X101.661 Y45.092
G1 F1125 X144.448 Y87.879 E47.06471
G0 F9000 X144.448 Y85.617
G1 F1125 X103.269 Y44.438 E49.85389
G0 F9000 X104.996 Y43.902
G1 F1125 X144.448 Y83.354 E52.5261
G0 F9000 X144.448 Y81.091
G1 F1125 X106.885 Y43.528 E55.07036
G0 F9000 X108.943 Y43.324
G1 F1125 X144.448 Y78.828 E57.47519
G0 F9000 X144.448 Y76.566
G1 F1125 X111.183 Y43.301 E59.72834
G0 F9000 X113.446 Y43.301
G1 F1125 X144.448 Y74.303 E61.8282
G0 F9000 X144.448 Y72.04
G1 F1125 X115.708 Y43.301 E63.77482
G0 F9000 X117.971 Y43.301
G1 F1125 X144.448 Y69.778 E65.56819
G0 F9000 X144.448 Y67.515
G1 F1125 X120.234 Y43.301 E67.20828
G0 F9000 X122.497 Y43.301
G1 F1125 X144.448 Y65.252 E68.6951
G0 F9000 X144.448 Y62.989
G1 F1125 X124.759 Y43.301 E70.02866
G0 F9000 X127.123 Y43.402
G1 F1125 X144.345 Y60.624 E71.19516
G0 F9000 X143.883 Y57.899
G1 F1125 X129.858 Y43.874 E72.14512
G0 F9000 X133.342 Y45.095
G1 F1125 X142.654 Y54.407 E72.77585
G1 F2700 E67.77585
G0 F9000 X143.967 Y53.751
G0 X142.812 Y51.612
G0 X141.978 Y50.373
G0 X140.452 Y48.507
G0 X139.397 Y47.439
G0 X137.544 Y45.895
G0 X136.317 Y45.052
G0 X134.186 Y43.871
G0 X132.844 Y43.283
G0 X130.504 Y42.518
G0 X129.071 Y42.194
G0 X126.66 Y41.887
G0 X125.214 Y41.835
G0 X108.586 Y41.87
G0 X106.144 Y42.155
G0 X104.717 Y42.461
G0 X102.37 Y43.202
G0 X101.016 Y43.774
G0 X98.862 Y44.938
G0 X97.623 Y45.772
G0 X95.757 Y47.298
G0 X94.689 Y48.353
G0 X93.145 Y50.206
G0 X92.302 Y51.433
G0 X91.347 Y53.158
G0 X90.534 Y54.904
G0 X91.829 Y55.625
G1 F2700 E72.77585
G1 F1125 X144.448 Y108.244 E76.3399
G0 F9000 X144.448 Y110.507
G1 F1125 X91.271 Y57.33 E79.94175
G0 F9000 X90.849 Y59.171
G1 F1125 X144.448 Y112.77 E83.57218
G0 F9000 X144.448 Y115.032
G1 F1125 X90.601 Y61.185 E87.21941
G0 F9000 X90.551 Y63.398
G1 F1125 X144.448 Y117.295 E90.87003
G0 F9000 X144.448 Y119.558
G1 F1125 X90.551 Y65.661 E94.52064
G0 F9000 X90.551 Y67.923
G1 F1125 X144.448 Y121.821 E98.17129
G0 F9000 X144.448 Y124.083
G1 F1125 X90.551 Y70.186 E101.82191
G0 F9000 X90.551 Y72.449
G1 F1125 X144.448 Y126.346 E105.47252
G0 F9000 X144.448 Y128.609
G1 F1125 X90.551 Y74.712 E109.12314
G0 F9000 X90.551 Y76.974
G1 F1125 X144.448 Y130.872 E112.77379
G0 F9000 X144.448 Y133.134
G1 F1125 X90.551 Y79.237 E116.4244
G0 F9000 X90.551 Y81.5
G1 F1125 X144.448 Y135.397 E120.07502
G0 F9000 X144.448 Y137.66
G1 F1125 X90.551 Y83.763 E123.72563
G0 F9000 X90.551 Y86.025
G1 F1125 X144.448 Y139.922 E127.37625
G0 F9000 X144.448 Y142.185
G1 F1125 X90.551 Y88.288 E131.02686
G0 F9000 X90.551 Y90.551
G1 F1125 X144.448 Y144.448 E134.67748
G0 F9000 X144.448 Y146.711
G1 F1125 X90.551 Y92.814 E138.32809
G0 F9000 X90.551 Y95.076
G1 F1125 X144.448 Y148.973 E141.97871
G0 F9000 X144.448 Y151.236
G1 F1125 X90.551 Y97.339 E145.62933
G0 F9000 X90.551 Y99.602
G1 F1125 X144.448 Y153.499 E149.27994
G0 F9000 X144.448 Y155.762
G1 F1125 X90.551 Y101.865 E152.93056
G0 F9000 X90.551 Y104.127
G1 F1125 X144.448 Y158.024 E156.58117
G0 F9000 X144.448 Y160.287
G1 F1125 X90.551 Y106.39 E160.23179
G0 F9000 X90.551 Y108.653
G1 F1125 X144.448 Y162.55 E163.8824
G0 F9000 X144.448 Y164.813
G1 F1125 X90.551 Y110.916 E167.53302
G0 F9000 X90.551 Y113.178
G1 F1125 X144.448 Y167.075 E171.18363
G0 F9000 X144.448 Y169.338
G1 F1125 X90.551 Y115.441 E174.83425
G0 F9000 X90.551 Y117.704
G1 F1125 X144.448 Y171.601 E178.48487
G0 F9000 X144.401 Y173.816
G1 F1125 X90.551 Y119.967 E182.13226
G0 F9000 X90.551 Y122.229
G1 F1125 X144.15 Y175.829 E185.76273
G0 F9000 X143.726 Y177.667
G1 F1125 X90.551 Y124.492 E189.36444
G0 F9000 X90.551 Y126.755
G1 F1125 X143.17 Y179.374 E192.92849
G0 F9000 X142.479 Y180.945
G1 F1125 X90.551 Y129.017 E196.44574
G0 F9000 X90.551 Y131.28
G1 F1125 X141.68 Y182.409 E199.90887
G0 F9000 X140.781 Y183.773
G1 F1125 X90.551 Y133.543 E203.31111
G0 F9000 X90.551 Y135.806
G1 F1125 X139.781 Y185.036 E206.64561
G0 F9000 X138.682 Y186.199
G1 F1125 X90.551 Y138.068 E209.90568
G0 F9000 X90.551 Y140.331
G1 F1125 X137.496 Y187.277 E213.08545
G0 F9000 X136.208 Y188.251
G1 F1125 X90.551 Y142.594 E216.17794
G0 F9000 X90.551 Y144.857
G1 F1125 X134.823 Y189.129 E219.17663
G0 F9000 X133.337 Y189.906
G1 F1125 X90.551 Y147.119 E222.07469
G0 F9000 X90.551 Y149.382
G1 F1125 X131.729 Y190.561 E224.86384
G0 F9000 X130.001 Y191.095
G1 F1125 X90.551 Y151.645 E227.53592
G0 F9000 X90.551 Y153.908
G1 F1125 X128.114 Y191.471 E230.08018
G0 F9000 X126.055 Y191.675
G1 F1125 X90.551 Y156.17 E232.48501
G0 F9000 X90.551 Y158.433
G1 F1125 X123.817 Y191.699 E234.73822
G0 F9000 X121.554 Y191.699
G1 F1125 X90.551 Y160.696 E236.83816
G0 F9000 X90.551 Y162.959
G1 F1125 X119.291 Y191.699 E238.78481
G0 F9000 X117.029 Y191.699
G1 F1125 X90.551 Y165.221 E240.57825
G0 F9000 X90.551 Y167.484
G1 F1125 X114.766 Y191.699 E242.21841
G0 F9000 X112.503 Y191.699
G1 F1125 X90.551 Y169.747 E243.70528
G0 F9000 X90.551 Y172.01
G1 F1125 X110.24 Y191.699 E245.03888
G0 F9000 X107.872 Y191.594
G1 F1125 X90.653 Y174.374 E246.20521
G0 F9000 X91.113 Y177.097
G1 F1125 X105.146 Y191.13 E247.15571
G0 F9000 X101.648 Y189.895
G1 F1125 X92.345 Y180.592 E247.78584
G1 F2700 E242.78584
G0 F300 X92.345 Y180.592 Z0.324
G0 F9000 X91.033 Y181.249
G0 X92.189 Y183.388
G0 X93.022 Y184.627
G0 X94.548 Y186.493
G0 X95.603 Y187.561
G0 X97.456 Y189.105
G0 X98.683 Y189.948
G0 X100.814 Y191.129
G0 X102.154 Y191.716
G0 X104.496 Y192.482
G0 X105.929 Y192.806
G0 X108.34 Y193.113
G0 X109.786 Y193.165
G0 X126.414 Y193.13
G0 X128.856 Y192.845
G0 X130.283 Y192.539
G0 X132.63 Y191.798
G0 X133.013 Y191.637
G0 X135.002 Y190.717
G0 X134.592 Y189.262
;TIME_ELAPSED:293.133674
;LAYER:-5
;TYPE:SUPPORT
G1 F2700 E247.78584
G1 F1125 X142.025 Y181.829 E248.41516
G1 F2700 E243.41516
G0 F9000 X143.279 Y182.593
G0 X141.974 Y184.634
G0 X141.042 Y185.824
G0 X139.379 Y187.575
G0 X138.242 Y188.565
G0 X136.281 Y189.971
G0 X135.377 Y188.809
G1 F2700 E248.41516
G1 F1125 X136.52 Y188.04 E248.49764
G1 X137.327 Y187.42 E248.55856
G1 X138.26 Y186.615 E248.63234
G1 X139.128 Y185.764 E248.70511
G1 X139.93 Y184.869 E248.77706
G1 X140.792 Y183.766 E248.86087
G1 X141.456 Y182.789 E248.93159
G1 X142.008 Y181.861 E248.99623
G1 X142.626 Y180.661 E249.07704
G1 X143.104 Y179.557 E249.14907
G1 X143.228 Y179.211 E249.17107
G1 X131.958 Y190.481 E250.12526
G1 X130.979 Y190.823 E250.18735
G1 X129.901 Y191.125 E250.25437
G1 X143.872 Y177.154 E251.43724
G1 X144.114 Y176.069 E251.5038
G1 X144.217 Y175.395 E251.54462
G1 X128.143 Y191.468 E252.9055
G1 X127.538 Y191.56 E252.94214
G1 X126.549 Y191.648 E253.00158
G1 X144.403 Y173.794 E254.51322
G1 X144.455 Y172.328 E254.60104
G1 X125.084 Y191.699 E256.24112
G1 X123.67 Y191.699 E256.32577
G1 X144.448 Y170.921 E258.08497
G1 X144.448 Y169.506 E258.16968
G1 X122.255 Y191.699 E260.04869
G1 X120.841 Y191.699 E260.13334
G1 X144.448 Y168.092 E262.13206
G1 X144.448 Y166.678 E262.21671
G1 X119.427 Y191.699 E264.33515
G1 X118.013 Y191.699 E264.41981
G1 X144.448 Y165.264 E266.65797
G1 X144.448 Y163.85 E266.74262
G1 X116.599 Y191.699 E269.1005
G1 X115.184 Y191.699 E269.18521
G1 X144.448 Y162.435 E271.66289
G1 X144.448 Y161.021 E271.74754
G1 X113.77 Y191.699 E274.34494
G1 X112.356 Y191.699 E274.4296
G1 X144.448 Y159.607 E277.14671
G1 X144.448 Y158.193 E277.23137
G1 X110.942 Y191.699 E280.0682
G1 X109.812 Y191.699 E280.13585
G1 X109.535 Y191.691 E280.15244
G1 X144.448 Y156.779 E283.10836
G1 X144.448 Y155.364 E283.19308
G1 X108.188 Y191.624 E286.26308
G1 X107.426 Y191.555 E286.30889
G1 X106.921 Y191.477 E286.33948
G1 X144.448 Y153.95 E289.51676
G1 X144.448 Y152.536 E289.60141
G1 X105.724 Y191.26 E292.88004
G1 X104.892 Y191.072 E292.9311
G1 X104.588 Y190.982 E292.95009
G1 X144.448 Y151.122 E296.32489
G1 X144.448 Y149.707 E296.4096
G1 X103.507 Y190.648 E299.87594
G1 X102.47 Y190.271 E299.94199
G1 X144.448 Y148.293 E303.49612
G1 X144.448 Y146.879 E303.58078
G1 X101.498 Y189.829 E307.2172
G1 X100.564 Y189.349 E307.28007
G1 X144.448 Y145.465 E310.99558
G1 X144.448 Y144.051 E311.08023
G1 X99.668 Y188.83 E314.87155
G1 X99.448 Y188.698 E314.88691
G1 X98.816 Y188.268 E314.93268
G1 X144.448 Y142.636 E318.79618
G1 X144.448 Y141.222 E318.88083
G1 X98.002 Y187.668 E322.81325
G1 X97.21 Y187.046 E322.87354
G1 X144.448 Y139.808 E326.87302
G1 X144.448 Y138.394 E326.95767
G1 X96.476 Y186.366 E331.01929
G1 X95.775 Y185.653 E331.07915
G1 X144.448 Y136.98 E335.20012
G1 X144.448 Y135.565 E335.28484
G1 X95.111 Y184.902 E339.46203
G1 X94.83 Y184.577 E339.48775
G1 X94.48 Y184.119 E339.52226
G1 X144.448 Y134.151 E343.75287
G1 X144.448 Y132.737 E343.83753
G1 X93.891 Y183.294 E348.11801
G1 X93.322 Y182.449 E348.179
G1 X144.448 Y131.323 E352.50766
G1 X144.448 Y129.908 E352.59237
G1 X92.819 Y181.537 E356.96362
G1 X92.347 Y180.595 E357.02669
G1 X144.448 Y128.494 E361.4379
G1 X144.448 Y127.08 E361.52256
G1 X91.913 Y179.615 E365.97051
G1 X91.544 Y178.57 E366.03686
G1 X144.448 Y125.666 E370.51605
G1 X144.448 Y124.252 E370.60071
G1 X91.221 Y177.479 E375.10725
G1 X91.1 Y177.05 E375.13394
G1 X90.947 Y176.338 E375.17754
G1 X144.448 Y122.837 E379.70728
G1 X144.448 Y121.423 E379.79193
G1 X90.741 Y175.13 E384.33911
G1 X90.686 Y174.771 E384.36086
G1 X90.605 Y173.852 E384.41609
G1 X144.448 Y120.009 E388.97479
G1 X144.448 Y118.595 E389.05944
G1 X90.55 Y172.493 E393.62279
G1 X90.55 Y171.078 E393.70751
G1 X144.448 Y117.181 E398.27082
G1 X144.448 Y115.766 E398.35553
G1 X90.55 Y169.664 E402.91889
G1 X90.55 Y168.25 E403.00354
G1 X144.448 Y114.352 E407.56689
G1 X144.448 Y112.938 E407.65155
G1 X90.55 Y166.836 E412.2149
G1 X90.55 Y165.421 E412.29962
G1 X144.448 Y111.524 E416.86293
G1 X144.448 Y110.109 E416.94764
G1 X90.55 Y164.007 E421.51099
G1 X90.55 Y162.593 E421.59565
G1 X144.448 Y108.695 E426.159
G1 X144.448 Y107.281 E426.24366
G1 X90.55 Y161.179 E430.80701
G1 X90.55 Y159.765 E430.89166
G1 X144.448 Y105.867 E435.45502
G1 X144.448 Y104.453 E435.53967
G1 X90.55 Y158.35 E440.10298
G1 X90.55 Y156.936 E440.18764
G1 X144.448 Y103.038 E444.75099
G1 X144.448 Y101.624 E444.83564
G1 X90.55 Y155.522 E449.399
G1 X90.55 Y154.108 E449.48365
G1 X144.448 Y100.21 E454.04701
G1 X144.448 Y98.796 E454.13166
G1 X90.55 Y152.694 E458.69501
G1 X90.55 Y151.279 E458.77973
G1 X144.448 Y97.382 E463.34304
G1 X144.448 Y95.967 E463.42775
G1 X90.55 Y149.865 E467.99111
G1 X90.55 Y148.451 E468.07576
G1 X144.448 Y94.553 E472.63911
G1 X144.448 Y93.139 E472.72377
G1 X90.55 Y147.037 E477.28712
G1 X90.55 Y145.622 E477.37184
G1 X144.448 Y91.725 E481.93515
G1 X144.448 Y90.31 E482.01986
G1 X90.55 Y144.208 E486.58322
G1 X90.55 Y142.794 E486.66787
G1 X144.448 Y88.896 E491.23122
G1 X144.448 Y87.482 E491.31588
G1 X90.55 Y141.38 E495.87923
G1 X90.55 Y139.966 E495.96388
G1 X144.448 Y86.068 E500.52724
G1 X144.448 Y84.654 E500.61189
G1 X90.55 Y138.551 E505.1752
G1 X90.55 Y137.137 E505.25986
G1 X144.448 Y83.239 E509.82321
G1 X144.448 Y81.825 E509.90787
G1 X90.55 Y135.723 E514.47122
G1 X90.55 Y134.309 E514.55587
G1 X144.448 Y80.411 E519.11923
G1 X144.448 Y78.997 E519.20388
G1 X90.55 Y132.895 E523.76723
G1 X90.55 Y131.48 E523.85195
G1 X144.448 Y77.583 E528.41526
G1 X144.448 Y76.168 E528.49997
G1 X90.55 Y130.066 E533.06333
G1 X90.55 Y128.652 E533.14798
G1 X144.448 Y74.754 E537.71134
G1 X144.448 Y73.34 E537.79599
G1 X90.55 Y127.238 E542.35934
G1 X90.55 Y125.823 E542.44406
G1 X144.448 Y71.926 E547.00737
G1 X144.448 Y70.511 E547.09208
G1 X90.55 Y124.409 E551.65544
G1 X90.55 Y122.995 E551.74009
G1 X144.448 Y69.097 E556.30344
G1 X144.448 Y67.683 E556.3881
G1 X90.55 Y121.581 E560.95145
G1 X90.55 Y120.167 E561.0361
G1 X144.448 Y66.269 E565.59946
G1 X144.448 Y64.855 E565.68411
G1 X90.55 Y118.752 E570.24742
G1 X90.551 Y117.338 E570.33208
G1 X144.448 Y63.44 E574.89539
G1 X144.449 Y62.499 E574.95173
G1 X144.435 Y62.039 E574.97928
