;FLAVOR:Marlin
;TIME:5119
;Filament used: 2.03376m
;Layer height: 0.12
;MINX:90.308
;MINY:83.608
;MINZ:0.144
;MAXX:144.615
;MAXY:151.415
;MAXZ:16.194
;Generated with Cura_SteamEngine 5.2.1
M140 S60
M105
M190 S60
M104 S200
M105
M109 S200
M82 ;absolute extrusion mode
; Ender 3 Custom Start G-code
G92 E0 ; Reset Extruder
G28 ; Home all axes
G1 Z2.0 F3000 ; Move Z Axis up little to prevent scratching of Heat Bed
G1 X0.1 Y20 Z0.3 F5000.0 ; Move to start position
G1 X0.1 Y200.0 Z0.3 F1500.0 E15 ; Draw the first line
G1 X0.4 Y200.0 Z0.3 F5000.0 ; Move to side a little
G1 X0.4 Y20 Z0.3 F1500.0 E30 ; Draw the second line
G92 E0 ; Reset Extruder
G1 Z2.0 F3000 ; Move Z Axis up little to prevent scratching of Heat Bed
G1 X5 Y20 Z0.3 F5000.0 ; Move over to prevent blob squish
G92 E0
G92 E0
G1 F2700 E-5
;LAYER_COUNT:129
;LAYER:-6
M107
G0 F9000 X93.179 Y88.616 Z0.144
;TYPE:SUPPORT-INTERFACE
G1 F2700 E0
G1 F1125 X92.704 Y89.336 E0.04131
G1 X92.294 Y90.1 E0.08284
G1 X91.966 Y90.87 E0.12293
G1 X91.698 Y91.699 E0.16465
G1 X91.506 Y92.534 E0.20569
G1 X91.388 Y93.393 E0.24722
G1 X91.35 Y94.326 E0.29194
G1 X91.35 Y94.526 E0.30152
G1 X91.351 Y140.744 E2.51511
G1 X91.37 Y141.298 E2.54166
G1 X91.445 Y142.091 E2.57981
G1 X91.606 Y142.945 E2.62143
G1 X91.836 Y143.764 E2.66218
G1 X92.141 Y144.56 E2.703
G1 X92.52 Y145.339 E2.74449
G1 X92.953 Y146.061 E2.78482
G1 X93.471 Y146.767 E2.82675
G1 X94.037 Y147.41 E2.86778
G1 X94.649 Y147.99 E2.90817
G1 X95.316 Y148.521 E2.949
G1 X96.037 Y148.997 E2.99038
G1 X96.801 Y149.407 E3.0319
G1 X97.506 Y149.707 E3.0686
G1 X98.392 Y150.001 E3.11331
G1 X99.232 Y150.194 E3.15459
G1 X100.094 Y150.312 E3.19626
G1 X101.026 Y150.35 E3.24093
G1 X133.958 Y150.349 E4.8182
G1 X134.498 Y150.33 E4.84408
G1 X135.293 Y150.255 E4.88232
G1 X136.146 Y150.094 E4.9239
G1 X136.955 Y149.867 E4.96414
G1 X137.756 Y149.561 E5.00521
G1 X138.532 Y149.184 E5.04653
G1 X139.269 Y148.741 E5.08771
G1 X139.966 Y148.229 E5.12914
G1 X140.611 Y147.662 E5.17027
G1 X141.19 Y147.051 E5.21058
G1 X141.727 Y146.377 E5.25186
G1 X142.196 Y145.663 E5.29277
G1 X142.607 Y144.899 E5.33432
G1 X142.905 Y144.2 E5.37072
G1 X143.201 Y143.308 E5.41573
G1 X143.394 Y142.469 E5.45696
G1 X143.511 Y141.61 E5.49848
G1 X143.547 Y140.808 E5.53693
G1 X143.549 Y125.256 E6.28179
G1 X143.53 Y124.701 E6.30839
G1 X143.455 Y123.909 E6.34649
G1 X143.295 Y123.057 E6.38801
G1 X143.067 Y122.245 E6.4284
G1 X142.765 Y121.453 E6.469
G1 X142.383 Y120.668 E6.51081
G1 X141.941 Y119.931 E6.55197
G1 X141.429 Y119.234 E6.59339
G1 X140.862 Y118.589 E6.63452
G1 X140.251 Y118.01 E6.67484
G1 X139.583 Y117.478 E6.71574
G1 X138.863 Y117.004 E6.75703
G1 X138.099 Y116.593 E6.79858
G1 X137.394 Y116.293 E6.83527
G1 X136.508 Y115.999 E6.87998
G1 X135.668 Y115.806 E6.92126
G1 X134.806 Y115.688 E6.96293
G1 X133.874 Y115.651 E7.0076
G1 X130.942 Y115.65 E7.14803
G1 X130.401 Y115.67 E7.17396
G1 X129.607 Y115.745 E7.21216
G1 X128.754 Y115.906 E7.25373
G1 X127.945 Y116.133 E7.29398
G1 X127.144 Y116.439 E7.33504
G1 X126.368 Y116.816 E7.37636
G1 X125.632 Y117.259 E7.41751
G1 X124.94 Y117.766 E7.45859
G1 X124.299 Y118.329 E7.49945
G1 X123.706 Y118.95 E7.54058
G1 X123.174 Y119.621 E7.58159
G1 X122.944 Y119.896 E7.59876
G1 X122.457 Y120.364 E7.63111
G1 X121.909 Y120.776 E7.66395
G1 X121.316 Y121.113 E7.69662
G1 X120.662 Y121.379 E7.73043
G1 X120.051 Y121.545 E7.76075
G1 X119.373 Y121.641 E7.79355
G1 X118.667 Y121.651 E7.82737
G1 X118.011 Y121.576 E7.85899
G1 X117.343 Y121.415 E7.8919
G1 X116.702 Y121.167 E7.92482
G1 X116.084 Y120.835 E7.95842
G1 X115.532 Y120.44 E7.99093
G1 X115.049 Y119.993 E8.02245
G1 X114.595 Y119.453 E8.05624
G1 X114.225 Y118.874 E8.08915
G1 X113.934 Y118.258 E8.12178
G1 X113.72 Y117.61 E8.15446
G1 X113.595 Y116.957 E8.1863
G1 X113.55 Y116.284 E8.21861
G1 X113.55 Y94.256 E9.27363
G1 X113.53 Y93.701 E9.30023
G1 X113.455 Y92.909 E9.33833
G1 X113.295 Y92.057 E9.37985
G1 X113.067 Y91.245 E9.42025
G1 X112.765 Y90.453 E9.46084
G1 X112.383 Y89.668 E9.50265
G1 X111.941 Y88.931 E9.54381
G1 X111.429 Y88.234 E9.58524
G1 X110.862 Y87.589 E9.62637
G1 X110.251 Y87.01 E9.66668
G1 X109.583 Y86.478 E9.70758
G1 X108.863 Y86.004 E9.74887
G1 X108.102 Y85.594 E9.79027
G1 X107.394 Y85.293 E9.82712
G1 X106.508 Y84.999 E9.87183
G1 X105.668 Y84.806 E9.91311
G1 X104.806 Y84.688 E9.95478
G1 X103.874 Y84.65 E9.99945
G1 X100.942 Y84.65 E10.13988
G1 X100.402 Y84.67 E10.16576
G1 X99.607 Y84.745 E10.204
G1 X98.754 Y84.906 E10.24558
G1 X97.945 Y85.133 E10.28582
G1 X97.144 Y85.439 E10.32689
G1 X96.368 Y85.816 E10.36821
G1 X95.631 Y86.259 E10.40939
G1 X94.934 Y86.77 E10.45079
G1 X94.289 Y87.338 E10.49195
G1 X93.71 Y87.949 E10.53227
G1 X93.179 Y88.616 E10.5731
G0 F9000 X93.451 Y88.926
G1 F1125 X113.15 Y108.625 E11.90738
G0 F9000 X113.15 Y110.887
G1 F1125 X92.618 Y90.356 E13.29804
G0 F9000 X92.031 Y92.031
G1 F1125 X113.15 Y113.15 E14.7285
G0 F9000 X113.15 Y115.413
G1 F1125 X91.761 Y94.024 E16.17724
G0 F9000 X91.749 Y96.275
G1 F1125 X113.408 Y117.934 E17.64427
G1 F2700 E12.64427
G0 F9000 X114.924 Y117.863
G0 X117.646 Y120.391
G0 X117.286 Y121.811
G1 F2700 E17.64427
G1 F1125 X141.487 Y146.013 E19.28352
G0 F9000 X140.456 Y147.244
G1 F1125 X91.749 Y98.538 E22.58257
G0 F9000 X91.749 Y100.8
G1 F1125 X139.225 Y148.276 E25.79827
G0 F9000 X137.786 Y149.1
G1 F1125 X91.749 Y103.063 E28.9165
G0 F9000 X91.749 Y105.326
G1 F1125 X136.11 Y149.686 E31.92118
G0 F9000 X134.103 Y149.942
G1 F1125 X91.749 Y107.589 E34.78991
G0 F9000 X91.749 Y109.851
G1 F1125 X131.846 Y149.948 E37.50581
G0 F9000 X129.583 Y149.948
G1 F1125 X91.749 Y112.114 E40.06843
G0 F9000 X91.749 Y114.377
G1 F1125 X127.32 Y149.948 E42.47777
G0 F9000 X125.058 Y149.948
G1 F1125 X91.749 Y116.64 E44.73386
G0 F9000 X91.749 Y118.902
G1 F1125 X122.795 Y149.948 E46.8367
G0 F9000 X120.532 Y149.948
G1 F1125 X91.749 Y121.165 E48.78627
G0 F9000 X91.749 Y123.428
G1 F1125 X118.269 Y149.948 E50.58255
G0 F9000 X116.007 Y149.948
G1 F1125 X91.749 Y125.691 E52.22559
G0 F9000 X91.749 Y127.953
G1 F1125 X113.744 Y149.948 E53.71538
G0 F9000 X111.481 Y149.948
G1 F1125 X91.749 Y130.216 E55.05189
G0 F9000 X91.749 Y132.479
G1 F1125 X109.219 Y149.948 E56.23515
G0 F9000 X106.956 Y149.948
G1 F1125 X91.749 Y134.742 E57.26514
G0 F9000 X91.749 Y137.004
G1 F1125 X104.693 Y149.948 E58.14188
G0 F9000 X102.43 Y149.948
G1 F1125 X91.749 Y139.267 E58.86534
G0 F9000 X91.798 Y141.578
G1 F1125 X100.131 Y149.912 E59.42979
G0 F9000 X97.022 Y149.065
G1 F1125 X92.651 Y144.694 E59.72585
G1 F2700 E54.72585
G0 F9000 X91.332 Y145.334
G0 X92.148 Y146.762
G0 X93.171 Y148.04
G0 X94.055 Y148.879
G0 X95.393 Y149.847
G0 X96.452 Y150.415
G0 X98.001 Y150.994
G0 X99.174 Y151.26
G0 X101.01 Y151.414
G0 X134.576 Y151.392
G0 X136.231 Y151.163
G0 X137.411 Y150.832
G0 X138.931 Y150.175
G0 X139.962 Y149.552
G0 X141.24 Y148.529
G0 X142.079 Y147.645
G0 X143.047 Y146.307
G0 X143.615 Y145.248
G0 X144.194 Y143.699
G0 X144.46 Y142.526
G0 X144.615 Y140.68
G0 X144.592 Y124.624
G0 X144.363 Y122.969
G0 X144.032 Y121.789
G0 X143.375 Y120.269
G0 X142.752 Y119.238
G0 X141.729 Y117.96
G0 X140.845 Y117.121
G0 X139.507 Y116.153
G0 X138.448 Y115.585
G0 X136.899 Y115.006
G0 X135.726 Y114.74
G0 X133.89 Y114.586
G0 X130.324 Y114.608
G0 X128.669 Y114.837
G0 X127.489 Y115.168
G0 X125.969 Y115.825
G0 X125.135 Y116.329
G0 X119.273 Y120.58
G0 X119.73 Y121.993
G1 F2700 E59.72585
G1 F1125 X142.31 Y144.573 E61.25527
G0 F9000 X142.887 Y142.887
G1 F1125 X121.48 Y121.48 E62.70523
G0 F9000 X122.825 Y120.563
G1 F1125 X143.143 Y140.88 E64.0814
G0 F9000 X143.147 Y138.621
G1 F1125 X123.887 Y119.362 E65.38591
G0 F9000 X125.018 Y118.23
G1 F1125 X143.147 Y136.359 E66.61384
G0 F9000 X143.147 Y134.096
G1 F1125 X126.347 Y117.296 E67.75176
G0 F9000 X127.894 Y116.58
G1 F1125 X143.148 Y131.834 E68.78496
G0 F9000 X143.148 Y129.571
G1 F1125 X129.713 Y116.136 E69.69496
G0 F9000 X131.889 Y116.05
G1 F1125 X143.148 Y127.308 E70.45753
G0 F9000 X143.141 Y125.039
G1 F1125 X134.165 Y116.063 E71.06551
G0 F9000 X136.924 Y116.559
G1 F1125 X142.656 Y122.291 E71.45375
G1 F2700 E66.45375
G0 F9000 X143.789 Y121.147
G0 X143.261 Y120.061
G0 X142.348 Y118.685
G0 X141.543 Y117.767
G0 X140.311 Y116.696
G0 X139.298 Y116.029
G0 X138.086 Y115.446
G0 X114.615 Y106.362
G0 X113.15 Y106.362
G1 F2700 E71.45375
G1 F1125 X94.491 Y87.703 E72.71759
G0 F9000 X95.732 Y86.681
G1 F1125 X113.15 Y104.099 E73.89736
G0 F9000 X113.15 Y101.836
G1 F1125 X97.179 Y85.866 E74.97909
G0 F9000 X98.868 Y85.291
G1 F1125 X113.15 Y99.574 E75.94649
G0 F9000 X113.15 Y97.311
G1 F1125 X100.891 Y85.052 E76.77684
G0 F9000 X103.152 Y85.05
G1 F1125 X113.15 Y95.048 E77.45403
G0 F9000 X112.994 Y92.63
G1 F1125 X105.56 Y85.195 E77.95759
G1 F2700 E72.95759
G0 F9000 X106.651 Y83.939
G0 X107.801 Y84.309
G0 X109.013 Y84.892
G0 X110.311 Y85.696
G0 X109.751 Y87.124
G1 F2700 E77.95759
G1 F1125 X111.128 Y88.5 E78.05083
G1 F2700 E73.05083
G0 F300 X111.128 Y88.5 Z0.324
G0 F9000 X112.178 Y87.473
G0 X111.035 Y86.285
G0 X110.079 Y85.53
G0 X108.667 Y84.691
G0 X107.563 Y84.221
G0 X105.967 Y83.782
G0 X104.777 Y83.622
G0 X100.324 Y83.608
G0 X98.669 Y83.837
G0 X97.489 Y84.168
G0 X95.969 Y84.825
G0 X94.938 Y85.448
G0 X93.66 Y86.471
G0 X93.423 Y86.721
G0 X92.396 Y87.889
G0 X93.345 Y89.088
;TIME_ELAPSED:102.042002
;LAYER:-5
;TYPE:SUPPORT
G1 F2700 E78.05083
G1 F1125 X95.808 Y86.625 E78.25936
G1 X95.192 Y87.074 E78.305
G1 X94.576 Y87.615 E78.35408
G1 X93.996 Y88.226 E78.40452
G1 X93.574 Y88.757 E78.44512
G1 X93.426 Y88.964 E78.46036
G1 X93.043 Y89.547 E78.50212
G1 X92.647 Y90.286 E78.55231
G1 X92.338 Y91.013 E78.59961
G1 X92.101 Y91.746 E78.64573
G1 X98.438 Y85.409 E79.18226
G1 X98.74 Y85.323 E79.20106
G1 X98.984 Y85.267 E79.21604
G1 X99.663 Y85.139 E79.25741
G1 X100.17 Y85.091 E79.2879
G1 X91.785 Y93.475 E79.99779
G1 X91.749 Y94.342 E80.04974
G1 X91.749 Y94.926 E80.0847
G1 X101.626 Y85.05 E80.92091
G1 X103.04 Y85.05 E81.00556
G1 X91.749 Y96.34 E81.96149
G1 X91.749 Y97.754 E82.04614
G1 X104.431 Y85.073 E83.11984
G1 X104.785 Y85.088 E83.14105
G1 X105.704 Y85.213 E83.19658
G1 X91.749 Y99.168 E84.3781
G1 X91.749 Y100.583 E84.46281
G1 X106.814 Y85.518 E85.73831
G1 X107.181 Y85.638 E85.76143
G1 X107.831 Y85.915 E85.80373
G1 X91.749 Y101.997 E87.16534
G1 X91.749 Y103.411 E87.24999
G1 X108.752 Y86.409 E88.68953
G1 X109.234 Y86.727 E88.7241
G1 X109.591 Y86.983 E88.7504
G1 X91.749 Y104.825 E90.26102
G1 X91.749 Y106.239 E90.34568
G1 X110.342 Y87.647 E91.91984
G1 X110.578 Y87.872 E91.93936
G1 X111.024 Y88.379 E91.97978
G1 X91.749 Y107.654 E93.61173
G1 X91.749 Y109.068 E93.69638
G1 X111.628 Y89.19 E95.37943
G1 X112.033 Y89.861 E95.42635
G1 X112.143 Y90.088 E95.44145
G1 X91.749 Y110.482 E97.16814
G1 X91.749 Y111.896 E97.25279
G1 X112.572 Y91.073 E99.0158
G1 X112.684 Y91.366 E99.03458
G1 X112.907 Y92.153 E99.08355
G1 X91.749 Y113.311 E100.87493
G1 X91.749 Y114.725 E100.95958
G1 X113.098 Y93.376 E102.76712
G1 X113.13 Y93.712 E102.78733
G1 X113.149 Y94.249 E102.8195
G1 X113.149 Y94.74 E102.8489
G1 X91.749 Y116.139 E104.66072
G1 X91.749 Y117.553 E104.74537
G1 X113.149 Y96.154 E106.55719
G1 X113.149 Y97.568 E106.64184
G1 X91.749 Y118.967 E108.45366
G1 X91.749 Y120.382 E108.53838
G1 X113.149 Y98.982 E110.35024
G1 X113.149 Y100.397 E110.43495
G1 X91.749 Y121.796 E112.24677
G1 X91.749 Y123.21 E112.33143
G1 X113.149 Y101.811 E114.14325
G1 X113.149 Y103.225 E114.2279
G1 X91.749 Y124.624 E116.03972
G1 X91.749 Y126.038 E116.12438
G1 X113.149 Y104.639 E117.9362
G1 X113.149 Y106.053 E118.02085
G1 X91.749 Y127.453 E119.83271
G1 X91.749 Y128.867 E119.91737
G1 X113.149 Y107.468 E121.72919
G1 X113.149 Y108.882 E121.81384
G1 X91.749 Y130.281 E123.62566
G1 X91.749 Y131.695 E123.71032
G1 X113.149 Y110.296 E125.52214
G1 X113.149 Y111.71 E125.60679
G1 X91.749 Y133.11 E127.41865
G1 X91.749 Y134.524 E127.50331
G1 X113.149 Y113.125 E129.31513
G1 X113.149 Y114.539 E129.39978
G1 X91.749 Y135.938 E131.2116
G1 X91.749 Y137.352 E131.29625
G1 X113.149 Y115.953 E133.10807
G1 X113.149 Y116.283 E133.12783
G1 X113.193 Y116.989 E133.17018
G1 X113.247 Y117.269 E133.18725
G1 X91.749 Y138.766 E135.00737
G1 X91.749 Y140.181 E135.09208
G1 X113.552 Y118.378 E136.93807
G1 X113.874 Y119.069 E136.98371
G1 X114.03 Y119.314 E137.0011
G1 X91.794 Y141.55 E138.88374
G1 X91.839 Y142.026 E138.91236
G1 X91.982 Y142.776 E138.95807
G1 X114.62 Y120.138 E140.87475
G1 X115.354 Y120.819 E140.9347
G1 X92.305 Y143.868 E142.88617
G1 X92.5 Y144.383 E142.91914
G1 X92.73 Y144.857 E142.95068
G1 X116.223 Y121.364 E144.93975
G1 X116.519 Y121.524 E144.9599
G1 X117.211 Y121.79 E145.00428
G1 X93.235 Y145.766 E147.03425
G1 X93.831 Y146.585 E147.09489
G1 X118.395 Y122.02 E149.17468
G1 X118.644 Y122.05 E149.18969
G1 X119.378 Y122.043 E149.23364
G1 X119.852 Y121.978 E149.26228
G1 X94.516 Y147.314 E151.40739
G1 X94.912 Y147.689 E151.44004
G1 X95.269 Y147.974 E151.46739
G1 X122.147 Y121.097 E153.74301
G1 X122.715 Y120.67 E153.78556
G1 X123.235 Y120.169 E153.82879
G1 X123.487 Y119.87 E153.8522
G0 F9000 X124.575 Y118.618
G1 F1125 X123.998 Y119.223 E153.90225
G1 X123.913 Y119.331 E153.91048
G1 X125.114 Y118.13 E154.01216
G1 X125.85 Y117.595 E154.06663
G1 X126.569 Y117.159 E154.11698
G1 X127.318 Y116.799 E154.16673
G1 X128.189 Y116.469 E154.22249
G1 X96.088 Y148.57 E156.94037
G1 X97.012 Y149.06 E157.00298
G1 X129.961 Y116.111 E159.79266
G1 X130.427 Y116.067 E159.82068
G1 X130.956 Y116.05 E159.85237
G1 X131.437 Y116.049 E159.88117
G1 X98.026 Y149.461 E162.71
G1 X98.511 Y149.618 E162.74052
G1 X99.139 Y149.761 E162.77908
G1 X132.851 Y116.049 E165.63336
G1 X133.856 Y116.049 E165.69352
G1 X134.25 Y116.065 E165.71713
G1 X100.392 Y149.922 E168.58373
G1 X101.042 Y149.949 E168.62267
G1 X101.78 Y149.949 E168.66686
G1 X135.538 Y116.191 E171.52503
G1 X136.396 Y116.382 E171.57765
G1 X136.672 Y116.471 E171.59501
G1 X103.195 Y149.949 E174.42944
G1 X104.609 Y149.949 E174.51409
G1 X137.714 Y116.843 E177.31702
G1 X138.636 Y117.335 E177.37958
G1 X106.023 Y149.949 E180.14085
G1 X107.437 Y149.949 E180.22551
G1 X139.48 Y117.906 E182.93847
G1 X139.987 Y118.31 E182.97728
G1 X140.246 Y118.554 E182.99859
G1 X108.852 Y149.949 E185.65665
G1 X110.266 Y149.949 E185.7413
G1 X140.935 Y119.279 E188.33798
G1 X141.129 Y119.498 E188.3555
G1 X141.55 Y120.078 E188.3984
G1 X111.68 Y149.949 E190.92743
G1 X113.094 Y149.949 E191.01209
G1 X142.081 Y120.961 E193.46636
G1 X142.397 Y121.613 E193.50973
G1 X142.52 Y121.937 E193.53048
G1 X114.508 Y149.949 E195.90216
G1 X115.923 Y149.949 E195.98687
G1 X142.864 Y123.007 E198.26792
G1 X142.931 Y123.284 E198.28498
G1 X143.1 Y124.185 E198.33986
G1 X117.337 Y149.949 E200.52116
G1 X118.751 Y149.949 E200.60582
G1 X143.149 Y125.551 E202.67151
G1 X143.149 Y126.965 E202.75616
G1 X120.165 Y149.949 E204.70214
G1 X121.579 Y149.949 E204.78679
G1 X143.149 Y128.379 E206.61305
G1 X143.149 Y129.793 E206.6977
G1 X122.994 Y149.949 E208.4042
G1 X124.408 Y149.949 E208.48885
G1 X143.149 Y131.207 E210.07563
G1 X143.149 Y132.622 E210.16034
G1 X125.822 Y149.949 E211.62736
G1 X127.236 Y149.949 E211.71201
G1 X143.149 Y134.036 E213.05931
G1 X143.149 Y135.45 E213.14396
G1 X128.651 Y149.949 E214.3715
G1 X130.065 Y149.949 E214.45615
G1 X143.149 Y136.864 E215.56397
G1 X143.149 Y138.278 E215.64863
G1 X131.479 Y149.949 E216.63673
G1 X132.893 Y149.949 E216.72138
G1 X143.149 Y139.693 E217.58972
G1 X143.149 Y140.649 E217.64695
G1 X143.129 Y141.127 E217.6756
G1 X134.311 Y149.945 E218.42218
G1 X135.234 Y149.859 E218.47768
G1 X135.946 Y149.724 E218.52107
G1 X142.917 Y142.753 E219.11128
G1 X142.822 Y143.178 E219.13735
G1 X142.561 Y143.985 E219.18813
G1 X142.252 Y144.707 E219.23514
G1 X141.849 Y145.463 E219.28643
G1 X141.412 Y146.129 E219.33412
G1 X140.897 Y146.78 E219.38382
G1 X140.323 Y147.383 E219.43366
G1 X139.709 Y147.923 E219.48261
G1 X139.049 Y148.404 E219.53151
G1 X138.329 Y148.839 E219.58187
G1 X138.167 Y148.917 E219.59263
G1 X142.11 Y144.975 E219.92643
G1 F2700 E214.92643
G0 F300 X142.11 Y144.975 Z0.444
G0 F9000 X143.615 Y145.248
G0 X144.194 Y143.699
G0 X144.46 Y142.526
G0 X144.615 Y140.68
G0 X144.592 Y124.624
G0 X144.363 Y122.969
G0 X144.032 Y121.789
G0 X143.375 Y120.269
G0 X143.199 Y119.978
G0 X142.348 Y118.685
G0 X141.129 Y119.498
;TIME_ELAPSED:231.430653
;LAYER:-4
