;FLAVOR:Marlin
;TIME:4598
;Filament used: 1.8626m
;Layer height: 0.12
;MINX:94.185
;MINY:86.636
;MINZ:0.144
;MAXX:140.815
;MAXY:148.353
;MAXZ:16.674
;Generated with Cura_SteamEngine 5.2.1
M140 S60
M105
M190 S60
M104 S200
M105
M109 S200
M82 ;absolute extrusion mode
; Ender 3 Custom Start G-code
G92 E0 ; Reset Extruder
G28 ; Home all axes
G1 Z2.0 F3000 ; Move Z Axis up little to prevent scratching of Heat Bed
G1 X0.1 Y20 Z0.3 F5000.0 ; Move to start position
G1 X0.1 Y200.0 Z0.3 F1500.0 E15 ; Draw the first line
G1 X0.4 Y200.0 Z0.3 F5000.0 ; Move to side a little
G1 X0.4 Y20 Z0.3 F1500.0 E30 ; Draw the second line
G92 E0 ; Reset Extruder
G1 Z2.0 F3000 ; Move Z Axis up little to prevent scratching of Heat Bed
G1 X5 Y20 Z0.3 F5000.0 ; Move over to prevent blob squish
G92 E0
G92 E0
G1 F2700 E-5
;LAYER_COUNT:133
;LAYER:-6
M107
G0 F9000 X97.079 Y91.666 Z0.144
;TYPE:SUPPORT-INTERFACE
G1 F2700 E0
G1 F1125 X96.604 Y92.386 E0.04131
G1 X96.194 Y93.15 E0.08284
G1 X95.866 Y93.92 E0.12293
G1 X95.598 Y94.749 E0.16465
G1 X95.406 Y95.584 E0.20569
G1 X95.288 Y96.443 E0.24722
G1 X95.25 Y97.376 E0.29194
G1 X95.251 Y137.694 E2.22295
G1 X95.27 Y138.248 E2.2495
G1 X95.345 Y139.041 E2.28765
G1 X95.506 Y139.895 E2.32928
G1 X95.736 Y140.714 E2.37002
G1 X96.041 Y141.51 E2.41085
G1 X96.42 Y142.289 E2.45234
G1 X96.853 Y143.011 E2.49266
G1 X97.371 Y143.717 E2.5346
G1 X97.937 Y144.36 E2.57562
G1 X98.549 Y144.94 E2.61601
G1 X99.216 Y145.471 E2.65684
G1 X99.937 Y145.947 E2.69822
G1 X100.701 Y146.357 E2.73975
G1 X101.406 Y146.657 E2.77644
G1 X102.292 Y146.951 E2.82115
G1 X103.132 Y147.144 E2.86243
G1 X103.994 Y147.262 E2.9041
G1 X104.926 Y147.3 E2.94878
G1 X130.158 Y147.3 E4.15725
G1 X130.698 Y147.28 E4.18313
G1 X131.493 Y147.205 E4.22138
G1 X132.346 Y147.044 E4.26296
G1 X133.155 Y146.817 E4.3032
G1 X133.956 Y146.511 E4.34427
G1 X134.732 Y146.134 E4.38559
G1 X135.469 Y145.691 E4.42677
G1 X136.166 Y145.179 E4.46819
G1 X136.811 Y144.612 E4.50932
G1 X137.39 Y144.001 E4.54964
G1 X137.927 Y143.327 E4.59091
G1 X138.396 Y142.613 E4.63183
G1 X138.807 Y141.849 E4.67338
G1 X139.105 Y141.15 E4.70977
G1 X139.401 Y140.258 E4.75478
G1 X139.594 Y139.419 E4.79602
G1 X139.711 Y138.56 E4.83754
G1 X139.747 Y137.758 E4.87599
G1 X139.749 Y97.306 E6.81342
G1 X139.73 Y96.751 E6.84002
G1 X139.655 Y95.959 E6.87812
G1 X139.495 Y95.107 E6.91964
G1 X139.267 Y94.295 E6.96003
G1 X138.965 Y93.503 E7.00063
G1 X138.583 Y92.718 E7.04244
G1 X138.141 Y91.981 E7.0836
G1 X137.629 Y91.284 E7.12502
G1 X137.062 Y90.639 E7.16616
G1 X136.451 Y90.06 E7.20647
G1 X135.783 Y89.528 E7.24737
G1 X135.063 Y89.054 E7.28866
G1 X134.302 Y88.644 E7.33006
G1 X133.594 Y88.343 E7.36691
G1 X132.708 Y88.049 E7.41161
G1 X131.868 Y87.856 E7.45289
G1 X131.006 Y87.738 E7.49456
G1 X130.074 Y87.701 E7.53924
G1 X104.842 Y87.7 E8.74771
G1 X104.302 Y87.72 E8.77359
G1 X103.507 Y87.795 E8.81184
G1 X102.654 Y87.956 E8.85342
G1 X101.845 Y88.183 E8.89366
G1 X101.044 Y88.489 E8.93473
G1 X100.268 Y88.866 E8.97605
G1 X99.531 Y89.309 E9.01723
G1 X98.834 Y89.82 E9.05862
G1 X98.189 Y90.388 E9.09979
G1 X97.61 Y90.999 E9.1401
G1 X97.079 Y91.666 E9.18094
G0 F9000 X97.014 Y92.488
G1 F1125 X139.346 Y134.821 E12.04825
G0 F9000 X139.346 Y137.083
G1 F1125 X96.264 Y94.002 E14.9663
G0 F9000 X95.781 Y95.781
G1 F1125 X139.218 Y139.218 E17.90842
G0 F9000 X138.734 Y140.997
G1 F1125 X95.649 Y97.912 E20.82671
G0 F9000 X95.649 Y100.175
G1 F1125 X137.984 Y142.51 E23.69419
G0 F9000 X137.02 Y143.808
G1 F1125 X95.649 Y102.437 E26.49638
G0 F9000 X95.649 Y104.7
G1 F1125 X135.857 Y144.908 E29.2198
G0 F9000 X134.491 Y145.805
G1 F1125 X95.649 Y106.963 E31.85069
G0 F9000 X95.649 Y109.226
G1 F1125 X132.896 Y146.472 E34.37351
G0 F9000 X131.009 Y146.848
G1 F1125 X95.649 Y111.488 E36.76856
G0 F9000 X95.649 Y113.751
G1 F1125 X128.797 Y146.899 E39.01378
G0 F9000 X126.534 Y146.899
G1 F1125 X95.649 Y116.014 E41.10572
G0 F9000 X95.65 Y118.277
G1 F1125 X124.271 Y146.899 E43.04434
G0 F9000 X122.009 Y146.899
G1 F1125 X95.65 Y120.54 E44.82972
G0 F9000 X95.65 Y122.803
G1 F1125 X119.746 Y146.899 E46.46182
G0 F9000 X117.483 Y146.899
G1 F1125 X95.65 Y125.065 E47.94067
G0 F9000 X95.65 Y127.328
G1 F1125 X115.22 Y146.899 E49.26625
G0 F9000 X112.958 Y146.899
G1 F1125 X95.65 Y129.591 E50.43857
G0 F9000 X95.65 Y131.854
G1 F1125 X110.695 Y146.899 E51.45762
G0 F9000 X108.432 Y146.899
G1 F1125 X95.65 Y134.116 E52.32342
G0 F9000 X95.65 Y136.379
G1 F1125 X106.169 Y146.899 E53.03594
G0 F9000 X103.844 Y146.837
G1 F1125 X95.715 Y138.707 E53.58657
G0 F9000 X96.704 Y141.959
G1 F1125 X100.585 Y145.84 E53.84945
G1 F2700 E48.84945
G0 F9000 X100.125 Y147.255
G0 X101.237 Y147.729
G0 X102.833 Y148.168
G0 X104.023 Y148.328
G0 X130.776 Y148.342
G0 X132.431 Y148.113
G0 X133.611 Y147.782
G0 X135.131 Y147.125
G0 X136.162 Y146.502
G0 X137.44 Y145.479
G0 X138.279 Y144.595
G0 X139.247 Y143.257
G0 X139.815 Y142.198
G0 X140.394 Y140.649
G0 X140.66 Y139.476
G0 X140.781 Y138.109
G0 X140.815 Y132.558
G0 X139.346 Y132.558
G1 F2700 E53.84945
G1 F1125 X97.978 Y91.19 E56.65143
G0 F9000 X99.141 Y90.09
G1 F1125 X139.346 Y130.295 E59.37465
G0 F9000 X139.346 Y128.032
G1 F1125 X100.508 Y89.194 E62.00527
G0 F9000 X102.102 Y88.526
G1 F1125 X139.346 Y125.77 E64.52792
G0 F9000 X139.347 Y123.508
G1 F1125 X103.989 Y88.15 E66.92283
G0 F9000 X106.202 Y88.1
G1 F1125 X139.347 Y121.245 E69.16785
G0 F9000 X139.347 Y118.982
G1 F1125 X108.465 Y88.1 E71.25958
G0 F9000 X110.727 Y88.1
G1 F1125 X139.347 Y116.719 E73.19807
G0 F9000 X139.347 Y114.457
G1 F1125 X112.99 Y88.1 E74.98332
G0 F9000 X115.253 Y88.1
G1 F1125 X139.347 Y112.194 E76.61528
G0 F9000 X139.348 Y109.932
G1 F1125 X117.516 Y88.101 E78.094
G0 F9000 X119.779 Y88.101
G1 F1125 X139.348 Y107.669 E79.41944
G0 F9000 X139.348 Y105.406
G1 F1125 X122.042 Y88.101 E80.59159
G0 F9000 X124.305 Y88.101
G1 F1125 X139.348 Y103.144 E81.6105
G0 F9000 X139.348 Y100.881
G1 F1125 X126.567 Y88.101 E82.47617
G0 F9000 X128.83 Y88.101
G1 F1125 X139.348 Y98.618 E83.18855
G0 F9000 X139.285 Y96.293
G1 F1125 X131.154 Y88.162 E83.73929
G0 F9000 X134.414 Y89.159
G1 F1125 X138.293 Y93.038 E84.00203
G1 F2700 E79.00203
G0 F300 X138.293 Y93.038 Z0.324
G0 F9000 X139.461 Y92.111
G0 X138.548 Y90.735
G0 X137.743 Y89.817
G0 X136.511 Y88.746
G0 X135.498 Y88.079
G0 X134.001 Y87.359
G0 X132.851 Y86.989
G0 X131.223 Y86.694
G0 X130.09 Y86.636
G0 X104.224 Y86.658
G0 X102.569 Y86.887
G0 X101.389 Y87.218
G0 X100.158 Y87.749
G0 X99.057 Y88.352
G0 X99.75 Y89.644
;TIME_ELAPSED:105.617414
;LAYER:-5
;TYPE:SUPPORT
G1 F2700 E84.00203
G1 F1125 X99.092 Y90.123 E84.05075
G1 X98.475 Y90.665 E84.09992
G1 X97.896 Y91.276 E84.15031
G1 X97.474 Y91.807 E84.19092
G1 X97.326 Y92.015 E84.2062
G1 X97.011 Y92.493 E84.24047
G1 X100.026 Y89.477 E84.49579
G1 X100.469 Y89.21 E84.52675
G1 X101.218 Y88.849 E84.57653
G1 X101.973 Y88.563 E84.62487
G1 X102.507 Y88.411 E84.65811
G1 X95.957 Y94.961 E85.21267
G1 X95.798 Y95.658 E85.25547
G1 X95.687 Y96.462 E85.30406
G1 X95.68 Y96.652 E85.31544
G1 X104.211 Y88.121 E86.03773
G1 X104.856 Y88.1 E86.07637
G1 X105.647 Y88.099 E86.12373
G1 X95.65 Y98.096 E86.97014
G1 X95.65 Y99.511 E87.05485
G1 X107.061 Y88.099 E88.02102
G1 X108.475 Y88.099 E88.10567
G1 X95.65 Y100.925 E89.19156
G1 X95.65 Y102.339 E89.27622
G1 X109.89 Y88.099 E90.48187
G1 X111.304 Y88.099 E90.56652
G1 X95.65 Y103.753 E91.89189
G1 X95.65 Y105.167 E91.97655
G1 X112.718 Y88.099 E93.42163
G1 X114.132 Y88.099 E93.50629
G1 X95.65 Y106.582 E95.07114
G1 X95.65 Y107.996 E95.15579
G1 X115.546 Y88.099 E96.84036
G1 X116.961 Y88.099 E96.92507
G1 X95.65 Y109.41 E98.7294
G1 X95.65 Y110.824 E98.81405
G1 X118.375 Y88.099 E100.7381
G1 X119.789 Y88.099 E100.82275
G1 X95.65 Y112.239 E102.86656
G1 X95.65 Y113.653 E102.95121
G1 X121.203 Y88.099 E105.11473
G1 X122.617 Y88.099 E105.19939
G1 X95.65 Y115.067 E107.48263
G1 X95.65 Y116.481 E107.56729
G1 X124.032 Y88.099 E109.97029
G1 X125.446 Y88.099 E110.05494
G1 X95.65 Y117.895 E112.57767
G1 X95.65 Y119.31 E112.66238
G1 X126.86 Y88.099 E115.30486
G1 X128.274 Y88.099 E115.38952
G1 X95.65 Y120.724 E118.15172
G1 X95.65 Y122.138 E118.23637
G1 X129.689 Y88.099 E121.11833
G1 X130.056 Y88.099 E121.14031
G1 X131.061 Y88.141 E121.20053
G1 X95.65 Y123.552 E124.19865
G1 X95.65 Y124.966 E124.2833
G1 X132.261 Y88.355 E127.38303
G1 X132.588 Y88.43 E127.40311
G1 X133.353 Y88.678 E127.45126
G1 X95.65 Y126.381 E130.64344
G1 X95.65 Y127.795 E130.72809
G1 X134.33 Y89.115 E134.00299
G1 X134.859 Y89.399 E134.03894
G1 X135.222 Y89.637 E134.06493
G1 X95.65 Y129.209 E137.41535
G1 X95.65 Y130.623 E137.5
G1 X136.047 Y90.226 E140.92027
G1 X136.772 Y90.915 E140.98015
G1 X95.65 Y132.038 E144.46185
G1 X95.65 Y133.452 E144.5465
G1 X137.423 Y91.679 E148.08328
G1 X137.811 Y92.21 E148.12265
G1 X137.997 Y92.519 E148.14424
G1 X95.65 Y134.866 E151.72961
G1 X95.65 Y136.28 E151.81427
G1 X138.49 Y93.44 E155.44138
G1 X138.598 Y93.663 E155.45621
G1 X138.893 Y94.451 E155.50659
G1 X95.65 Y137.694 E159.16782
G1 X95.668 Y138.218 E159.19921
G1 X95.745 Y139.013 E159.24703
G1 X139.177 Y95.581 E162.92426
G1 X139.259 Y96.015 E162.9507
G1 X139.331 Y96.841 E163.00034
G1 X95.999 Y140.174 E166.66915
G1 X96.111 Y140.574 E166.69402
G1 X96.36 Y141.227 E166.73586
G1 X139.348 Y98.239 E170.3755
G1 X139.348 Y99.653 E170.46016
G1 X96.821 Y142.18 E174.06077
G1 X97.186 Y142.788 E174.10322
G1 X97.373 Y143.042 E174.12211
G1 X139.348 Y101.067 E177.67598
G1 X139.348 Y102.481 E177.76064
G1 X98.002 Y143.827 E181.26126
G1 X98.223 Y144.079 E181.28132
G1 X98.705 Y144.538 E181.32117
G1 X139.348 Y103.895 E184.76227
G1 X139.348 Y105.31 E184.84698
G1 X99.489 Y145.169 E188.2217
G1 X100.34 Y145.732 E188.28279
G1 X139.348 Y106.724 E191.58546
G1 X139.348 Y108.138 E191.67012
G1 X101.307 Y146.179 E194.89091
G1 X101.617 Y146.31 E194.91106
G1 X102.351 Y146.55 E194.95729
G1 X139.348 Y109.552 E198.08974
G1 X139.348 Y110.966 E198.1744
G1 X103.521 Y146.793 E201.20774
G1 X104.013 Y146.861 E201.23748
G1 X104.834 Y146.895 E201.28667
G1 X139.348 Y112.381 E204.20885
G1 X139.348 Y113.795 E204.2935
G1 X106.244 Y146.899 E207.0963
G1 X107.659 Y146.899 E207.18102
G1 X139.348 Y115.209 E209.86406
G1 X139.348 Y116.623 E209.94871
G1 X109.073 Y146.899 E212.51203
G1 X110.487 Y146.899 E212.59668
G1 X139.348 Y118.038 E215.04024
G1 X139.348 Y119.452 E215.1249
G1 X111.901 Y146.899 E217.44874
G1 X113.315 Y146.899 E217.53339
G1 X139.348 Y120.866 E219.73751
G1 X139.348 Y122.28 E219.82217
G1 X114.73 Y146.899 E221.90653
G1 X116.144 Y146.899 E221.99118
G1 X139.348 Y123.694 E223.95583
G1 X139.348 Y125.109 E224.04054
G1 X117.558 Y146.899 E225.88542
G1 X118.972 Y146.899 E225.97008
G1 X139.348 Y126.523 E227.69524
G1 X139.348 Y127.937 E227.77989
G1 X120.387 Y146.899 E229.3853
G1 X121.801 Y146.899 E229.46995
G1 X139.348 Y129.351 E230.95564
G1 X139.348 Y130.765 E231.04029
G1 X123.215 Y146.899 E232.40626
G1 X124.629 Y146.899 E232.49091
G1 X139.348 Y132.18 E233.73712
G1 X139.348 Y133.594 E233.82177
G1 X126.043 Y146.899 E234.94826
G1 X127.458 Y146.899 E235.03297
G1 X139.348 Y135.008 E236.0397
G1 X139.348 Y136.422 E236.12435
G1 X128.872 Y146.899 E237.01136
G1 X130.291 Y146.894 E237.09631
G1 X139.338 Y137.846 E237.86233
G1 X139.311 Y138.536 E237.90367
G1 X139.192 Y139.408 E237.95636
G1 X131.859 Y146.74 E238.57718
G1 X132.359 Y146.625 E238.6079
G1 X133.025 Y146.436 E238.64934
G1 X133.915 Y146.099 E238.70632
G1 X138.525 Y141.488 E239.09667
G1 X138.453 Y141.658 E239.10772
G1 X138.048 Y142.414 E239.15907
G1 X137.611 Y143.08 E239.20676
G1 X137.097 Y143.73 E239.25637
G1 X136.523 Y144.333 E239.30621
G1 X135.908 Y144.873 E239.35521
G1 X135.248 Y145.354 E239.4041
G1 X134.529 Y145.789 E239.45441
G1 F2700 E234.45441
G0 F300 X134.529 Y145.789 Z0.444
G0 F9000 X135.131 Y147.125
G0 X133.611 Y147.782
G0 X132.431 Y148.113
G0 X130.598 Y148.353
G0 X104.023 Y148.328
G0 X102.833 Y148.168
G0 X101.237 Y147.729
G0 X100.125 Y147.255
G0 X98.989 Y146.58
G0 X97.955 Y145.829
G0 X98.845 Y144.666
;TIME_ELAPSED:246.781183
;LAYER:-4
;TYPE:SUPPORT-INTERFACE
G1 F2700 E239.45441
G1 F1500 X97.964 Y143.785 E239.47928
G1 X98.223 Y144.079 E239.4871
G1 X98.811 Y144.639 E239.5033
G1 X99.357 Y145.073 E239.51722
G1 X99.564 Y145.222 E239.52231
G1 X100.14 Y145.6 E239.53606
G1 X100.58 Y145.835 E239.54601
G1 X96.701 Y141.955 E239.6555
G1 X96.399 Y141.333 E239.6693
G1 X96.249 Y140.939 E239.67771
G1 X101.623 Y146.312 E239.82936
G1 X102.454 Y146.578 E239.84678
G1 X95.978 Y140.101 E240.02956
G1 X95.867 Y139.664 E240.03855
G1 X95.812 Y139.37 E240.04452
G1 X103.187 Y146.745 E240.25266
G1 X103.846 Y146.838 E240.26594
G1 X95.713 Y138.705 E240.49547
G1 X95.655 Y138.081 E240.50798
G1 X104.453 Y146.879 E240.75628
G1 X105.037 Y146.898 E240.76794
G1 X95.65 Y137.511 E241.03286
G1 X95.65 Y136.945 E241.04416
G1 X105.603 Y146.898 E241.32505
G1 X106.169 Y146.898 E241.33635
G1 X95.65 Y136.379 E241.63321
G1 X95.65 Y135.813 E241.64451
G1 X106.734 Y146.898 E241.95734
G1 X107.3 Y146.898 E241.96863
G1 X95.65 Y135.248 E242.29742
G1 X95.65 Y134.682 E242.30872
G1 X107.866 Y146.898 E242.65348
G1 X108.431 Y146.898 E242.66475
G1 X95.65 Y134.116 E243.02548
G1 X95.65 Y133.551 E243.03675
G1 X108.997 Y146.898 E243.41343
G1 X109.563 Y146.898 E243.42473
G1 X95.65 Y132.985 E243.81738
G1 X95.65 Y132.419 E243.82868
G1 X110.129 Y146.898 E244.23731
G1 X110.694 Y146.898 E244.24858
G1 X95.65 Y131.854 E244.67316
G1 X95.65 Y131.288 E244.68445
G1 X111.26 Y146.898 E245.125
G1 X111.826 Y146.898 E245.13629
G1 X95.65 Y130.722 E245.59282
G1 X95.65 Y130.157 E245.60409
G1 X112.391 Y146.898 E246.07656
G1 X112.957 Y146.898 E246.08785
G1 X95.65 Y129.591 E246.57629
G1 X95.65 Y129.025 E246.58759
G1 X113.523 Y146.898 E247.092
G1 X114.088 Y146.898 E247.10328
G1 X95.65 Y128.46 E247.62364
G1 X95.65 Y127.894 E247.63493
G1 X114.654 Y146.898 E248.17127
G1 X115.22 Y146.898 E248.18256
G1 X95.65 Y127.328 E248.73487
G1 X95.65 Y126.763 E248.74615
G1 X115.785 Y146.898 E249.3144
G1 X116.351 Y146.898 E249.32569
G1 X95.65 Y126.197 E249.90992
G1 X95.65 Y125.631 E249.92122
G1 X116.917 Y146.898 E250.52142
G1 X117.482 Y146.898 E250.53269
G1 X95.65 Y125.065 E251.14885
G1 X95.65 Y124.5 E251.16013
G1 X118.048 Y146.898 E251.79225
G1 X118.614 Y146.898 E251.80354
G1 X95.65 Y123.934 E252.45164
G1 X95.65 Y123.368 E252.46293
G1 X119.18 Y146.898 E253.127
G1 X119.745 Y146.898 E253.13827
G1 X95.65 Y122.803 E253.81829
G1 X95.65 Y122.237 E253.82958
G1 X120.311 Y146.898 E254.52557
G1 X120.877 Y146.898 E254.53686
G1 X95.65 Y121.671 E255.24882
G1 X95.65 Y121.106 E255.2601
G1 X121.442 Y146.898 E255.98801
G1 X122.008 Y146.898 E255.9993
G1 X95.65 Y120.54 E256.74318
G1 X95.65 Y119.974 E256.75448
G1 X122.574 Y146.898 E257.51433
G1 X123.139 Y146.898 E257.5256
G1 X95.65 Y119.409 E258.3014
G1 X95.65 Y118.843 E258.3127
G1 X123.705 Y146.898 E259.10447
G1 X124.271 Y146.898 E259.11577
G1 X95.65 Y118.277 E259.92351
G1 X95.65 Y117.712 E259.93479
G1 X124.836 Y146.898 E260.75848
G1 X125.402 Y146.898 E260.76978
G1 X95.65 Y117.146 E261.60944
G1 X95.65 Y116.58 E261.62074
G1 X125.968 Y146.898 E262.47638
G1 X126.533 Y146.898 E262.48765
G1 X95.65 Y116.015 E263.35924
G1 X95.65 Y115.449 E263.37053
G1 X127.099 Y146.898 E264.25809
G1 X127.665 Y146.898 E264.26938
G1 X95.65 Y114.883 E265.17292
G1 X95.65 Y114.317 E265.18421
G1 X128.23 Y146.898 E266.1037
G1 X128.796 Y146.898 E266.115
G1 X95.65 Y113.752 E267.05045
G1 X95.65 Y113.186 E267.06175
G1 X129.362 Y146.898 E268.01317
G1 X129.928 Y146.898 E268.02447
G1 X95.65 Y112.62 E268.99187
G1 X95.65 Y112.055 E269.00314
G1 X130.493 Y146.898 E269.98649
G1 X131.009 Y146.849 E269.99683
G1 X95.65 Y111.489 E270.99475
G1 X95.65 Y110.923 E271.00605
G1 X131.519 Y146.792 E272.01835
G1 X131.995 Y146.703 E272.02801
G1 X95.65 Y110.358 E273.05375
G1 X95.65 Y109.792 E273.06504
G1 X132.455 Y146.598 E274.10377
G1 X132.896 Y146.472 E274.11292
G1 X95.65 Y109.226 E275.16409
G1 X95.65 Y108.661 E275.17536
G1 X133.315 Y146.326 E276.23835
G1 X133.726 Y146.171 E276.24712
G1 X95.65 Y108.095 E277.3217
G1 X95.65 Y107.529 E277.333
G1 X134.111 Y145.99 E278.41845
G1 X134.492 Y145.806 E278.42689
G1 X95.65 Y106.964 E279.5231
G1 X95.65 Y106.398 E279.53439
G1 X134.848 Y145.596 E280.64065
G1 X135.2 Y145.382 E280.64887
G1 X95.65 Y105.832 E281.76505
G1 X95.65 Y105.266 E281.77635
